berkeleyopenarms/experiments/icra_plots/pp_data/ee.csv
time,x,y,z,qx,qy,qz,qw,j0,j1,j2,j3,j4,j5,j6
1535249852.336998523,-0.0794924,-0.421645,0.387774,0.180481,-0.358064,0.79274,-0.459108,-1.60116,-0.716456,-0.958241,-0.000245637,-0.818752,1.80885,-1.93226
1535249852.343101819,-0.079953,-0.421827,0.387161,0.18052,-0.357936,0.793045,-0.458665,-1.60014,-0.716422,-0.959015,-0.000109159,-0.820151,1.80906,-1.93071
1535249852.349235430,-0.0802,-0.422036,0.386619,0.180598,-0.357729,0.793233,-0.45847,-1.59956,-0.716228,-0.959742,-0.000109159,-0.821453,1.80913,-1.92935
1535249852.360963216,-0.0804322,-0.422445,0.385839,0.18074,-0.357002,0.793664,-0.458236,-1.59881,-0.715138,-0.961437,-8.18736e-05,-0.823671,1.80913,-1.92735
1535249852.367065673,-0.0807554,-0.422698,0.385234,0.180882,-0.356744,0.793908,-0.457958,-1.59801,-0.714674,-0.962167,-0.000136462,-0.825258,1.80916,-1.9258
1535249852.373227146,-0.08117,-0.422861,0.384712,0.180871,-0.356802,0.794197,-0.457416,-1.59705,-0.714266,-0.962615,-0.000163747,-0.826697,1.80931,-1.92497
1535249852.385014232,-0.082201,-0.423134,0.383566,0.18019,-0.357296,0.79449,-0.45679,-1.59443,-0.713559,-0.963371,-0.000218335,-0.829713,1.80913,-1.92375
1535249852.391063347,-0.082664,-0.42334,0.382966,0.180076,-0.357394,0.794665,-0.456453,-1.59326,-0.712908,-0.963753,-0.000218335,-0.831442,1.80908,-1.92284
1535249852.397232513,-0.0829344,-0.42351,0.382436,0.179912,-0.35755,0.794775,-0.456204,-1.59251,-0.712499,-0.964063,-0.000163747,-0.832878,1.80895,-1.92233
1535249852.409542747,-0.0836359,-0.423862,0.381299,0.17989,-0.357652,0.795035,-0.45568,-1.5907,-0.712116,-0.96449,-0.000245637,-0.835658,1.80853,-1.9202
1535249852.415131283,-0.0841151,-0.424026,0.380722,0.179976,-0.357753,0.79522,-0.455244,-1.58958,-0.711926,-0.964562,-0.000191049,-0.837101,1.80846,-1.91897
1535249852.421259722,-0.0845431,-0.424202,0.380038,0.179928,-0.35794,0.795383,-0.45483,-1.58846,-0.711872,-0.96461,-0.000163747,-0.838691,1.80811,-1.9179
1535249852.433225599,-0.0851977,-0.424506,0.378848,0.179718,-0.358424,0.795459,-0.454398,-1.5867,-0.711819,-0.964516,-0.000163747,-0.841451,1.80742,-1.91628
1535249852.439325882,-0.085551,-0.424683,0.378061,0.179487,-0.358863,0.795408,-0.454232,-1.58579,-0.712008,-0.964491,-0.000218335,-0.843178,1.80711,-1.91537
1535249852.445446066,-0.0860679,-0.424798,0.377421,0.17939,-0.359227,0.79554,-0.453753,-1.58456,-0.712118,-0.964349,-0.000109159,-0.844625,1.80691,-1.91446
1535249852.457120840,-0.087013,-0.425071,0.376108,0.178995,-0.359722,0.795785,-0.453086,-1.582,-0.712091,-0.964325,-0.000109159,-0.847601,1.80595,-1.91267
1535249852.463251432,-0.0876108,-0.425129,0.375615,0.178835,-0.359956,0.796003,-0.45258,-1.58056,-0.712091,-0.964325,-0.000218335,-0.848738,1.80577,-1.91188
1535249852.469416975,-0.0883818,-0.425204,0.375017,0.178743,-0.360168,0.796328,-0.451877,-1.5788,-0.712063,-0.964443,-0.000163747,-0.850141,1.80577,-1.91068
1535249852.481281141,-0.0891585,-0.425501,0.373813,0.17874,-0.360413,0.796567,-0.45126,-1.57683,-0.712008,-0.964491,-0.000136462,-0.852898,1.80518,-1.90846
1535249852.487410340,-0.0895638,-0.42564,0.373065,0.178357,-0.360843,0.796584,-0.451039,-1.57571,-0.712061,-0.964537,-0.000136462,-0.854574,1.80473,-1.90785
1535249852.493077102,-0.0901894,-0.425776,0.372325,0.17814,-0.361224,0.796705,-0.450605,-1.57416,-0.711927,-0.964468,-8.18736e-05,-0.856356,1.80444,-1.90686
1535249852.505420086,-0.0915495,-0.425921,0.370853,0.177368,-0.362304,0.797034,-0.449459,-1.5709,-0.712089,-0.964466,-0.000163747,-0.859719,1.8041,-1.90555
1535249852.511024927,-0.0920924,-0.426014,0.370129,0.177,-0.362756,0.797157,-0.44902,-1.56962,-0.712168,-0.964677,-0.000163747,-0.86136,1.80404,-1.90488
1535249852.517192540,-0.0928275,-0.426082,0.369439,0.176703,-0.363203,0.797346,-0.44844,-1.56792,-0.71214,-0.964701,-0.000191049,-0.862991,1.80397,-1.90403
1535249852.529494203,-0.0934653,-0.426345,0.368163,0.17627,-0.363766,0.79743,-0.448005,-1.56631,-0.712081,-0.965078,-0.000109159,-0.865943,1.80366,-1.90264
1535249852.535650241,-0.093951,-0.426483,0.367491,0.176201,-0.363855,0.797652,-0.447565,-1.56514,-0.711996,-0.965385,-0.000191049,-0.867495,1.80352,-1.90144
1535249852.541773605,-0.094591,-0.426576,0.366708,0.175928,-0.364338,0.797794,-0.447026,-1.5637,-0.712103,-0.965478,-0.000191049,-0.869274,1.80353,-1.90051
1535249852.553580581,-0.0959444,-0.42681,0.365212,0.175662,-0.364762,0.798294,-0.44589,-1.56071,-0.711904,-0.966256,-8.18736e-05,-0.872821,1.8038,-1.89785
1535249852.559660696,-0.0964899,-0.426953,0.364471,0.175449,-0.364662,0.798654,-0.445412,-1.55932,-0.711758,-0.967081,-8.18736e-05,-0.874485,1.80362,-1.89648
1535249852.565811537,-0.0968998,-0.427075,0.363878,0.175054,-0.364508,0.798874,-0.445297,-1.55804,-0.711533,-0.967789,-0.000136462,-0.875796,1.80301,-1.89553
1535249852.578099388,-0.0976491,-0.427346,0.362549,0.173787,-0.364385,0.799288,-0.445153,-1.55548,-0.710752,-0.969633,-0.000163747,-0.878893,1.80168,-1.89438
1535249852.584256630,-0.0981759,-0.427434,0.361939,0.17312,-0.364438,0.79963,-0.444753,-1.55399,-0.710159,-0.970662,-0.000245637,-0.880486,1.80143,-1.8941
1535249852.589878952,-0.0987803,-0.427562,0.361109,0.172491,-0.364607,0.799849,-0.444466,-1.55234,-0.709825,-0.971464,-0.000245637,-0.882451,1.80105,-1.89328
1535249852.602211511,-0.099834,-0.427819,0.359596,0.171173,-0.364621,0.800373,-0.444021,-1.54924,-0.708954,-0.973479,-0.000136462,-0.88606,1.80012,-1.89181
1535249852.608350229,-0.100299,-0.427989,0.358764,0.170602,-0.364489,0.800647,-0.443855,-1.54791,-0.708576,-0.974785,-0.000109159,-0.887986,1.79982,-1.8907
1535249852.614564658,-0.100852,-0.428129,0.357922,0.169998,-0.364417,0.80096,-0.44358,-1.54631,-0.708275,-0.975886,-0.000136462,-0.889888,1.79932,-1.88963
1535249852.651359797,-0.101027,-0.428342,0.357232,0.169632,-0.364006,0.801233,-0.443567,-1.54551,-0.70781,-0.977128,-0.000163747,-0.891477,1.79871,-1.88856
1535249852.657475681,-0.104617,-0.429358,0.352457,0.168059,-0.362405,0.803721,-0.440967,-1.53601,-0.704531,-0.983522,-0.000163747,-0.903125,1.7971,-1.87938
1535249852.663125885,-0.105116,-0.429579,0.351697,0.16813,-0.362012,0.804158,-0.440465,-1.53467,-0.703768,-0.984326,-0.000109159,-0.905108,1.79679,-1.87765
1535249852.669236699,-0.105586,-0.429825,0.350786,0.168126,-0.36182,0.804438,-0.440114,-1.53345,-0.703141,-0.985013,-0.000163747,-0.907392,1.7965,-1.87586
1535249852.675328398,-0.106142,-0.429984,0.350161,0.168133,-0.361569,0.804794,-0.439665,-1.53206,-0.702377,-0.985632,-0.000218335,-0.909117,1.79635,-1.87442
1535249852.681478022,-0.106622,-0.430122,0.349426,0.167722,-0.361735,0.804964,-0.439375,-1.53078,-0.701696,-0.98618,-8.18736e-05,-0.911082,1.79612,-1.87378
1535249852.687061098,-0.107074,-0.430268,0.348633,0.167323,-0.361994,0.805059,-0.439139,-1.52961,-0.701124,-0.986632,-0.000163747,-0.913143,1.79592,-1.87309
1535249852.693259056,-0.107589,-0.430375,0.347944,0.167026,-0.362156,0.805246,-0.438776,-1.52833,-0.700633,-0.987059,-0.000163747,-0.914924,1.79579,-1.87229
1535249852.699433242,-0.108275,-0.430438,0.34721,0.166603,-0.362443,0.805499,-0.438235,-1.52662,-0.700144,-0.987393,-0.000109159,-0.91681,1.79557,-1.87162
1535249852.704971074,-0.108772,-0.430521,0.346522,0.16628,-0.362708,0.805658,-0.437845,-1.52544,-0.699789,-0.987796,-0.000163747,-0.918542,1.79557,-1.87095
1535249852.711113576,-0.10919,-0.430631,0.345755,0.165819,-0.363107,0.80567,-0.437668,-1.52438,-0.699393,-0.988094,-0.000136462,-0.920476,1.79539,-1.87048
1535249852.717260709,-0.109558,-0.430719,0.345008,0.165264,-0.363565,0.805707,-0.43743,-1.52342,-0.699053,-0.988483,-0.000218335,-0.922339,1.79526,-1.87031
1535249852.723422519,-0.110108,-0.430763,0.34429,0.164889,-0.364079,0.805773,-0.437022,-1.52219,-0.698869,-0.988597,-0.000163747,-0.924104,1.79532,-1.8698
1535249852.728965394,-0.110721,-0.430806,0.343544,0.164551,-0.36437,0.80597,-0.436542,-1.5207,-0.698792,-0.988804,-0.000191049,-0.925799,1.79508,-1.86892
1535249852.735113473,-0.111341,-0.430854,0.34278,0.164383,-0.364731,0.806141,-0.435988,-1.51931,-0.698766,-0.988827,-0.000191049,-0.927556,1.79503,-1.86788
1535249852.741247535,-0.111971,-0.430921,0.341956,0.164256,-0.365068,0.80629,-0.435479,-1.51792,-0.698766,-0.988873,-0.000109159,-0.929432,1.79499,-1.8666
1535249852.753542176,-0.113126,-0.431092,0.340357,0.164273,-0.365409,0.806694,-0.434436,-1.51525,-0.698792,-0.98885,-0.000109159,-0.93298,1.79452,-1.86364
1535249852.759127518,-0.113551,-0.431205,0.33956,0.164251,-0.365484,0.806848,-0.434096,-1.51413,-0.698872,-0.988828,-0.000136462,-0.93466,1.79396,-1.8622
1535249852.765274279,-0.11375,-0.431383,0.338883,0.164423,-0.365268,0.806957,-0.43401,-1.51344,-0.698792,-0.988804,-0.000191049,-0.936098,1.79319,-1.8606
1535249852.777544039,-0.114864,-0.431578,0.337546,0.164278,-0.364669,0.807664,-0.433252,-1.51018,-0.698268,-0.989261,-0.000163747,-0.939013,1.79137,-1.85743
1535249852.783676790,-0.11543,-0.431668,0.33685,0.164081,-0.364441,0.807956,-0.432975,-1.50853,-0.698007,-0.989535,-0.000163747,-0.940534,1.79048,-1.85594
1535249852.789860192,-0.115846,-0.431799,0.336064,0.163858,-0.364317,0.808206,-0.432696,-1.5072,-0.697695,-0.989807,-0.000109159,-0.9423,1.78955,-1.85471
1535249852.801843461,-0.116973,-0.431985,0.334221,0.162751,-0.36452,0.808621,-0.432168,-1.50378,-0.697073,-0.990535,-0.000245637,-0.946446,1.78766,-1.85271
1535249852.807785818,-0.117434,-0.432132,0.333313,0.16245,-0.364484,0.808811,-0.431956,-1.50234,-0.696682,-0.990783,-0.000191049,-0.948529,1.78671,-1.8514
1535249852.813912245,-0.117926,-0.432243,0.332442,0.162094,-0.364472,0.809045,-0.431661,-1.50085,-0.69637,-0.991101,-0.000163747,-0.95049,1.78583,-1.85022
1535249852.826074805,-0.119108,-0.432411,0.33089,0.161447,-0.364125,0.809697,-0.430974,-1.49738,-0.695592,-0.99192,-0.000163747,-0.95401,1.78407,-1.84756
1535249852.832200211,-0.119621,-0.432555,0.330065,0.161216,-0.363887,0.810013,-0.430668,-1.49583,-0.69494,-0.992395,-0.000163747,-0.956013,1.78323,-1.84614
1535249852.838331438,-0.120231,-0.43265,0.32925,0.160841,-0.363785,0.810353,-0.430255,-1.49412,-0.694273,-0.992976,-0.000136462,-0.958033,1.7826,-1.84499
1535249852.850143105,-0.120919,-0.432942,0.327768,0.160303,-0.363451,0.810762,-0.429966,-1.49188,-0.693045,-0.993954,-0.000136462,-0.961673,1.78118,-1.84286
1535249852.856260021,-0.121516,-0.433008,0.327047,0.159926,-0.363297,0.811104,-0.429592,-1.49023,-0.692478,-0.994587,-0.000136462,-0.963422,1.78062,-1.84174
1535249852.862423065,-0.12234,-0.433026,0.3263,0.159543,-0.363267,0.811514,-0.428985,-1.48815,-0.691805,-0.995128,-0.000163747,-0.965331,1.78024,-1.8406
1535249852.874117602,-0.123413,-0.43323,0.324868,0.159166,-0.362886,0.812221,-0.428108,-1.48532,-0.690349,-0.996398,-0.000218335,-0.969035,1.77956,-1.83817
1535249852.880251173,-0.123996,-0.433355,0.323991,0.158971,-0.362754,0.812558,-0.427653,-1.48383,-0.689592,-0.997057,-0.000109159,-0.971265,1.77925,-1.83673
1535249852.886412467,-0.124373,-0.433531,0.323179,0.158873,-0.362482,0.812879,-0.42731,-1.48276,-0.688751,-0.997791,-0.000163747,-0.973372,1.77887,-1.83536
1535249852.898553670,-0.125594,-0.433697,0.321449,0.158189,-0.362532,0.813428,-0.426476,-1.47966,-0.687392,-0.998976,-0.000163747,-0.97774,1.77831,-1.83304
1535249852.904095086,-0.126225,-0.433757,0.320607,0.157783,-0.362588,0.813716,-0.426029,-1.47812,-0.686709,-0.99971,-0.000109159,-0.979885,1.7782,-1.832
1535249852.910310844,-0.126917,-0.433811,0.319803,0.15754,-0.362668,0.814046,-0.42542,-1.47646,-0.685922,-1.00016,-0.000109159,-0.98203,1.77808,-1.83094
1535249852.922650918,-0.128405,-0.433837,0.318122,0.156826,-0.362884,0.814694,-0.424258,-1.47289,-0.684858,-1.00118,-0.000136462,-0.986179,1.77774,-1.82864
1535249852.928239329,-0.129033,-0.433912,0.317359,0.156799,-0.362741,0.815107,-0.423597,-1.47145,-0.684135,-1.00181,-0.000109159,-0.988176,1.77777,-1.8272
1535249852.934396874,-0.12945,-0.43406,0.316473,0.156762,-0.36263,0.815334,-0.423268,-1.47043,-0.6835,-1.00237,-0.000136462,-0.990384,1.77761,-1.82565
1535249852.946155652,-0.130844,-0.434135,0.314698,0.156484,-0.36267,0.816026,-0.422001,-1.46718,-0.682631,-1.00322,-0.000218335,-0.994635,1.77732,-1.82261
1535249852.952309936,-0.131438,-0.434197,0.313986,0.156314,-0.362515,0.816351,-0.421569,-1.46574,-0.681901,-1.00386,-0.000136462,-0.996491,1.77719,-1.82131
1535249852.958472459,-0.132191,-0.434207,0.313121,0.155971,-0.362614,0.816727,-0.420882,-1.46398,-0.681198,-1.00451,-0.000218335,-0.998714,1.77719,-1.82021
1535249852.970748812,-0.133145,-0.434306,0.311503,0.155328,-0.362926,0.817076,-0.420172,-1.46163,-0.680205,-1.00538,-0.000163747,-1.0027,1.77686,-1.81845
1535249852.976841544,-0.13366,-0.43439,0.310629,0.155185,-0.363001,0.817251,-0.41982,-1.46046,-0.679604,-1.00581,-0.000136462,-1.0049,1.77683,-1.81712
1535249853.007680084,-0.13366,-0.43439,0.310629,0.155185,-0.363001,0.817251,-0.41982,-1.46046,-0.679604,-1.00581,-0.000136462,-1.0049,1.77683,-1.81712
1535249853.013789137,-0.138457,-0.434445,0.304908,0.153399,-0.363783,0.819488,-0.415415,-1.44989,-0.674621,-1.01043,-0.000163747,-1.01991,1.77836,-1.80954
1535249853.020023401,-0.139467,-0.434414,0.303919,0.153032,-0.363866,0.819972,-0.414522,-1.44765,-0.673502,-1.01136,-0.000245637,-1.02262,1.77868,-1.80818
1535249853.026308508,-0.140288,-0.434433,0.303089,0.152871,-0.363636,0.820501,-0.413736,-1.44573,-0.672434,-1.01225,-0.000163747,-1.02489,1.77871,-1.80666
1535249853.031936624,-0.140937,-0.434493,0.302216,0.152722,-0.363489,0.820885,-0.413158,-1.44424,-0.67147,-1.01309,-0.000218335,-1.02722,1.77879,-1.80519
1535249853.038106194,-0.141735,-0.434536,0.301399,0.152674,-0.363095,0.821444,-0.41241,-1.44237,-0.670369,-1.01405,-0.000163747,-1.02945,1.7788,-1.80338
1535249853.044291519,-0.142488,-0.434543,0.300364,0.152421,-0.363183,0.821803,-0.411711,-1.44066,-0.669653,-1.01472,-0.000136462,-1.03203,1.77886,-1.80191
1535249853.050470406,-0.14284,-0.434667,0.299505,0.152315,-0.363072,0.821986,-0.411481,-1.43981,-0.668843,-1.01538,-0.000136462,-1.03425,1.77879,-1.80058
1535249853.056645493,-0.143606,-0.434681,0.298638,0.152265,-0.362911,0.822445,-0.410726,-1.4381,-0.667994,-1.01612,-0.000191049,-1.03651,1.77893,-1.7989
1535249853.062239684,-0.144473,-0.434588,0.297701,0.151864,-0.363093,0.822833,-0.409935,-1.43607,-0.667544,-1.0166,-0.000109159,-1.03875,1.77881,-1.7977
1535249853.068510169,-0.145386,-0.434505,0.296752,0.151539,-0.363304,0.823178,-0.409175,-1.43405,-0.666926,-1.0171,-0.000136462,-1.04112,1.77894,-1.79636
1535249853.074641015,-0.146341,-0.434443,0.295876,0.151317,-0.363198,0.823726,-0.408248,-1.43175,-0.665995,-1.01763,-0.000245637,-1.04341,1.7787,-1.79489
1535249853.080217440,-0.147186,-0.434366,0.294891,0.150958,-0.363367,0.824076,-0.407523,-1.42978,-0.665481,-1.01808,-0.000191049,-1.04578,1.77858,-1.79356
1535249853.086532828,-0.147766,-0.434379,0.293898,0.150723,-0.363456,0.824296,-0.407086,-1.42839,-0.665018,-1.01848,-0.000136462,-1.04812,1.77836,-1.79212
1535249853.098853832,-0.149389,-0.434174,0.292198,0.150231,-0.363917,0.824925,-0.405579,-1.42481,-0.664194,-1.01911,-0.000109159,-1.05225,1.77856,-1.78975
1535249853.104490839,-0.150153,-0.434038,0.291318,0.149699,-0.364221,0.825187,-0.404968,-1.423,-0.664016,-1.01949,-0.000109159,-1.05422,1.77841,-1.78884
1535249853.110790096,-0.151061,-0.433889,0.290147,0.148962,-0.364788,0.825417,-0.40426,-1.42081,-0.663569,-1.01979,-0.000163747,-1.05699,1.77815,-1.78804
1535249853.117077525,-0.151645,-0.433857,0.289071,0.148474,-0.364992,0.825601,-0.403881,-1.41932,-0.663229,-1.02023,-0.000109159,-1.05943,1.77775,-1.78684
1535249853.129064222,-0.153151,-0.433624,0.286865,0.147308,-0.365808,0.82594,-0.402876,-1.41558,-0.662862,-1.02055,-0.000163747,-1.06433,1.77686,-1.78465
1535249853.135341020,-0.153931,-0.433488,0.285805,0.146733,-0.366127,0.826194,-0.402273,-1.41361,-0.662679,-1.02075,-0.000191049,-1.06666,1.77634,-1.78356
1535249853.141487587,-0.154826,-0.433289,0.284781,0.146302,-0.366712,0.826375,-0.401526,-1.41164,-0.662679,-1.02071,-0.000136462,-1.06894,1.77634,-1.78246
1535249853.153420794,-0.156188,-0.433006,0.282667,0.145327,-0.36784,0.826523,-0.400541,-1.40849,-0.662784,-1.02066,-0.000163747,-1.07353,1.77595,-1.78049
1535249853.159051933,-0.156905,-0.432839,0.281605,0.144827,-0.368412,0.826622,-0.399992,-1.40683,-0.662916,-1.02064,-0.000191049,-1.07579,1.77576,-1.77948
1535249853.164939752,-0.157774,-0.432649,0.280636,0.144516,-0.368803,0.826906,-0.399155,-1.40491,-0.662838,-1.02075,-0.000136462,-1.07795,1.77579,-1.77822
1535249853.177071913,-0.159139,-0.43236,0.27848,0.143966,-0.370095,0.826981,-0.398003,-1.40214,-0.662968,-1.02055,-0.000163747,-1.08275,1.77618,-1.77588
1535249853.182837630,-0.159967,-0.432191,0.277559,0.143788,-0.370452,0.827229,-0.397219,-1.40038,-0.662784,-1.02061,-0.000136462,-1.08488,1.77635,-1.77454
1535249853.189273217,-0.160537,-0.432103,0.276713,0.143732,-0.370618,0.827417,-0.396693,-1.3991,-0.662757,-1.02059,-0.000109159,-1.08672,1.7762,-1.7731
1535249853.201034090,-0.16162,-0.431927,0.275254,0.143491,-0.370741,0.827816,-0.395831,-1.39659,-0.662601,-1.02087,-0.000163747,-1.08988,1.77587,-1.77047
1535249853.206618376,-0.162458,-0.431714,0.274395,0.142965,-0.370927,0.828111,-0.395229,-1.39451,-0.66252,-1.02108,-0.000136462,-1.0917,1.77543,-1.76932
1535249853.212796286,-0.163197,-0.431461,0.27345,0.14227,-0.371626,0.828218,-0.394599,-1.39275,-0.662681,-1.02103,-0.000136462,-1.09371,1.77522,-1.76889
1535249853.224626056,-0.1649,-0.43094,0.271377,0.140871,-0.37279,0.828576,-0.393248,-1.38864,-0.662707,-1.02115,-0.000163747,-1.0982,1.77463,-1.76737
1535249853.230760443,-0.165485,-0.430764,0.270199,0.140271,-0.373421,0.828605,-0.392803,-1.38725,-0.662921,-1.02124,-0.000191049,-1.10066,1.77444,-1.76643
1535249853.236890092,-0.166076,-0.430637,0.269136,0.139857,-0.373735,0.828765,-0.392314,-1.38587,-0.662784,-1.02159,-0.000218335,-1.10301,1.77433,-1.76523
1535249853.269729292,-0.166076,-0.430637,0.269136,0.139857,-0.373735,0.828765,-0.392314,-1.38587,-0.662784,-1.02159,-0.000218335,-1.10301,1.77433,-1.76523
1535249853.275878779,-0.170519,-0.42955,0.261912,0.137328,-0.375862,0.830087,-0.388361,-1.37631,-0.661862,-1.02537,-0.000163747,-1.11915,1.776,-1.75622
1535249853.282035985,-0.171423,-0.429355,0.260823,0.137164,-0.37613,0.830433,-0.387418,-1.37461,-0.661179,-1.02629,-0.000136462,-1.12192,1.777,-1.75459
1535249853.288262736,-0.172359,-0.429136,0.259793,0.137,-0.376417,0.830833,-0.386339,-1.37279,-0.660441,-1.02712,-0.000163747,-1.12459,1.77792,-1.75317
1535249853.294402732,-0.172936,-0.429062,0.258845,0.137015,-0.376675,0.831006,-0.385709,-1.37183,-0.659648,-1.02781,-0.000163747,-1.12712,1.77887,-1.75184
1535249853.300098920,-0.173811,-0.428851,0.257895,0.136918,-0.376981,0.831339,-0.384726,-1.37023,-0.658981,-1.02863,-0.000218335,-1.12961,1.77997,-1.75045
1535249853.306168218,-0.174643,-0.428684,0.257018,0.13689,-0.377265,0.831611,-0.38387,-1.36879,-0.658015,-1.02947,-0.000191049,-1.13211,1.78124,-1.74915
1535249853.312388528,-0.17525,-0.428536,0.256165,0.136657,-0.37787,0.831713,-0.383135,-1.36788,-0.657128,-1.03034,-0.000109159,-1.13458,1.78267,-1.74869
1535249853.318568910,-0.175839,-0.428371,0.2553,0.136228,-0.378712,0.83164,-0.382614,-1.36703,-0.656197,-1.0311,-0.000136462,-1.13715,1.78416,-1.74861
1535249853.324669943,-0.176548,-0.428167,0.254471,0.135808,-0.379573,0.83163,-0.381932,-1.36596,-0.655123,-1.03195,-8.18736e-05,-1.13973,1.78586,-1.74859
1535249853.330895061,-0.177412,-0.427857,0.253318,0.135309,-0.380966,0.831467,-0.381077,-1.36479,-0.65433,-1.03264,-0.000136462,-1.14301,1.78809,-1.74851
1535249853.336980723,-0.178355,-0.427525,0.252413,0.134854,-0.382119,0.831479,-0.380056,-1.3633,-0.653392,-1.03327,-0.000191049,-1.14578,1.79002,-1.74859
1535249853.342568154,-0.179157,-0.42724,0.251445,0.134335,-0.38316,0.831405,-0.379353,-1.36207,-0.652642,-1.03406,-0.000136462,-1.14853,1.79182,-1.74841
1535249853.348794971,-0.179832,-0.426997,0.250414,0.133891,-0.384299,0.831277,-0.378637,-1.36111,-0.651861,-1.03465,-0.000163747,-1.15146,1.79352,-1.74838
1535249853.361250202,-0.181194,-0.426545,0.248218,0.132926,-0.386047,0.831205,-0.377355,-1.35881,-0.650274,-1.03608,-0.000136462,-1.15742,1.7961,-1.74755
1535249853.366906282,-0.181763,-0.426378,0.247089,0.132796,-0.386764,0.831182,-0.376717,-1.35796,-0.649701,-1.03658,-0.000136462,-1.16034,1.79729,-1.74656
1535249853.373186505,-0.182406,-0.426202,0.245943,0.132783,-0.387223,0.831271,-0.376053,-1.35684,-0.64928,-1.03699,-0.000136462,-1.16314,1.79815,-1.74498
1535249853.385403134,-0.183529,-0.426014,0.244053,0.133379,-0.387007,0.831857,-0.374765,-1.3546,-0.648438,-1.03768,-0.000163747,-1.16759,1.79872,-1.74072
1535249853.390956767,-0.18411,-0.425958,0.24341,0.13368,-0.386189,0.832496,-0.374082,-1.35305,-0.647859,-1.03823,-0.000136462,-1.16902,1.79815,-1.73837
1535249853.397085489,-0.184675,-0.42589,0.242822,0.133858,-0.385281,0.833169,-0.373458,-1.35134,-0.64741,-1.03862,-0.000109159,-1.17019,1.79707,-1.73613
1535249853.409364803,-0.185935,-0.425727,0.241613,0.133789,-0.38307,0.834659,-0.372427,-1.34724,-0.646303,-1.03973,-0.000191049,-1.17251,1.7941,-1.73144
1535249853.415491664,-0.186443,-0.425616,0.240786,0.133415,-0.382385,0.835156,-0.372152,-1.34542,-0.646064,-1.04012,-0.000109159,-1.17405,1.79254,-1.72952
1535249853.446760703,-0.186443,-0.425616,0.240786,0.133415,-0.382385,0.835156,-0.372152,-1.34542,-0.646064,-1.04012,-0.000109159,-1.17405,1.79254,-1.72952
1535249853.452876005,-0.189016,-0.424209,0.233996,0.126838,-0.381889,0.8368,-0.371267,-1.33464,-0.647773,-1.04254,-0.000109159,-1.18598,1.78192,-1.72338
1535249853.459016577,-0.189441,-0.42389,0.232893,0.125353,-0.382111,0.836929,-0.371252,-1.33283,-0.64828,-1.04298,-0.000218335,-1.18785,1.78023,-1.72301
1535249853.464569750,-0.189844,-0.42363,0.232003,0.124378,-0.382325,0.837031,-0.371129,-1.33134,-0.648627,-1.0431,-0.000163747,-1.18943,1.77902,-1.7225
1535249853.470663838,-0.18997,-0.423501,0.231216,0.123638,-0.382309,0.837162,-0.371098,-1.33054,-0.649,-1.04352,-0.000136462,-1.19076,1.77797,-1.72188
1535249853.476793123,-0.190308,-0.423273,0.230493,0.122862,-0.382345,0.837342,-0.370912,-1.32931,-0.649481,-1.04389,-0.000245637,-1.19192,1.77707,-1.72122
1535249853.482934016,-0.190581,-0.423105,0.229789,0.122187,-0.382109,0.837586,-0.370827,-1.32824,-0.649908,-1.04458,-0.000109159,-1.19301,1.77623,-1.72015
1535249853.489088067,-0.191152,-0.422789,0.229172,0.121632,-0.382174,0.837885,-0.370266,-1.32669,-0.650415,-1.04493,-0.000109159,-1.19399,1.77582,-1.7193
1535249853.495347939,-0.191611,-0.422582,0.228609,0.121377,-0.382016,0.838222,-0.369752,-1.32547,-0.650629,-1.04535,-0.000163747,-1.19499,1.7755,-1.71815
1535249853.501502249,-0.191849,-0.42245,0.227852,0.121179,-0.382077,0.838334,-0.369498,-1.32488,-0.650922,-1.04575,-0.000163747,-1.19643,1.77546,-1.71695
1535249853.507030230,-0.192362,-0.422191,0.227023,0.120998,-0.382216,0.838522,-0.368987,-1.32376,-0.651376,-1.0461,-0.000191049,-1.19798,1.77563,-1.71541
1535249853.513213916,-0.192908,-0.421948,0.22633,0.120961,-0.382242,0.838813,-0.368309,-1.32259,-0.651616,-1.04644,-0.000191049,-1.19934,1.77585,-1.71394
1535249853.519324724,-0.193457,-0.421651,0.22551,0.120676,-0.382319,0.839104,-0.367661,-1.3213,-0.65215,-1.04696,-0.000163747,-1.2008,1.77592,-1.71247
1535249853.525436453,-0.193688,-0.421513,0.224502,0.120604,-0.382538,0.839131,-0.367394,-1.32088,-0.652497,-1.04731,-0.000136462,-1.20282,1.77618,-1.71087
1535249853.537140074,-0.194253,-0.421273,0.223299,0.121243,-0.382878,0.839267,-0.366519,-1.32034,-0.652951,-1.04779,-0.000191049,-1.20538,1.77786,-1.70801
1535249853.543316483,-0.194714,-0.42106,0.222706,0.121538,-0.383272,0.839324,-0.365878,-1.31976,-0.653164,-1.04784,-0.000191049,-1.20672,1.7789,-1.70679
1535249853.549470125,-0.195269,-0.420804,0.222164,0.121754,-0.383612,0.839443,-0.365175,-1.31896,-0.653377,-1.04807,-0.000136462,-1.20794,1.78003,-1.70556
1535249853.561742606,-0.196677,-0.420117,0.220978,0.121684,-0.384899,0.839572,-0.363545,-1.31656,-0.653297,-1.0481,-0.000136462,-1.21095,1.78215,-1.70428
1535249853.567880340,-0.197138,-0.419919,0.220367,0.121847,-0.38543,0.839529,-0.363026,-1.31592,-0.653058,-1.04803,-0.000163747,-1.21257,1.78312,-1.70348
1535249853.573488433,-0.197483,-0.419764,0.219743,0.121996,-0.385927,0.839452,-0.362627,-1.31549,-0.652871,-1.04796,-0.000163747,-1.21417,1.78396,-1.7027
1535249853.586048594,-0.198105,-0.419456,0.2183,0.122127,-0.386854,0.839283,-0.361984,-1.31463,-0.652685,-1.04793,-0.000109159,-1.21764,1.7853,-1.70089
1535249853.591716777,-0.198537,-0.419246,0.217491,0.122027,-0.387321,0.839292,-0.361499,-1.31383,-0.652386,-1.04805,-0.000163747,-1.21964,1.78585,-1.70009
1535249853.598147207,-0.199011,-0.419021,0.216872,0.121814,-0.387589,0.839379,-0.36108,-1.31277,-0.652193,-1.04813,-0.000136462,-1.2211,1.786,-1.69937
1535249853.610163106,-0.199689,-0.418887,0.216136,0.12142,-0.386493,0.840243,-0.360379,-1.31047,-0.650857,-1.04925,-0.000136462,-1.22289,1.78465,-1.69758
1535249853.616480931,-0.199904,-0.418916,0.21593,0.121151,-0.385719,0.840698,-0.360236,-1.30951,-0.649857,-1.05007,-8.18736e-05,-1.22354,1.78383,-1.69694
1535249853.647823180,-0.199904,-0.418916,0.21593,0.121151,-0.385719,0.840698,-0.360236,-1.30951,-0.649857,-1.05007,-8.18736e-05,-1.22354,1.78383,-1.69694
1535249853.653510712,-0.201479,-0.418785,0.213193,0.118992,-0.380691,0.843924,-0.358757,-1.3022,-0.645297,-1.05502,-0.000136462,-1.22959,1.77673,-1.69043
1535249853.659725262,-0.201826,-0.41877,0.212683,0.118839,-0.37962,0.844593,-0.358371,-1.30082,-0.644424,-1.05592,-0.000136462,-1.23073,1.77555,-1.68875
1535249853.665468705,-0.202071,-0.418848,0.21233,0.11881,-0.378642,0.845129,-0.358151,-1.2998,-0.643101,-1.05675,-0.000109159,-1.23182,1.7747,-1.6875
1535249853.671665350,-0.202161,-0.418951,0.212004,0.118753,-0.377848,0.845555,-0.358003,-1.29916,-0.642001,-1.05743,-0.000136462,-1.23278,1.77385,-1.68662
1535249853.677835292,-0.202172,-0.419079,0.211753,0.118778,-0.377064,0.845926,-0.357945,-1.29884,-0.641101,-1.05826,-0.000218335,-1.23352,1.77334,-1.68569
1535249853.684103312,-0.202179,-0.419175,0.211542,0.118511,-0.376464,0.846233,-0.357938,-1.29847,-0.64012,-1.05916,-0.000163747,-1.23424,1.77281,-1.68539
1535249853.690209125,-0.2024,-0.419151,0.211261,0.118257,-0.376029,0.846523,-0.357794,-1.29767,-0.639378,-1.05977,-0.000109159,-1.23503,1.77234,-1.68486
1535249853.696377418,-0.202805,-0.419055,0.210994,0.118047,-0.375575,0.846944,-0.357343,-1.29644,-0.638555,-1.0603,-0.000163747,-1.23584,1.77187,-1.68427
1535249853.701998706,-0.203109,-0.418988,0.210839,0.117762,-0.375116,0.847325,-0.357016,-1.29548,-0.637841,-1.06106,-0.000218335,-1.23636,1.77155,-1.68393
1535249853.708167891,-0.20324,-0.418975,0.210689,0.117505,-0.37477,0.847552,-0.356926,-1.29495,-0.637335,-1.06164,-0.000136462,-1.23679,1.77122,-1.68369
1535249853.714418365,-0.203277,-0.418976,0.210428,0.117206,-0.374601,0.847669,-0.356924,-1.29463,-0.636895,-1.06207,-0.000191049,-1.23746,1.77086,-1.68358
1535249853.720097203,-0.203253,-0.419005,0.210227,0.116994,-0.374462,0.847719,-0.357019,-1.29452,-0.636538,-1.06243,-0.000163747,-1.23799,1.77063,-1.68347
1535249853.726303210,-0.203324,-0.41898,0.210038,0.116765,-0.374355,0.847838,-0.356925,-1.2942,-0.636234,-1.06279,-0.000163747,-1.23848,1.77042,-1.68342
1535249853.738887952,-0.203585,-0.418978,0.20988,0.117132,-0.37359,0.848366,-0.356351,-1.29356,-0.635844,-1.0635,-0.000109159,-1.23884,1.7704,-1.68197
1535249853.744434834,-0.203822,-0.418932,0.209832,0.117372,-0.373241,0.84861,-0.356056,-1.29308,-0.635758,-1.06376,-0.000191049,-1.23893,1.77054,-1.68107
1535249853.750629807,-0.204014,-0.418871,0.209678,0.11752,-0.372918,0.848871,-0.355723,-1.29265,-0.635861,-1.06413,-0.000136462,-1.23914,1.77061,-1.68014
1535249853.756781407,-0.20416,-0.418772,0.209372,0.117618,-0.372863,0.848982,-0.355483,-1.29239,-0.636318,-1.06429,-0.000191049,-1.23957,1.77075,-1.67918
1535249853.769077492,-0.204601,-0.418586,0.208834,0.11808,-0.372702,0.849292,-0.354758,-1.29169,-0.636636,-1.06467,-0.000163747,-1.24059,1.77148,-1.6772
1535249853.775241929,-0.204825,-0.418436,0.20859,0.118013,-0.372984,0.849283,-0.354506,-1.29132,-0.636826,-1.06469,-0.000163747,-1.2411,1.77186,-1.67696
1535249853.780875327,-0.204917,-0.418371,0.208441,0.117865,-0.373157,0.84926,-0.354427,-1.29116,-0.636742,-1.06485,-0.000191049,-1.2415,1.7721,-1.67704
1535249853.793113879,-0.205059,-0.418225,0.208145,0.117561,-0.373587,0.849151,-0.354338,-1.29089,-0.636903,-1.0649,-0.000109159,-1.24214,1.77237,-1.6772
1535249853.799235884,-0.205134,-0.418172,0.208026,0.117535,-0.373723,0.84915,-0.354205,-1.29079,-0.636903,-1.06495,-0.000109159,-1.24243,1.77257,-1.67717
1535249853.805374706,-0.205311,-0.418041,0.207805,0.117385,-0.374042,0.849074,-0.354101,-1.29046,-0.637039,-1.06487,-0.000109159,-1.24291,1.77281,-1.67712
1535249853.817777568,-0.205454,-0.417917,0.207422,0.117165,-0.374458,0.848981,-0.353955,-1.29025,-0.636983,-1.06502,-0.000136462,-1.24385,1.77324,-1.67715
1535249853.823914574,-0.20541,-0.417927,0.207298,0.117052,-0.374414,0.848981,-0.35404,-1.29025,-0.636981,-1.06511,-0.000136462,-1.24408,1.77304,-1.67704
1535249853.829509669,-0.205542,-0.417903,0.207221,0.117046,-0.374232,0.849046,-0.354079,-1.28988,-0.636845,-1.06514,-0.000163747,-1.24425,1.77285,-1.67657
1535249853.868916404,-0.205728,-0.417823,0.20709,0.116737,-0.374149,0.849122,-0.354085,-1.28929,-0.636625,-1.06537,-0.000163747,-1.24457,1.77261,-1.67647
1535249853.874358174,-0.206107,-0.417516,0.205842,0.114846,-0.374172,0.849452,-0.353888,-1.2871,-0.63572,-1.06612,-0.000136462,-1.24732,1.77026,-1.67691
1535249853.880511515,-0.206326,-0.41738,0.205595,0.114471,-0.374226,0.849552,-0.353714,-1.28636,-0.635639,-1.06614,-8.18736e-05,-1.24783,1.76981,-1.67691
1535249853.886785729,-0.206449,-0.417317,0.205351,0.11415,-0.374148,0.849638,-0.353692,-1.28582,-0.63542,-1.06629,-0.000218335,-1.24837,1.76934,-1.67678
1535249853.892455205,-0.206419,-0.417326,0.205206,0.113986,-0.374101,0.849653,-0.353758,-1.28577,-0.635282,-1.06645,-0.000245637,-1.2487,1.76913,-1.67675
1535249853.898616806,-0.206425,-0.41733,0.205088,0.113769,-0.374009,0.84971,-0.353789,-1.28561,-0.635007,-1.06674,-0.000218335,-1.24903,1.76893,-1.67681
1535249853.904750142,-0.206473,-0.417322,0.205001,0.113618,-0.373938,0.849778,-0.353749,-1.2854,-0.634705,-1.06696,-0.000191049,-1.24932,1.7688,-1.67686
1535249853.910922490,-0.206464,-0.417331,0.204878,0.113434,-0.373821,0.849835,-0.353795,-1.28529,-0.634511,-1.06726,-0.000136462,-1.24962,1.76862,-1.67681
1535249853.917088579,-0.206452,-0.417322,0.204688,0.113174,-0.373805,0.849851,-0.353856,-1.28513,-0.634346,-1.06741,-0.000136462,-1.25005,1.76829,-1.67686
1535249853.922686346,-0.206366,-0.417373,0.204495,0.113008,-0.373685,0.849876,-0.353976,-1.28518,-0.634044,-1.06772,-0.000136462,-1.25054,1.76807,-1.67678
1535249853.928881059,-0.206487,-0.417294,0.204234,0.112707,-0.37371,0.849927,-0.353922,-1.2847,-0.633912,-1.06779,-8.18736e-05,-1.25111,1.7677,-1.6767
1535249853.935054231,-0.206555,-0.417237,0.203936,0.112487,-0.37374,0.849966,-0.353868,-1.28438,-0.633835,-1.06785,-0.000218335,-1.25174,1.7674,-1.67651
1535249853.941155330,-0.206637,-0.417187,0.20361,0.112403,-0.373615,0.850061,-0.353799,-1.28406,-0.633891,-1.06799,-0.000163747,-1.25235,1.76712,-1.67584
1535249853.947254999,-0.206852,-0.417123,0.203368,0.112544,-0.373361,0.850287,-0.35348,-1.28348,-0.633786,-1.06799,-8.18736e-05,-1.25284,1.76686,-1.67496
1535249853.953371742,-0.207111,-0.417018,0.203178,0.11272,-0.373159,0.850528,-0.353058,-1.28283,-0.633915,-1.06792,-0.000109159,-1.25313,1.76668,-1.67408
1535249853.959514205,-0.207411,-0.416895,0.203058,0.112901,-0.372923,0.850767,-0.352671,-1.28214,-0.634151,-1.0679,-0.000218335,-1.25322,1.7666,-1.67312
1535249853.965091240,-0.207655,-0.416817,0.20294,0.113045,-0.372702,0.850943,-0.352434,-1.28155,-0.63415,-1.06786,-0.000109159,-1.25342,1.76647,-1.67232
1535249853.977340926,-0.208042,-0.416758,0.202581,0.113814,-0.37184,0.85153,-0.351679,-1.28059,-0.634205,-1.06781,-0.000136462,-1.25398,1.76603,-1.66976
1535249853.983528487,-0.208187,-0.416736,0.202417,0.114153,-0.371466,0.851776,-0.351368,-1.28022,-0.634314,-1.06776,-0.000136462,-1.2542,1.7658,-1.66861
1535249853.989655539,-0.208256,-0.416786,0.202289,0.114588,-0.371007,0.85199,-0.351192,-1.28006,-0.634205,-1.06776,-0.000218335,-1.25443,1.76563,-1.66741
1535249854.001919293,-0.20861,-0.416706,0.202053,0.115111,-0.370371,0.852432,-0.350621,-1.27921,-0.634314,-1.06776,-0.000163747,-1.25475,1.76535,-1.66549
1535249854.007537424,-0.208673,-0.416725,0.201992,0.115419,-0.370097,0.852586,-0.350433,-1.2791,-0.634286,-1.06779,-0.000218335,-1.25485,1.76535,-1.66474
1535249854.036512700,-0.208673,-0.416725,0.201992,0.115419,-0.370097,0.852586,-0.350433,-1.2791,-0.634286,-1.06779,-0.000218335,-1.25485,1.76535,-1.66474
1535249854.042606663,-0.208747,-0.416606,0.201634,0.114867,-0.37059,0.852292,-0.35081,-1.27894,-0.634284,-1.06793,-0.000163747,-1.25569,1.76557,-1.66503
1535249854.048824234,-0.208815,-0.416547,0.201584,0.114765,-0.370654,0.852306,-0.350741,-1.27878,-0.634418,-1.068,-0.000136462,-1.25574,1.76561,-1.66503
1535249854.054929239,-0.208824,-0.416588,0.201573,0.115055,-0.370411,0.852461,-0.350526,-1.27878,-0.634336,-1.06802,-0.000163747,-1.25577,1.76559,-1.66454
1535249854.061068681,-0.209031,-0.416446,0.201466,0.114941,-0.370511,0.852612,-0.35009,-1.27825,-0.634499,-1.06802,-0.000163747,-1.25593,1.76553,-1.66456
1535249854.066666948,-0.209148,-0.416361,0.201415,0.114793,-0.370628,0.852652,-0.349917,-1.27793,-0.634526,-1.068,-0.000163747,-1.25603,1.76548,-1.66474
1535249854.072904001,-0.209269,-0.416301,0.201351,0.114609,-0.370604,0.852662,-0.349977,-1.27755,-0.634499,-1.06802,-0.000191049,-1.25615,1.7653,-1.66464
1535249854.079103749,-0.209306,-0.416282,0.201298,0.114504,-0.370575,0.852683,-0.349993,-1.27739,-0.634444,-1.06807,-0.000136462,-1.25626,1.76516,-1.66461
1535249854.085256486,-0.209411,-0.416222,0.201214,0.114294,-0.370565,0.852772,-0.349854,-1.27702,-0.634288,-1.0682,-0.000218335,-1.25648,1.76497,-1.66474
1535249854.090860633,-0.209432,-0.416201,0.201086,0.114229,-0.37061,0.852751,-0.349879,-1.27691,-0.634286,-1.06811,-0.000109159,-1.25675,1.76482,-1.66464
1535249854.097000806,-0.209546,-0.416128,0.20095,0.113983,-0.370646,0.852797,-0.349809,-1.27649,-0.634181,-1.06811,-0.000191049,-1.25705,1.76451,-1.66472
1535249854.103139130,-0.209571,-0.416104,0.200854,0.113855,-0.370601,0.852838,-0.349798,-1.27633,-0.634183,-1.0682,-0.000163747,-1.25722,1.76432,-1.66464
1535249854.109324690,-0.209647,-0.41605,0.200764,0.113704,-0.370652,0.852859,-0.349742,-1.27606,-0.634156,-1.06818,-0.000109159,-1.25741,1.76416,-1.66469
1535249854.121140401,-0.209695,-0.416062,0.200746,0.113722,-0.370498,0.852943,-0.349695,-1.2759,-0.633923,-1.06829,-0.000136462,-1.25752,1.76406,-1.66453
1535249854.127251609,-0.20964,-0.416081,0.200725,0.113673,-0.370552,0.852906,-0.349745,-1.27601,-0.633871,-1.06829,-0.000163747,-1.25759,1.76404,-1.66469
1535249854.133401173,-0.20966,-0.416071,0.200714,0.113658,-0.370515,0.85293,-0.349729,-1.27595,-0.633898,-1.06836,-0.000136462,-1.25759,1.76404,-1.66461
1535249854.145676142,-0.209761,-0.415989,0.200599,0.113435,-0.370615,0.852904,-0.349759,-1.27563,-0.634002,-1.06831,-0.000136462,-1.25778,1.76387,-1.66461
1535249854.151881132,-0.209915,-0.41589,0.200514,0.113286,-0.370673,0.852963,-0.349603,-1.27521,-0.63408,-1.06829,-0.000163747,-1.25791,1.76376,-1.66459
1535249854.157987268,-0.210008,-0.415834,0.200518,0.113264,-0.370758,0.85299,-0.349453,-1.27499,-0.634104,-1.06818,-0.000109159,-1.25791,1.76376,-1.66469
1535249854.171925646,-0.210146,-0.415796,0.200657,0.11338,-0.370705,0.853057,-0.34931,-1.27478,-0.634078,-1.0682,-0.000191049,-1.25765,1.76399,-1.66461
1535249854.177593458,-0.210124,-0.415794,0.20065,0.113385,-0.370698,0.853062,-0.349303,-1.27483,-0.63421,-1.06822,-0.000109159,-1.2576,1.76399,-1.66456
1535249854.183762985,-0.210297,-0.415689,0.20061,0.113246,-0.370821,0.853081,-0.349171,-1.2744,-0.63426,-1.06813,-8.18736e-05,-1.25767,1.76397,-1.66464
1535249854.189918127,-0.210295,-0.415658,0.200572,0.113159,-0.370921,0.853078,-0.349101,-1.2744,-0.634366,-1.06818,-0.000163747,-1.25772,1.76401,-1.6648
1535249854.202190399,-0.210286,-0.415701,0.200577,0.113284,-0.370716,0.853127,-0.349157,-1.2744,-0.634288,-1.0682,-0.000136462,-1.2577,1.7639,-1.66443
1535249854.208383410,-0.210335,-0.415672,0.200564,0.113254,-0.37081,0.853115,-0.349097,-1.2743,-0.634234,-1.06811,-0.000163747,-1.25778,1.76392,-1.66456
1535249854.214512347,-0.210305,-0.415677,0.200528,0.113235,-0.370785,0.85312,-0.349118,-1.27435,-0.634314,-1.06818,-8.18736e-05,-1.25781,1.76389,-1.66448
1535249854.226879674,-0.21046,-0.41557,0.200288,0.1132,-0.371085,0.853073,-0.348924,-1.27414,-0.634261,-1.06818,-5.45879e-05,-1.25843,1.7643,-1.6644
1535249854.232991287,-0.210379,-0.415586,0.200108,0.113202,-0.371329,0.852882,-0.34913,-1.27446,-0.63426,-1.06813,-0.000136462,-1.25889,1.7646,-1.66435
1535249854.239236246,-0.210304,-0.415597,0.200024,0.113168,-0.37147,0.85283,-0.349119,-1.27467,-0.634235,-1.0682,-0.000163747,-1.25911,1.76476,-1.66453
1535249854.245355007,-0.210377,-0.415561,0.199966,0.113076,-0.371482,0.852841,-0.349109,-1.27451,-0.63416,-1.06836,-0.000163747,-1.25928,1.76485,-1.66448
1535249854.257055925,-0.210453,-0.415596,0.200036,0.113189,-0.371294,0.85283,-0.3493,-1.2744,-0.633874,-1.06842,-0.000191049,-1.25924,1.76496,-1.66412
1535249854.263234408,-0.210448,-0.41558,0.199965,0.113094,-0.371394,0.852806,-0.349282,-1.2744,-0.633822,-1.06847,-0.000163747,-1.25943,1.76499,-1.66428
1535249854.269351822,-0.210419,-0.415587,0.199921,0.113161,-0.371453,0.852856,-0.349076,-1.27451,-0.633745,-1.06854,-0.000163747,-1.25959,1.76512,-1.6644
1535249854.281775129,-0.210381,-0.415605,0.199853,0.113154,-0.371486,0.852862,-0.349029,-1.27462,-0.633591,-1.06867,-0.000109159,-1.25982,1.76523,-1.66448
1535249854.287932515,-0.210413,-0.415589,0.199852,0.113134,-0.371442,0.852892,-0.349009,-1.27451,-0.633643,-1.06867,-0.000218335,-1.25978,1.76515,-1.6644
1535249854.294077642,-0.210444,-0.415585,0.199845,0.113127,-0.371436,0.852888,-0.349027,-1.27446,-0.633539,-1.06872,-0.000191049,-1.25985,1.76521,-1.66437
1535249854.306061533,-0.210511,-0.415557,0.199857,0.113036,-0.371365,0.852974,-0.348921,-1.27424,-0.633464,-1.06887,-0.000191049,-1.25983,1.76515,-1.66443
1535249854.312324474,-0.210609,-0.4155,0.199842,0.113013,-0.371486,0.852948,-0.348864,-1.27403,-0.633486,-1.06867,-0.000218335,-1.25988,1.76514,-1.66448
1535249854.318555311,-0.210597,-0.41551,0.199815,0.113003,-0.37138,0.853008,-0.348832,-1.27403,-0.63349,-1.06885,-0.000191049,-1.2599,1.76512,-1.66435
1535249854.330567061,-0.210652,-0.415532,0.199857,0.113313,-0.371235,0.853095,-0.348675,-1.27398,-0.633408,-1.06869,-0.000191049,-1.25985,1.76517,-1.66394
1535249854.336693653,-0.21057,-0.415629,0.199848,0.113638,-0.370862,0.853234,-0.348625,-1.27419,-0.633359,-1.06887,-0.000218335,-1.25983,1.76515,-1.66325
1535249854.342924890,-0.210495,-0.415685,0.199804,0.113844,-0.370745,0.853254,-0.348633,-1.2744,-0.633385,-1.06885,-0.000163747,-1.2599,1.76516,-1.66287
1535249854.348447390,-0.210483,-0.415681,0.199732,0.113819,-0.370705,0.853232,-0.348739,-1.2744,-0.633542,-1.06885,-0.000191049,-1.25996,1.76507,-1.66261
1535249854.360748440,-0.21042,-0.415646,0.199465,0.113474,-0.37089,0.853147,-0.348862,-1.27435,-0.633594,-1.06881,-0.000136462,-1.26048,1.76469,-1.66282
1535249854.366839582,-0.21045,-0.415633,0.199383,0.113455,-0.37096,0.853115,-0.348871,-1.27424,-0.633485,-1.06862,-0.000109159,-1.26071,1.76457,-1.66282
1535249854.372972245,-0.210459,-0.415638,0.19938,0.113411,-0.370871,0.853146,-0.348904,-1.27419,-0.633436,-1.06876,-5.45879e-05,-1.26072,1.76453,-1.66275
1535249854.385245137,-0.210481,-0.415637,0.199429,0.11351,-0.370849,0.853178,-0.348819,-1.27419,-0.633461,-1.06874,-0.000136462,-1.26061,1.76462,-1.66269
1535249854.391343248,-0.2104,-0.415665,0.199413,0.113442,-0.370858,0.853143,-0.348916,-1.27435,-0.633463,-1.06883,-8.18736e-05,-1.26064,1.7646,-1.6628
1535249854.397516401,-0.210434,-0.415634,0.199383,0.113355,-0.370917,0.853133,-0.348905,-1.27424,-0.633489,-1.06881,-0.000136462,-1.26069,1.76455,-1.66288
1535249854.409801020,-0.210407,-0.415672,0.199392,0.113422,-0.370864,0.853157,-0.348883,-1.2743,-0.633279,-1.0688,-8.18736e-05,-1.26077,1.76452,-1.6629
1535249854.416013663,-0.21037,-0.415682,0.19935,0.113375,-0.370825,0.853144,-0.34897,-1.27435,-0.633359,-1.06887,-0.000191049,-1.2608,1.76446,-1.6628
1535249854.422189187,-0.210339,-0.415709,0.199294,0.113379,-0.370746,0.853164,-0.349005,-1.2744,-0.633258,-1.06901,-0.000136462,-1.26095,1.76445,-1.66267
1535249854.434368667,-0.210376,-0.415751,0.199129,0.113579,-0.370421,0.853331,-0.348876,-1.2743,-0.632975,-1.06925,-0.000109159,-1.26136,1.76439,-1.66192
1535249854.439913790,-0.210367,-0.41582,0.19899,0.113916,-0.370076,0.853494,-0.348732,-1.27435,-0.632769,-1.06943,-0.000163747,-1.2617,1.76441,-1.66106
1535249854.446127068,-0.210212,-0.415931,0.198901,0.113974,-0.369801,0.853576,-0.348805,-1.27462,-0.632515,-1.06975,-0.000163747,-1.26194,1.76424,-1.66079
1535249854.458460389,-0.21024,-0.416066,0.198869,0.114135,-0.36905,0.853875,-0.348817,-1.2744,-0.631718,-1.0704,-0.000109159,-1.26221,1.76397,-1.65995
1535249854.464176617,-0.210274,-0.416174,0.198895,0.114365,-0.368424,0.854114,-0.348816,-1.2743,-0.631182,-1.07096,-0.000109159,-1.26229,1.76394,-1.65913
1535249854.470506511,-0.210176,-0.416351,0.198971,0.114591,-0.367811,0.854343,-0.348831,-1.27446,-0.630461,-1.07154,-0.000136462,-1.26234,1.76385,-1.65868
1535249854.482394092,-0.210278,-0.416473,0.199031,0.114743,-0.36693,0.854954,-0.348211,-1.27403,-0.629195,-1.07269,-0.000163747,-1.26262,1.76372,-1.65834
1535249854.514123064,-0.210278,-0.416473,0.199031,0.114743,-0.36693,0.854954,-0.348211,-1.27403,-0.629195,-1.07269,-0.000163747,-1.26262,1.76372,-1.65834
1535249854.520235133,-0.210318,-0.416944,0.19928,0.115553,-0.364494,0.856074,-0.347749,-1.27371,-0.626612,-1.07513,-0.000191049,-1.26284,1.76354,-1.65615
1535249854.526352472,-0.21028,-0.416988,0.199305,0.115536,-0.364374,0.856099,-0.347817,-1.27376,-0.626427,-1.07529,-0.000163747,-1.26284,1.76349,-1.65616
1535249854.557961637,-0.21028,-0.416988,0.199305,0.115536,-0.364374,0.856099,-0.347817,-1.27376,-0.626427,-1.07529,-0.000163747,-1.26284,1.76349,-1.65616
1535249854.563658530,-0.209893,-0.417153,0.19913,0.115722,-0.364413,0.855885,-0.348243,-1.27467,-0.626638,-1.07506,-0.000191049,-1.26312,1.76337,-1.65586
1535249854.569913886,-0.209876,-0.417089,0.198998,0.115591,-0.364713,0.855765,-0.348266,-1.27467,-0.626981,-1.07471,-0.000109159,-1.26328,1.76323,-1.65605
1535249854.575587514,-0.20984,-0.417065,0.198902,0.115512,-0.364794,0.855715,-0.348331,-1.27472,-0.627246,-1.07467,-0.000109159,-1.26336,1.76316,-1.65597
1535249854.581765278,-0.20992,-0.417032,0.198948,0.115514,-0.36485,0.855719,-0.348261,-1.27456,-0.627193,-1.07457,-0.000109159,-1.26331,1.7632,-1.65607
1535249854.587911452,-0.209877,-0.417049,0.198959,0.115539,-0.364842,0.85571,-0.348283,-1.27467,-0.627246,-1.07457,-0.000136462,-1.26326,1.76321,-1.65607
1535249854.594146289,-0.209942,-0.417032,0.199014,0.115578,-0.36482,0.85575,-0.348195,-1.27456,-0.627193,-1.07462,-0.000136462,-1.26318,1.76332,-1.65607
1535249854.600353047,-0.209914,-0.417054,0.199024,0.11558,-0.364758,0.855754,-0.348249,-1.27462,-0.627167,-1.07469,-0.000136462,-1.26315,1.7633,-1.65602
1535249854.606534472,-0.209999,-0.416999,0.199024,0.115489,-0.36483,0.855792,-0.348111,-1.2744,-0.62714,-1.07471,-0.000163747,-1.26318,1.76332,-1.65621
1535249854.612247212,-0.20996,-0.417059,0.199084,0.115632,-0.364689,0.85582,-0.348142,-1.27451,-0.626981,-1.07471,-0.000191049,-1.2631,1.7633,-1.65607
1535249854.618447973,-0.210017,-0.417046,0.199091,0.115587,-0.364676,0.855835,-0.348135,-1.27435,-0.626822,-1.07471,-0.000109159,-1.26316,1.76326,-1.65613
1535249854.624547922,-0.209928,-0.417098,0.199086,0.11565,-0.36461,0.855817,-0.348227,-1.27456,-0.626822,-1.07476,-0.000191049,-1.26316,1.76326,-1.65602
1535249854.630743918,-0.209942,-0.417101,0.199094,0.11563,-0.364524,0.855876,-0.348178,-1.27451,-0.626743,-1.07492,-8.18736e-05,-1.26316,1.76326,-1.65599
1535249854.636905650,-0.209941,-0.4171,0.199088,0.115608,-0.364576,0.855855,-0.348182,-1.27451,-0.62669,-1.07487,-0.000136462,-1.26321,1.76325,-1.6561
1535249854.643079397,-0.210089,-0.417033,0.199088,0.115581,-0.364609,0.855931,-0.347972,-1.27419,-0.626584,-1.07492,-0.000136462,-1.26327,1.76335,-1.65615
1535249854.649249337,-0.20999,-0.417071,0.199076,0.115615,-0.364617,0.855865,-0.348113,-1.27446,-0.626717,-1.07494,-0.000191049,-1.26324,1.76342,-1.65607
1535249854.655347753,-0.209969,-0.417107,0.199052,0.115611,-0.364493,0.855898,-0.348164,-1.27446,-0.626532,-1.07506,-0.000109159,-1.26334,1.76333,-1.65597
1535249854.660966092,-0.209901,-0.417193,0.199147,0.115612,-0.364232,0.855998,-0.34819,-1.27456,-0.626136,-1.07545,-0.000136462,-1.26327,1.76331,-1.65605
1535249854.667106374,-0.209988,-0.417215,0.1992,0.115552,-0.363887,0.8562,-0.348075,-1.2743,-0.625687,-1.07603,-0.000109159,-1.2633,1.76333,-1.65592
1535249854.673240941,-0.209901,-0.41734,0.199238,0.115653,-0.363444,0.856322,-0.348203,-1.27446,-0.625265,-1.07653,-0.000136462,-1.26332,1.76331,-1.65552
1535249854.704676412,-0.209901,-0.41734,0.199238,0.115653,-0.363444,0.856322,-0.348203,-1.27446,-0.625265,-1.07653,-0.000136462,-1.26332,1.76331,-1.65552
1535249854.710849303,-0.210153,-0.417195,0.199228,0.115263,-0.363403,0.856539,-0.347842,-1.27376,-0.625136,-1.07711,-0.000136462,-1.26337,1.76335,-1.65584
1535249854.716987857,-0.210015,-0.417231,0.199182,0.115176,-0.363419,0.856494,-0.347963,-1.27403,-0.625296,-1.07721,-0.000136462,-1.26338,1.76326,-1.65592
1535249854.722573423,-0.209981,-0.417193,0.199097,0.115021,-0.363533,0.856446,-0.348013,-1.27408,-0.625588,-1.07728,-0.000109159,-1.26343,1.76326,-1.65597
1535249854.753180465,-0.209981,-0.417193,0.199097,0.115021,-0.363533,0.856446,-0.348013,-1.27408,-0.625588,-1.07728,-0.000109159,-1.26343,1.76326,-1.65597
1535249854.759321084,-0.209856,-0.417012,0.19873,0.114093,-0.363585,0.856515,-0.348096,-1.27414,-0.627029,-1.07862,-0.000163747,-1.26343,1.76326,-1.65586
1535249854.765442976,-0.209731,-0.417011,0.198675,0.113936,-0.3637,0.856449,-0.348189,-1.2744,-0.627349,-1.07876,-0.000109159,-1.2634,1.76328,-1.65605
1535249854.771576258,-0.209761,-0.417012,0.198602,0.11398,-0.363635,0.856464,-0.348206,-1.2743,-0.627295,-1.07867,-0.000136462,-1.26356,1.76314,-1.65578
1535249854.777752484,-0.209814,-0.416946,0.198439,0.113782,-0.363702,0.856488,-0.348141,-1.27408,-0.627402,-1.07877,-0.000136462,-1.26384,1.76301,-1.65575
1535249854.783373597,-0.209786,-0.416949,0.198336,0.113661,-0.363668,0.856488,-0.348217,-1.27403,-0.627375,-1.07879,-0.000136462,-1.26403,1.76277,-1.6557
1535249854.789522666,-0.209768,-0.416954,0.198338,0.113606,-0.36368,0.856465,-0.348279,-1.27403,-0.627375,-1.07874,-0.000191049,-1.26402,1.76266,-1.65578
1535249854.795644245,-0.209766,-0.416961,0.198353,0.113576,-0.36374,0.85645,-0.348262,-1.27403,-0.627189,-1.07872,-0.000109159,-1.26409,1.76268,-1.65602
1535249854.801893237,-0.209782,-0.416981,0.19839,0.1137,-0.363635,0.856472,-0.348278,-1.27403,-0.627162,-1.07869,-0.000191049,-1.26402,1.7627,-1.65578
1535249854.808067890,-0.209761,-0.417006,0.198408,0.113746,-0.363552,0.856502,-0.348276,-1.27408,-0.62711,-1.07879,-0.000191049,-1.26399,1.76273,-1.6557
1535249854.814246863,-0.209792,-0.416964,0.198383,0.113591,-0.363649,0.856502,-0.348224,-1.27398,-0.627137,-1.07886,-0.000136462,-1.26404,1.76272,-1.65594
1535249854.820469907,-0.209812,-0.416964,0.198387,0.113603,-0.363635,0.856514,-0.348207,-1.27392,-0.627057,-1.07883,-0.000163747,-1.26407,1.7627,-1.65594
1535249854.826091662,-0.20974,-0.416994,0.198372,0.113621,-0.363639,0.85647,-0.348305,-1.27408,-0.62711,-1.07879,-0.000136462,-1.26407,1.76266,-1.65592
1535249854.832321743,-0.209766,-0.416999,0.198382,0.113663,-0.363581,0.856513,-0.348246,-1.27403,-0.627004,-1.07883,-0.000163747,-1.26409,1.76268,-1.65586
1535249854.838528224,-0.209697,-0.417021,0.198364,0.113656,-0.363593,0.85648,-0.348317,-1.27419,-0.627084,-1.07886,-0.000136462,-1.26409,1.76268,-1.65586
1535249854.844758328,-0.209764,-0.416967,0.198327,0.113569,-0.363703,0.85647,-0.348254,-1.27403,-0.627136,-1.07881,-0.000136462,-1.26416,1.76269,-1.65597
1535249854.850798787,-0.209816,-0.416931,0.198304,0.113492,-0.363788,0.856445,-0.348253,-1.27392,-0.627136,-1.07881,-0.000163747,-1.26423,1.76275,-1.65605
1535249854.856415490,-0.209787,-0.416933,0.198217,0.113469,-0.363824,0.856409,-0.34831,-1.27398,-0.627163,-1.07879,-0.000136462,-1.2644,1.76272,-1.65597
1535249854.862724403,-0.209645,-0.417008,0.198165,0.113538,-0.363772,0.85638,-0.348413,-1.2743,-0.62711,-1.07883,-0.000109159,-1.26453,1.76269,-1.65589
1535249854.868894352,-0.209494,-0.417138,0.198206,0.113576,-0.363453,0.85646,-0.348539,-1.27456,-0.626738,-1.0792,-0.000191049,-1.26454,1.76256,-1.65581
1535249854.874996880,-0.20951,-0.417175,0.19821,0.113464,-0.363171,0.856587,-0.348556,-1.2744,-0.626365,-1.07962,-0.000136462,-1.26463,1.7624,-1.65573
1535249854.880511727,-0.209508,-0.417209,0.198159,0.113333,-0.362973,0.856666,-0.348611,-1.2743,-0.626018,-1.07997,-0.000136462,-1.26484,1.76226,-1.65568
1535249854.886665673,-0.209501,-0.417235,0.198079,0.113257,-0.362863,0.856667,-0.348748,-1.27424,-0.625805,-1.08011,-0.000218335,-1.26507,1.76213,-1.65552
1535249854.892814207,-0.20956,-0.417212,0.198058,0.113199,-0.362842,0.856727,-0.348641,-1.27403,-0.625671,-1.08009,-0.000136462,-1.26516,1.76198,-1.6556
1535249854.898945885,-0.209523,-0.417204,0.198009,0.113119,-0.362997,0.856668,-0.348649,-1.27408,-0.625671,-1.07995,-0.000218335,-1.26529,1.76191,-1.65586
1535249854.905117685,-0.209405,-0.417226,0.197886,0.113094,-0.363062,0.856621,-0.348708,-1.2743,-0.625831,-1.07986,-0.000218335,-1.26547,1.76175,-1.65583
1535249854.911217607,-0.20946,-0.417184,0.197852,0.11301,-0.3631,0.856626,-0.348682,-1.27414,-0.625911,-1.07983,-0.000136462,-1.2655,1.76168,-1.65583
1535249854.917327377,-0.209473,-0.417186,0.197809,0.112977,-0.363053,0.85662,-0.348755,-1.27408,-0.625858,-1.07988,-0.000109159,-1.2656,1.76163,-1.65571
1535249854.929564347,-0.209378,-0.417175,0.197718,0.112889,-0.363246,0.856524,-0.348819,-1.2743,-0.626125,-1.07979,-0.000136462,-1.2657,1.76163,-1.65586
1535249854.935726127,-0.209468,-0.417118,0.197684,0.112889,-0.363316,0.856506,-0.34879,-1.27408,-0.626285,-1.07955,-0.000163747,-1.2657,1.76154,-1.65573
1535249854.941287227,-0.209453,-0.417115,0.197684,0.112916,-0.363364,0.85649,-0.348772,-1.27414,-0.626365,-1.07948,-0.000191049,-1.26568,1.76157,-1.65576
1535249854.953513366,-0.209387,-0.41708,0.197621,0.112833,-0.363602,0.856384,-0.348809,-1.2743,-0.626738,-1.0793,-0.000109159,-1.26568,1.76157,-1.65594
1535249854.959637513,-0.209462,-0.417058,0.197615,0.112872,-0.363591,0.856382,-0.348816,-1.27414,-0.626712,-1.07918,-0.000109159,-1.2657,1.76154,-1.65578
1535249854.965735525,-0.209371,-0.417087,0.197607,0.112848,-0.363614,0.856357,-0.348859,-1.27435,-0.626765,-1.07927,-0.000109159,-1.2657,1.76159,-1.65589
1535249854.977980729,-0.209213,-0.417174,0.197578,0.112962,-0.363554,0.856291,-0.349046,-1.27472,-0.626765,-1.07923,-0.000191049,-1.26575,1.76154,-1.65573
1535249854.984117263,-0.209368,-0.417064,0.197414,0.112761,-0.36363,0.85632,-0.348962,-1.27424,-0.626898,-1.07911,-0.000136462,-1.26602,1.76127,-1.6556
1535249855.018165809,-0.209368,-0.417064,0.197414,0.112761,-0.36363,0.85632,-0.348962,-1.27424,-0.626898,-1.07911,-0.000136462,-1.26602,1.76127,-1.6556
1535249855.024457523,-0.20939,-0.417035,0.197269,0.112491,-0.363629,0.856365,-0.34894,-1.27403,-0.626712,-1.07932,-0.000163747,-1.26637,1.76104,-1.65576
1535249855.030805869,-0.209412,-0.417019,0.197277,0.112482,-0.363667,0.856362,-0.348911,-1.27398,-0.626738,-1.07925,-0.000191049,-1.26635,1.76102,-1.65581
1535249855.036378624,-0.209338,-0.417066,0.197268,0.112536,-0.363577,0.856384,-0.348933,-1.27414,-0.626685,-1.07934,-0.000109159,-1.26638,1.761,-1.65573
1535249855.042527801,-0.209408,-0.417038,0.197294,0.112506,-0.363589,0.856403,-0.348883,-1.27398,-0.626632,-1.07934,-0.000163747,-1.26635,1.76102,-1.65578
1535249855.048787971,-0.209381,-0.417031,0.197242,0.112466,-0.363645,0.856346,-0.348977,-1.27403,-0.626765,-1.07927,-0.000218335,-1.2664,1.76097,-1.65573
1535249855.054982285,-0.209428,-0.416998,0.197245,0.112418,-0.363688,0.856352,-0.348934,-1.27392,-0.626818,-1.07927,-0.000163747,-1.26638,1.761,-1.65578
1535249855.060680311,-0.209422,-0.416998,0.197221,0.112463,-0.363757,0.856327,-0.348909,-1.27398,-0.626792,-1.0792,-0.000163747,-1.26647,1.76107,-1.65581
1535249855.067060866,-0.209407,-0.416986,0.197143,0.112417,-0.363814,0.856296,-0.348939,-1.27403,-0.626872,-1.07927,-0.000191049,-1.2666,1.76115,-1.65576
1535249855.073226470,-0.209291,-0.417079,0.197182,0.112555,-0.363697,0.856297,-0.349014,-1.2743,-0.626658,-1.07927,-0.000109159,-1.26661,1.76111,-1.65573
1535249855.078870714,-0.209251,-0.417138,0.19724,0.112523,-0.363473,0.856371,-0.349077,-1.27435,-0.626392,-1.07965,-0.000136462,-1.26656,1.76111,-1.6557
1535249855.085083721,-0.209292,-0.417185,0.197288,0.112517,-0.363162,0.856509,-0.349065,-1.27419,-0.625965,-1.08002,-0.000109159,-1.26659,1.76104,-1.65555
1535249855.091432150,-0.2093,-0.417228,0.19732,0.112516,-0.362899,0.856615,-0.349078,-1.27414,-0.625698,-1.08039,-0.000163747,-1.26659,1.76104,-1.65536
1535249855.096973552,-0.209298,-0.417285,0.197303,0.112543,-0.362607,0.856747,-0.349049,-1.27408,-0.625324,-1.08076,-0.000191049,-1.26674,1.76099,-1.65512
1535249855.103078461,-0.20925,-0.417341,0.197272,0.112612,-0.362416,0.856816,-0.349055,-1.27414,-0.625136,-1.08088,-0.000136462,-1.26685,1.76086,-1.65491
1535249855.109191423,-0.209266,-0.417361,0.197226,0.112783,-0.362268,0.856967,-0.348783,-1.27408,-0.624975,-1.08093,-0.000191049,-1.26699,1.76081,-1.65469
1535249855.121530550,-0.209273,-0.417428,0.197104,0.113026,-0.361809,0.857176,-0.348668,-1.27398,-0.624761,-1.08111,-0.000163747,-1.26725,1.76054,-1.65381
1535249855.127642129,-0.209308,-0.417466,0.197085,0.113171,-0.361549,0.857269,-0.348661,-1.27387,-0.624573,-1.08118,-0.000218335,-1.26733,1.76044,-1.65333
1535249855.133275269,-0.20926,-0.417528,0.197011,0.113288,-0.361296,0.857361,-0.348659,-1.27392,-0.624412,-1.08132,-0.000136462,-1.2675,1.76029,-1.6529
1535249855.172275056,-0.209247,-0.417551,0.196933,0.113407,-0.36114,0.857461,-0.348536,-1.27392,-0.624385,-1.08139,-0.000163747,-1.26765,1.7602,-1.65255
1535249855.178328373,-0.209105,-0.417604,0.196883,0.113286,-0.361185,0.857365,-0.348766,-1.27419,-0.624332,-1.08144,-0.000191049,-1.26777,1.76009,-1.65274
1535249855.211004891,-0.209105,-0.417604,0.196883,0.113286,-0.361185,0.857365,-0.348766,-1.27419,-0.624332,-1.08144,-0.000191049,-1.26777,1.76009,-1.65274
1535249855.217079269,-0.208935,-0.417654,0.196728,0.113152,-0.361212,0.857286,-0.348974,-1.27446,-0.624385,-1.08144,-0.000136462,-1.26805,1.75981,-1.65277
1535249855.223165220,-0.209045,-0.417597,0.196698,0.1131,-0.361217,0.857333,-0.348871,-1.27419,-0.624412,-1.08146,-0.000163747,-1.26809,1.75981,-1.65269
1535249855.229682889,-0.208999,-0.417611,0.196691,0.113114,-0.361221,0.85731,-0.348918,-1.2743,-0.624492,-1.08144,-0.000245637,-1.26807,1.75979,-1.65266
1535249855.235802892,-0.209069,-0.41761,0.196735,0.113192,-0.361145,0.857395,-0.348763,-1.27414,-0.624278,-1.08144,-0.000136462,-1.26807,1.75979,-1.65266
1535249855.241932630,-0.209065,-0.417591,0.196673,0.11313,-0.361197,0.857348,-0.348845,-1.27414,-0.624412,-1.08142,-0.000136462,-1.26814,1.75977,-1.65258
1535249855.248016543,-0.209035,-0.41761,0.196677,0.113116,-0.36119,0.857343,-0.348869,-1.27419,-0.624332,-1.08144,-0.000136462,-1.26817,1.75975,-1.65266
1535249855.254088140,-0.20911,-0.417576,0.196692,0.113118,-0.361211,0.857365,-0.348792,-1.27403,-0.624332,-1.08139,-8.18736e-05,-1.26814,1.75977,-1.65266
1535249855.260264992,-0.208984,-0.417629,0.196689,0.113087,-0.361213,0.857309,-0.348938,-1.2743,-0.624332,-1.08144,-0.000109159,-1.26814,1.75973,-1.65277
1535249855.265784997,-0.209184,-0.417521,0.196678,0.112982,-0.361258,0.857387,-0.348734,-1.27382,-0.624385,-1.08144,-0.000163747,-1.26814,1.75973,-1.65277
1535249855.272219822,-0.209261,-0.417478,0.196629,0.112961,-0.361304,0.857404,-0.348652,-1.27366,-0.624385,-1.08144,-0.000109159,-1.26826,1.75978,-1.65271
1535249855.277987226,-0.209107,-0.417544,0.196578,0.113061,-0.361354,0.857317,-0.348781,-1.27408,-0.624439,-1.08144,-0.000163747,-1.26837,1.75992,-1.65266
1535249855.284182216,-0.208953,-0.41763,0.196563,0.113119,-0.361326,0.857234,-0.348995,-1.27446,-0.624358,-1.08146,-0.000163747,-1.26844,1.75994,-1.65263
1535249855.289994953,-0.208926,-0.417676,0.196638,0.113046,-0.361123,0.85734,-0.348969,-1.27446,-0.624063,-1.08186,-0.000136462,-1.26837,1.75992,-1.65277
1535249855.296160300,-0.208956,-0.417722,0.196678,0.113057,-0.360802,0.857468,-0.348981,-1.27435,-0.62374,-1.08228,-8.18736e-05,-1.26837,1.75992,-1.6525
1535249855.302424882,-0.209037,-0.41774,0.196728,0.113063,-0.360616,0.857567,-0.34893,-1.27414,-0.623338,-1.08249,-0.000163747,-1.26842,1.75992,-1.65245
1535249855.307955041,-0.20909,-0.41774,0.196748,0.113001,-0.360455,0.857676,-0.348848,-1.27398,-0.623123,-1.08282,-0.000136462,-1.26844,1.75994,-1.65243
1535249855.314121735,-0.209109,-0.417746,0.196782,0.113014,-0.36048,0.85769,-0.348784,-1.27392,-0.622936,-1.08275,-0.000136462,-1.26846,1.75992,-1.65261
1535249855.320259430,-0.20917,-0.417701,0.196742,0.112976,-0.36054,0.857748,-0.34859,-1.27376,-0.622936,-1.08275,-0.000218335,-1.26855,1.75991,-1.65271
1535249855.326406397,-0.209162,-0.417721,0.196779,0.112967,-0.360479,0.857756,-0.348637,-1.27376,-0.622829,-1.0828,-0.000191049,-1.26851,1.75987,-1.65274
1535249855.332608869,-0.209129,-0.417745,0.196804,0.113039,-0.360506,0.857719,-0.348677,-1.27387,-0.622803,-1.08268,-0.000136462,-1.26849,1.7599,-1.65276
1535249855.338131533,-0.209072,-0.41775,0.196737,0.112967,-0.360468,0.857715,-0.348749,-1.27398,-0.622963,-1.08287,-0.000136462,-1.26853,1.75989,-1.65263
1535249855.344165877,-0.209197,-0.417728,0.19679,0.113049,-0.360348,0.857815,-0.348602,-1.27371,-0.622802,-1.08291,-0.000218335,-1.26848,1.75994,-1.65247
1535249855.350364220,-0.209204,-0.417724,0.196788,0.112975,-0.360363,0.857826,-0.348583,-1.27366,-0.622695,-1.08296,-0.000163747,-1.26853,1.75989,-1.65263
1535249855.356687609,-0.20918,-0.41772,0.196797,0.112905,-0.36043,0.857767,-0.348682,-1.27371,-0.622775,-1.08294,-0.000136462,-1.26849,1.7599,-1.65274
1535249855.362871920,-0.209222,-0.417714,0.196806,0.112951,-0.360387,0.857835,-0.348543,-1.2736,-0.622668,-1.08294,-0.000136462,-1.26851,1.75987,-1.65274
1535249855.368525408,-0.209148,-0.417774,0.19685,0.113059,-0.360293,0.857813,-0.34866,-1.27382,-0.622614,-1.08299,-0.000163747,-1.26844,1.75994,-1.65261
1535249855.374627882,-0.209094,-0.4178,0.196812,0.11303,-0.360308,0.857781,-0.348733,-1.27392,-0.622534,-1.08301,-0.000191049,-1.26855,1.75991,-1.65266
1535249855.380801397,-0.209158,-0.417787,0.196842,0.113038,-0.360206,0.857859,-0.348642,-1.27376,-0.622453,-1.08313,-0.000136462,-1.26851,1.75991,-1.65258
1535249855.393215903,-0.209021,-0.417872,0.196862,0.11311,-0.360163,0.857785,-0.348845,-1.27408,-0.622346,-1.08308,-0.000136462,-1.26851,1.75987,-1.65258
1535249855.398882322,-0.209026,-0.417869,0.19683,0.113049,-0.360101,0.857847,-0.348777,-1.27403,-0.622292,-1.08327,-0.000163747,-1.26858,1.75985,-1.65258
1535249855.405063068,-0.209023,-0.417871,0.196788,0.112967,-0.360087,0.857853,-0.348804,-1.27398,-0.622185,-1.08331,-0.000218335,-1.26871,1.75974,-1.65263
1535249855.417455366,-0.209032,-0.417893,0.196836,0.113037,-0.360046,0.857912,-0.348678,-1.27403,-0.621944,-1.08352,-0.000191049,-1.26873,1.75998,-1.65274
1535249855.423537441,-0.209043,-0.417921,0.196938,0.11318,-0.359964,0.857934,-0.348662,-1.27408,-0.621863,-1.08355,-0.000163747,-1.26856,1.76013,-1.65266
1535249855.429638292,-0.208972,-0.417963,0.196956,0.113248,-0.359942,0.857898,-0.348752,-1.2743,-0.621864,-1.08359,-0.000191049,-1.26853,1.76024,-1.65261
1535249855.441865733,-0.209055,-0.417909,0.196882,0.113187,-0.360012,0.857919,-0.348646,-1.27408,-0.621863,-1.08355,-0.000136462,-1.26869,1.76021,-1.6526
1535249855.448029063,-0.209084,-0.41788,0.196833,0.113126,-0.360052,0.857918,-0.348629,-1.27403,-0.621917,-1.08364,-0.000136462,-1.26878,1.76028,-1.65258
1535249855.454184270,-0.209015,-0.417893,0.19679,0.113105,-0.360155,0.857837,-0.348729,-1.27419,-0.621997,-1.08352,-0.000136462,-1.26885,1.76026,-1.65266
1535249855.466557647,-0.209104,-0.41785,0.196753,0.113161,-0.360288,0.857826,-0.3486,-1.27408,-0.621917,-1.08345,-0.000136462,-1.26902,1.76049,-1.65268
1535249855.472688595,-0.209127,-0.417841,0.19673,0.11314,-0.360286,0.857811,-0.348646,-1.27403,-0.621917,-1.08345,-0.000109159,-1.26906,1.76049,-1.65261
1535249855.478834244,-0.209163,-0.417781,0.196638,0.112984,-0.360471,0.857774,-0.348596,-1.27398,-0.621997,-1.08357,-0.000109159,-1.26926,1.76066,-1.65279
1535249855.484970216,-0.20911,-0.417788,0.196512,0.113034,-0.36065,0.857658,-0.34868,-1.27419,-0.622024,-1.08345,-0.000109159,-1.26957,1.76084,-1.65274
1535249855.496686296,-0.208963,-0.417871,0.196521,0.113085,-0.360517,0.857671,-0.34877,-1.27451,-0.62197,-1.08364,-0.000136462,-1.26955,1.76082,-1.65268
1535249855.502835780,-0.20897,-0.417931,0.196606,0.113112,-0.360271,0.857755,-0.348808,-1.27446,-0.621574,-1.08389,-0.000163747,-1.2695,1.76078,-1.65263
1535249855.508946453,-0.209045,-0.417937,0.196622,0.113096,-0.36004,0.857875,-0.348757,-1.27424,-0.621337,-1.08419,-0.000191049,-1.26953,1.76076,-1.65242
1535249855.521220992,-0.209061,-0.417957,0.19663,0.11302,-0.359922,0.857947,-0.348725,-1.27419,-0.621021,-1.08456,-0.000109159,-1.26963,1.76085,-1.6525
1535249855.527393475,-0.209091,-0.417895,0.196547,0.11286,-0.360077,0.857937,-0.348642,-1.27408,-0.62118,-1.08456,-0.000163747,-1.26975,1.76083,-1.65269
1535249855.533527119,-0.209068,-0.417882,0.196536,0.112869,-0.360166,0.857926,-0.348575,-1.27414,-0.621312,-1.08445,-0.000191049,-1.26973,1.76081,-1.65279
1535249855.545358757,-0.209124,-0.417835,0.196484,0.112854,-0.360226,0.857894,-0.348596,-1.27403,-0.621524,-1.08435,-0.000109159,-1.26975,1.76083,-1.65261
1535249855.551513435,-0.209188,-0.417813,0.196492,0.11286,-0.360209,0.857926,-0.348532,-1.27387,-0.621471,-1.08431,-0.000163747,-1.26976,1.76079,-1.65258
1535249855.557630544,-0.209069,-0.417847,0.196458,0.112933,-0.360295,0.857831,-0.348654,-1.27419,-0.621682,-1.08417,-0.000218335,-1.26975,1.76083,-1.65253
1535249855.569770220,-0.209116,-0.41778,0.196389,0.112797,-0.360481,0.857777,-0.348639,-1.27408,-0.621867,-1.0841,-0.000136462,-1.26984,1.76086,-1.65266
1535249855.575926589,-0.20916,-0.417756,0.196368,0.112808,-0.360477,0.857784,-0.348621,-1.27398,-0.621946,-1.08403,-0.000218335,-1.26984,1.76082,-1.65253
1535249855.582091932,-0.209161,-0.417734,0.196388,0.112708,-0.36059,0.857781,-0.348546,-1.27398,-0.62192,-1.0841,-0.000163747,-1.26984,1.7609,-1.65287
1535249855.615584254,-0.209161,-0.417734,0.196388,0.112708,-0.36059,0.857781,-0.348546,-1.27398,-0.62192,-1.0841,-0.000163747,-1.26984,1.7609,-1.65287
1535249855.621675483,-0.20905,-0.417781,0.196236,0.112622,-0.360588,0.85773,-0.348699,-1.27414,-0.621788,-1.08412,-0.000191049,-1.2702,1.7607,-1.65284
1535249855.627862094,-0.209123,-0.417785,0.196306,0.112762,-0.360498,0.857766,-0.348658,-1.27403,-0.621681,-1.08408,-0.000136462,-1.2701,1.76079,-1.65266
1535249855.659814080,-0.209123,-0.417785,0.196306,0.112762,-0.360498,0.857766,-0.348658,-1.27403,-0.621681,-1.08408,-0.000136462,-1.2701,1.76079,-1.65266
1535249855.665931058,-0.209183,-0.417766,0.196369,0.112908,-0.360414,0.857822,-0.34856,-1.27398,-0.621867,-1.0841,-0.000191049,-1.26988,1.76094,-1.65237
1535249855.672082136,-0.209227,-0.417739,0.196406,0.11284,-0.360494,0.857824,-0.348495,-1.27387,-0.621787,-1.08408,-8.18736e-05,-1.26986,1.76096,-1.65263
1535249855.677685152,-0.209158,-0.417749,0.196368,0.112806,-0.36058,0.857763,-0.348568,-1.27403,-0.621893,-1.08403,-0.000191049,-1.2699,1.76096,-1.65271
1535249855.683889932,-0.209142,-0.417769,0.196357,0.112848,-0.360535,0.857762,-0.348602,-1.27408,-0.62184,-1.08408,-0.000136462,-1.26995,1.761,-1.65261
1535249855.690156057,-0.20919,-0.417734,0.196374,0.112818,-0.360611,0.857755,-0.348553,-1.27398,-0.621893,-1.08399,-0.000136462,-1.2699,1.761,-1.65271
1535249855.695845881,-0.209241,-0.417705,0.196327,0.112806,-0.360622,0.85777,-0.348507,-1.27387,-0.62192,-1.08401,-0.000191049,-1.26999,1.76103,-1.65261
1535249855.702203738,-0.209023,-0.417833,0.196356,0.112888,-0.360486,0.857721,-0.348742,-1.27435,-0.621814,-1.0841,-5.45879e-05,-1.26995,1.76096,-1.65258
1535249855.707924874,-0.209041,-0.417845,0.196422,0.112856,-0.360342,0.857804,-0.348696,-1.27424,-0.621709,-1.08424,-0.000191049,-1.26982,1.76084,-1.65261
1535249855.714186645,-0.208947,-0.417927,0.196496,0.112843,-0.360136,0.85783,-0.348851,-1.2744,-0.621498,-1.08447,-0.000136462,-1.26971,1.76075,-1.65261
1535249855.719798955,-0.209048,-0.417943,0.19654,0.112902,-0.359853,0.857991,-0.348727,-1.27414,-0.621129,-1.08475,-0.000163747,-1.26974,1.76073,-1.65237
1535249855.725979852,-0.208994,-0.417993,0.196563,0.112846,-0.359756,0.857995,-0.348834,-1.27424,-0.620892,-1.085,-8.18736e-05,-1.26978,1.76077,-1.65245
1535249855.732147231,-0.209086,-0.417958,0.19656,0.112751,-0.359692,0.858109,-0.348651,-1.27398,-0.620707,-1.08521,-0.000136462,-1.26985,1.76074,-1.65256
1535249855.738296007,-0.209085,-0.417969,0.196575,0.112759,-0.359672,0.858158,-0.348548,-1.27398,-0.620549,-1.0853,-0.000245637,-1.26989,1.76078,-1.65268
1535249855.744030977,-0.209087,-0.417979,0.1966,0.112784,-0.35968,0.858155,-0.34854,-1.27398,-0.620446,-1.08525,-0.000163747,-1.26989,1.76078,-1.65276
1535249855.750171191,-0.209054,-0.418013,0.196586,0.112784,-0.359538,0.858206,-0.34856,-1.27403,-0.620342,-1.08548,-0.000218335,-1.26994,1.76078,-1.65263
1535249855.756328122,-0.209101,-0.418023,0.196609,0.112755,-0.359342,0.858318,-0.348497,-1.27387,-0.620133,-1.08575,-0.000109159,-1.26994,1.76074,-1.65253
1535249855.762448830,-0.209048,-0.418083,0.196648,0.112768,-0.35925,0.858308,-0.348611,-1.27398,-0.61987,-1.08584,-0.000136462,-1.26997,1.76071,-1.65258
1535249855.768578056,-0.209002,-0.418147,0.196672,0.112858,-0.359063,0.858386,-0.348584,-1.27408,-0.619608,-1.08607,-0.000163747,-1.27001,1.76075,-1.65247
1535249855.774652708,-0.209064,-0.418105,0.196703,0.112746,-0.359108,0.85843,-0.348465,-1.27392,-0.619582,-1.08619,-0.000136462,-1.26996,1.7608,-1.65271
1535249855.780189717,-0.208973,-0.41818,0.196731,0.112784,-0.358996,0.858409,-0.34862,-1.27414,-0.619372,-1.08632,-0.000218335,-1.26998,1.76081,-1.65269
1535249855.786308865,-0.209021,-0.418159,0.19671,0.112804,-0.359,0.858427,-0.348565,-1.27403,-0.619372,-1.08628,-0.000191049,-1.27003,1.76081,-1.65261
1535249855.792424239,-0.20899,-0.41819,0.196731,0.112811,-0.358902,0.858438,-0.348636,-1.27408,-0.61932,-1.08637,-0.000191049,-1.26999,1.76077,-1.65253
1535249855.798536434,-0.209077,-0.418138,0.196753,0.112726,-0.358961,0.858475,-0.348511,-1.27387,-0.619293,-1.08639,-0.000136462,-1.26996,1.7608,-1.65271
1535249855.810239065,-0.208909,-0.418243,0.196757,0.112927,-0.358866,0.858423,-0.348673,-1.2743,-0.619266,-1.08632,-0.000218335,-1.26996,1.7608,-1.6525
1535249855.816524133,-0.208814,-0.418265,0.196713,0.112891,-0.358968,0.858347,-0.348767,-1.27451,-0.619345,-1.08625,-0.000163747,-1.27003,1.76077,-1.65263
1535249855.822688397,-0.208868,-0.418224,0.196652,0.112794,-0.358987,0.858358,-0.348752,-1.27435,-0.619398,-1.0863,-0.000163747,-1.27013,1.76072,-1.65258
1535249855.834687345,-0.208921,-0.418188,0.196635,0.112782,-0.359064,0.858359,-0.348672,-1.27424,-0.619424,-1.08623,-0.000136462,-1.27017,1.76076,-1.65263
1535249855.867085783,-0.208921,-0.418188,0.196635,0.112782,-0.359064,0.858359,-0.348672,-1.27424,-0.619424,-1.08623,-0.000136462,-1.27017,1.76076,-1.65263
1535249855.873217580,-0.209053,-0.418137,0.196743,0.112888,-0.359067,0.858415,-0.348498,-1.27403,-0.619503,-1.08616,-2.73022e-05,-1.26993,1.76094,-1.65258
1535249855.878808494,-0.208973,-0.418174,0.196712,0.112856,-0.359023,0.858383,-0.348633,-1.27419,-0.619504,-1.08626,-0.000136462,-1.26998,1.76089,-1.65253
1535249855.884994792,-0.20905,-0.418146,0.19679,0.112852,-0.35903,0.858434,-0.348502,-1.27403,-0.619424,-1.08628,-0.000191049,-1.26986,1.76096,-1.65269
1535249855.891275446,-0.208997,-0.418188,0.196787,0.112905,-0.359001,0.858404,-0.348587,-1.27414,-0.619318,-1.08618,-0.000136462,-1.26991,1.76088,-1.65266
1535249855.897396958,-0.20905,-0.418147,0.196776,0.112863,-0.35904,0.858434,-0.348487,-1.27403,-0.619398,-1.08625,-0.000109159,-1.2699,1.76096,-1.65268
1535249855.903512679,-0.209021,-0.418139,0.196676,0.112835,-0.359206,0.858315,-0.348618,-1.27414,-0.619449,-1.08612,-8.18736e-05,-1.27013,1.76103,-1.65269
1535249855.909661589,-0.208946,-0.418169,0.196701,0.112816,-0.359158,0.858325,-0.348649,-1.2743,-0.619504,-1.08626,-0.000163747,-1.27004,1.76103,-1.65274
1535249855.915770209,-0.208966,-0.418197,0.196758,0.112858,-0.35894,0.858446,-0.348561,-1.27419,-0.61932,-1.08642,-8.18736e-05,-1.26995,1.76092,-1.65263
1535249855.921412549,-0.208849,-0.418249,0.196739,0.11289,-0.35892,0.858373,-0.348751,-1.27446,-0.619425,-1.08637,-0.000136462,-1.26993,1.76086,-1.65253
1535249855.927657718,-0.208899,-0.418266,0.196779,0.112866,-0.358726,0.858445,-0.348782,-1.2743,-0.619189,-1.08658,-0.000191049,-1.26992,1.7608,-1.6524
1535249855.933207443,-0.208985,-0.418242,0.196795,0.112847,-0.358655,0.858512,-0.348696,-1.27408,-0.619085,-1.08667,-0.000163747,-1.26992,1.7608,-1.65235
1535249855.939346943,-0.209058,-0.418208,0.19679,0.112814,-0.358686,0.858524,-0.348645,-1.27392,-0.619032,-1.08667,-0.000272923,-1.26996,1.76084,-1.65237
1535249855.945547218,-0.208988,-0.418209,0.196766,0.112816,-0.35883,0.858471,-0.348628,-1.27408,-0.619189,-1.08648,-0.000136462,-1.26996,1.7608,-1.65256
1535249855.951665492,-0.209071,-0.418139,0.196747,0.112811,-0.359049,0.858448,-0.348459,-1.27392,-0.619292,-1.08621,-0.000136462,-1.27001,1.76083,-1.65276
1535249855.957289623,-0.209063,-0.41815,0.196732,0.112829,-0.358956,0.858463,-0.348514,-1.27392,-0.619345,-1.08625,-0.000191049,-1.26999,1.76077,-1.65255
1535249855.969649098,-0.208971,-0.41818,0.196704,0.112831,-0.358958,0.85844,-0.348566,-1.27414,-0.619425,-1.08632,-0.000109159,-1.27001,1.76079,-1.65255
1535249855.975779705,-0.209031,-0.418142,0.196685,0.112767,-0.35898,0.858469,-0.348493,-1.27398,-0.619452,-1.08635,-0.000136462,-1.27003,1.76077,-1.65258
1535249855.981947565,-0.209035,-0.418154,0.196691,0.112776,-0.358949,0.858456,-0.348555,-1.27398,-0.619373,-1.08637,-0.000109159,-1.27006,1.76079,-1.65253
1535249855.994273388,-0.209054,-0.418121,0.196682,0.112677,-0.359015,0.858444,-0.348548,-1.27392,-0.619479,-1.08642,-0.000218335,-1.27003,1.76081,-1.65263
1535249856.000382239,-0.20907,-0.418123,0.196687,0.11267,-0.358988,0.858491,-0.348464,-1.27387,-0.619347,-1.08648,-0.000163747,-1.27008,1.76081,-1.65271
1535249856.006662303,-0.209071,-0.418126,0.196683,0.112666,-0.359011,0.858455,-0.348529,-1.27387,-0.61932,-1.08642,-0.000191049,-1.2701,1.76079,-1.65271
1535249856.018419388,-0.208963,-0.418207,0.19674,0.112782,-0.358898,0.858458,-0.348601,-1.27414,-0.619189,-1.08648,-0.000109159,-1.27003,1.76081,-1.65269
1535249856.024664827,-0.208958,-0.418165,0.196672,0.112704,-0.359012,0.858442,-0.348547,-1.27414,-0.619426,-1.08646,-8.18736e-05,-1.27008,1.76081,-1.65274
1535249856.055416980,-0.208958,-0.418165,0.196672,0.112704,-0.359012,0.858442,-0.348547,-1.27414,-0.619426,-1.08646,-8.18736e-05,-1.27008,1.76081,-1.65274
1535249856.061586900,-0.209033,-0.418197,0.196801,0.11288,-0.358844,0.858497,-0.348527,-1.27408,-0.619137,-1.08662,-0.000136462,-1.26994,1.76108,-1.65255
1535249856.067685982,-0.209022,-0.418195,0.196785,0.112838,-0.358883,0.858488,-0.348524,-1.27408,-0.61911,-1.0866,-0.000163747,-1.26999,1.76103,-1.65266
1535249856.073267704,-0.209003,-0.418211,0.196766,0.112912,-0.3588,0.858519,-0.348509,-1.27414,-0.619164,-1.08664,-0.000163747,-1.26999,1.76103,-1.65245
1535249856.079455881,-0.209061,-0.418163,0.19675,0.112903,-0.358956,0.858468,-0.348478,-1.27403,-0.619267,-1.08641,-0.000163747,-1.27001,1.76105,-1.65253
1535249856.085702045,-0.209162,-0.418104,0.196723,0.112818,-0.358938,0.858525,-0.348382,-1.27376,-0.619347,-1.08648,-0.000218335,-1.27001,1.76101,-1.65245
1535249856.091375208,-0.209042,-0.418162,0.196735,0.112803,-0.358973,0.858471,-0.348485,-1.27403,-0.619215,-1.08651,-0.000218335,-1.27006,1.76101,-1.65268
1535249856.097503006,-0.209115,-0.418127,0.196723,0.112805,-0.358977,0.858488,-0.348437,-1.27387,-0.619268,-1.08646,-0.000109159,-1.27006,1.76101,-1.65258
1535249856.103684616,-0.209045,-0.418151,0.196733,0.112798,-0.359035,0.858434,-0.348515,-1.27403,-0.619293,-1.08639,-0.000163747,-1.27004,1.76099,-1.65271
1535249856.109873468,-0.209088,-0.418119,0.196692,0.112741,-0.359054,0.858431,-0.348521,-1.27392,-0.619373,-1.08642,-0.000163747,-1.27009,1.76099,-1.65263
1535249856.116029368,-0.209097,-0.418123,0.196688,0.112777,-0.359009,0.858451,-0.348505,-1.27392,-0.619347,-1.08648,-8.18736e-05,-1.2701,1.76105,-1.65253
1535249856.121680586,-0.209041,-0.41816,0.196719,0.112797,-0.358949,0.858479,-0.348492,-1.27403,-0.619269,-1.08655,-8.18736e-05,-1.27006,1.76101,-1.65261
1535249856.127781170,-0.208947,-0.418239,0.19679,0.112879,-0.358746,0.858514,-0.348588,-1.27419,-0.619163,-1.0866,-8.18736e-05,-1.26991,1.76084,-1.6525
1535249856.133956825,-0.208879,-0.418274,0.196837,0.112816,-0.358699,0.858499,-0.348692,-1.2743,-0.619137,-1.08667,-0.000136462,-1.2698,1.76074,-1.65263
1535249856.146363897,-0.209013,-0.418253,0.196819,0.112839,-0.358502,0.858576,-0.348698,-1.27398,-0.61898,-1.0868,-0.000163747,-1.26988,1.76072,-1.65222
1535249856.151985765,-0.209014,-0.418231,0.196829,0.112821,-0.358653,0.858557,-0.348598,-1.27398,-0.619005,-1.08664,-0.000136462,-1.26988,1.76072,-1.6525
1535249856.158133082,-0.208986,-0.418194,0.196763,0.112758,-0.358841,0.858523,-0.348506,-1.27403,-0.619215,-1.08651,-0.000245637,-1.26995,1.7607,-1.65271
1535249856.170607775,-0.208995,-0.418192,0.196759,0.112795,-0.358874,0.8585,-0.348517,-1.27403,-0.619214,-1.08641,-0.000136462,-1.26997,1.76071,-1.65268
1535249856.176205614,-0.209014,-0.418176,0.19674,0.112769,-0.358842,0.85851,-0.348534,-1.27398,-0.619321,-1.08646,-0.000163747,-1.26995,1.7607,-1.65255
1535249856.182510578,-0.209085,-0.418154,0.196737,0.112756,-0.358801,0.858535,-0.348519,-1.27382,-0.619268,-1.08651,-0.000163747,-1.26997,1.76071,-1.65245
1535249856.194796032,-0.209029,-0.41817,0.196765,0.112793,-0.358903,0.858505,-0.348476,-1.27398,-0.619267,-1.08641,-0.000136462,-1.26994,1.76078,-1.65268
1535249856.200403488,-0.20901,-0.418184,0.196746,0.11281,-0.358904,0.858487,-0.348514,-1.27403,-0.619214,-1.08641,-0.000218335,-1.27001,1.76079,-1.65266
1535249856.206567365,-0.209034,-0.418194,0.196773,0.112864,-0.358834,0.858495,-0.348548,-1.27398,-0.619161,-1.08637,-0.000136462,-1.26997,1.76075,-1.65253
1535249856.218798043,-0.209054,-0.418176,0.196772,0.112793,-0.358887,0.858483,-0.348547,-1.27392,-0.619135,-1.08639,-0.000191049,-1.26999,1.76077,-1.65266
1535249856.224911695,-0.208962,-0.418219,0.196759,0.112839,-0.358847,0.858497,-0.348538,-1.27414,-0.619136,-1.08648,-0.000136462,-1.27001,1.76079,-1.65266
1535249856.231099671,-0.20889,-0.418233,0.196703,0.11281,-0.358856,0.858442,-0.348675,-1.2743,-0.619321,-1.08651,-0.000191049,-1.27003,1.76077,-1.65253
1535249856.237205564,-0.208805,-0.418277,0.196701,0.112769,-0.358825,0.858411,-0.348796,-1.27446,-0.619242,-1.08658,-0.000136462,-1.27006,1.76071,-1.65261
1535249856.248916909,-0.20901,-0.41816,0.196611,0.112616,-0.358908,0.858479,-0.348593,-1.27392,-0.619242,-1.08653,-0.000109159,-1.27025,1.76062,-1.65261
1535249856.255025800,-0.20898,-0.418178,0.196649,0.112651,-0.358886,0.858486,-0.348588,-1.27403,-0.619243,-1.08662,-0.000136462,-1.27018,1.76072,-1.65263
1535249856.261242456,-0.209,-0.418194,0.196767,0.112808,-0.358882,0.858484,-0.348545,-1.27408,-0.619189,-1.08653,-0.000191049,-1.26998,1.76089,-1.65266
1535249856.273038134,-0.209045,-0.418142,0.196767,0.112778,-0.358969,0.85847,-0.3485,-1.27403,-0.619453,-1.08653,-8.18736e-05,-1.26988,1.76102,-1.65263
1535249856.279311366,-0.209016,-0.41817,0.196777,0.112815,-0.358908,0.858488,-0.348507,-1.27408,-0.619374,-1.08655,-0.000109159,-1.26988,1.76098,-1.65261
1535249856.285422154,-0.209046,-0.418165,0.196767,0.112838,-0.358928,0.858472,-0.348518,-1.27403,-0.619294,-1.08648,-0.000163747,-1.26995,1.761,-1.65258
1535249856.297141727,-0.208965,-0.418188,0.19677,0.112809,-0.358977,0.858425,-0.348592,-1.27419,-0.619373,-1.08642,-0.000136462,-1.26991,1.76092,-1.65271
1535249856.303256913,-0.208962,-0.418201,0.196744,0.112822,-0.358884,0.85845,-0.348621,-1.27419,-0.619348,-1.08653,-0.000136462,-1.26995,1.76092,-1.65253
1535249856.309463661,-0.209034,-0.418155,0.19676,0.112791,-0.358929,0.858487,-0.348493,-1.27403,-0.619401,-1.08653,-0.000136462,-1.2699,1.76096,-1.65261
1535249856.321870983,-0.209039,-0.418145,0.196717,0.112733,-0.359024,0.858424,-0.34857,-1.27403,-0.619347,-1.08648,-0.000136462,-1.27004,1.76099,-1.65269
1535249856.327515351,-0.209036,-0.418136,0.196678,0.112709,-0.359033,0.858446,-0.348516,-1.27403,-0.619374,-1.08655,-5.45879e-05,-1.27011,1.76101,-1.65269
1535249856.333699964,-0.208865,-0.418238,0.196716,0.11281,-0.358938,0.858408,-0.348674,-1.2744,-0.619295,-1.08653,-0.000136462,-1.27005,1.76091,-1.65268
1535249856.345952763,-0.208916,-0.418277,0.196827,0.112833,-0.358554,0.858574,-0.348652,-1.27419,-0.61906,-1.08683,-0.000136462,-1.26983,1.76072,-1.65242
1535249856.351668146,-0.208854,-0.41832,0.196854,0.112868,-0.358523,0.858514,-0.348821,-1.27435,-0.619033,-1.08681,-0.000136462,-1.26978,1.76073,-1.65237
1535249856.357783105,-0.208944,-0.418283,0.19682,0.112843,-0.358514,0.858539,-0.348777,-1.27414,-0.61898,-1.0868,-0.000191049,-1.26988,1.76072,-1.65227
1535249856.369551474,-0.208979,-0.418211,0.196768,0.112822,-0.35887,0.858476,-0.348573,-1.27408,-0.619135,-1.08639,-0.000191049,-1.26999,1.76073,-1.65268
1535249856.375716750,-0.208935,-0.418245,0.196808,0.112854,-0.3588,0.858488,-0.348604,-1.27419,-0.619083,-1.08648,-0.000218335,-1.26992,1.76076,-1.65268
1535249856.381431783,-0.208974,-0.418198,0.196747,0.112777,-0.358879,0.858463,-0.34861,-1.27408,-0.619267,-1.08641,-0.000191049,-1.26997,1.76071,-1.65263
1535249856.393676394,-0.208978,-0.418197,0.196766,0.112794,-0.358844,0.858484,-0.348588,-1.27408,-0.619321,-1.08646,-0.000136462,-1.2699,1.76074,-1.65258
1535249856.399849959,-0.209007,-0.418183,0.196781,0.112803,-0.358869,0.858483,-0.348561,-1.27403,-0.61932,-1.08642,-0.000191049,-1.26987,1.76076,-1.65261
1535249856.405509738,-0.208902,-0.41822,0.196723,0.112758,-0.35888,0.858451,-0.348644,-1.27424,-0.619321,-1.08651,-0.000272923,-1.26999,1.76073,-1.65266
1535249856.417797469,-0.208966,-0.418193,0.196755,0.112725,-0.358867,0.858501,-0.348544,-1.27408,-0.619269,-1.08655,-0.000163747,-1.26994,1.76074,-1.65274
1535249856.423907388,-0.208977,-0.418193,0.196741,0.112759,-0.358871,0.858467,-0.348614,-1.27408,-0.619294,-1.08648,-8.18736e-05,-1.26997,1.76075,-1.65261
1535249856.430104485,-0.208937,-0.418241,0.196784,0.112825,-0.358789,0.858465,-0.34868,-1.27419,-0.619136,-1.08653,-0.000218335,-1.26994,1.76078,-1.65258
1535249856.441872701,-0.208897,-0.418244,0.196756,0.112858,-0.358835,0.858455,-0.348649,-1.2743,-0.619241,-1.08648,-0.000191049,-1.26996,1.7608,-1.65258
1535249856.448002952,-0.208873,-0.418259,0.196709,0.112768,-0.358822,0.858438,-0.348733,-1.2743,-0.61911,-1.08655,-0.000218335,-1.27011,1.76071,-1.65263
1535249856.454179935,-0.208879,-0.418232,0.196622,0.112711,-0.358837,0.858442,-0.348725,-1.27424,-0.619269,-1.08655,-0.000163747,-1.27021,1.76062,-1.6525
1535249856.465909047,-0.209004,-0.418166,0.196662,0.112645,-0.358931,0.858507,-0.348491,-1.27398,-0.619163,-1.0866,-0.000109159,-1.2702,1.76074,-1.65279
1535249856.472060405,-0.209013,-0.4182,0.196771,0.112772,-0.358834,0.858543,-0.348461,-1.27403,-0.619005,-1.08669,-0.000163747,-1.27005,1.76091,-1.65276
1535249856.478269369,-0.209041,-0.41821,0.196852,0.112882,-0.358764,0.858556,-0.348465,-1.27403,-0.619005,-1.08669,-0.000191049,-1.26988,1.76102,-1.65263
1535249856.490597392,-0.209065,-0.418189,0.1968,0.112894,-0.358789,0.858527,-0.348506,-1.27398,-0.619137,-1.08658,-0.000109159,-1.26993,1.76098,-1.65245
1535249856.496800093,-0.209014,-0.418193,0.196764,0.11286,-0.35884,0.858514,-0.348498,-1.27408,-0.619216,-1.0866,-0.000163747,-1.26997,1.76098,-1.65253
1535249856.502354743,-0.209027,-0.41818,0.196739,0.112812,-0.358858,0.858513,-0.348497,-1.27403,-0.619216,-1.0866,-0.000136462,-1.27002,1.76093,-1.65255
1535249856.514606705,-0.209045,-0.418173,0.196768,0.112893,-0.358915,0.858499,-0.348446,-1.27403,-0.619241,-1.08644,-0.000109159,-1.26997,1.76098,-1.65258
1535249856.520787335,-0.209045,-0.41815,0.196761,0.112725,-0.358962,0.858482,-0.348494,-1.27398,-0.619295,-1.08653,-0.000191049,-1.26995,1.76092,-1.65276
1535249856.554244056,-0.209045,-0.41815,0.196761,0.112725,-0.358962,0.858482,-0.348494,-1.27398,-0.619295,-1.08653,-0.000191049,-1.26995,1.76092,-1.65276
1535249856.560277952,-0.208956,-0.418291,0.19687,0.112856,-0.358472,0.858585,-0.348701,-1.27408,-0.618874,-1.0868,-0.000191049,-1.26981,1.76066,-1.65237
1535249856.566444118,-0.208887,-0.418305,0.196815,0.112812,-0.35851,0.858531,-0.348811,-1.27424,-0.618981,-1.08685,-0.000136462,-1.26988,1.76068,-1.65235
1535249856.572661821,-0.208906,-0.418276,0.196811,0.11277,-0.358594,0.858537,-0.348722,-1.27419,-0.619033,-1.08681,-0.000191049,-1.26988,1.76068,-1.6525
1535249856.578368553,-0.208965,-0.418196,0.196739,0.11273,-0.358849,0.858473,-0.34863,-1.27408,-0.619321,-1.08651,-0.000191049,-1.26995,1.7607,-1.65261
1535249856.584558085,-0.208938,-0.41821,0.196741,0.112719,-0.358824,0.858482,-0.348637,-1.27414,-0.619295,-1.08658,-0.000191049,-1.26995,1.7607,-1.65263
1535249856.590703533,-0.20894,-0.418195,0.196716,0.112745,-0.358886,0.858451,-0.348642,-1.27414,-0.619426,-1.08642,-0.000109159,-1.26995,1.76065,-1.65258
1535249856.596826307,-0.208975,-0.41819,0.196733,0.112795,-0.358884,0.858462,-0.348601,-1.27408,-0.619373,-1.08637,-0.000191049,-1.26995,1.7607,-1.65255
1535249856.603059159,-0.208938,-0.418215,0.196746,0.112798,-0.358771,0.858517,-0.348581,-1.27414,-0.619348,-1.08653,-0.000163747,-1.2699,1.76066,-1.6525
1535249856.609180614,-0.20899,-0.418187,0.196734,0.112741,-0.358836,0.858498,-0.348578,-1.27403,-0.619295,-1.08653,-2.73022e-05,-1.26997,1.76071,-1.65258
1535249856.614864322,-0.208992,-0.418159,0.196721,0.112701,-0.358923,0.858471,-0.348569,-1.27403,-0.619479,-1.08646,-0.000109159,-1.26992,1.76072,-1.65263
1535249856.620945200,-0.208964,-0.418192,0.196737,0.112735,-0.358864,0.858502,-0.348543,-1.27408,-0.619295,-1.08653,-0.000109159,-1.26997,1.76071,-1.65268
1535249856.627028143,-0.209021,-0.41818,0.196738,0.112765,-0.358818,0.858528,-0.348515,-1.27398,-0.619242,-1.08658,-0.000191049,-1.26999,1.76077,-1.65255
1535249856.633149798,-0.209005,-0.418174,0.196731,0.112665,-0.358836,0.858505,-0.348586,-1.27398,-0.619296,-1.08662,-0.000109159,-1.26997,1.76071,-1.65263
1535249856.639266553,-0.209019,-0.418176,0.196756,0.112661,-0.358844,0.858544,-0.348484,-1.27392,-0.619137,-1.08662,-0.000136462,-1.26999,1.76069,-1.65282
1535249856.645444728,-0.208971,-0.418207,0.196782,0.112769,-0.35882,0.858522,-0.348528,-1.27408,-0.619189,-1.08658,-0.000218335,-1.26992,1.76076,-1.65271
1535249856.657190219,-0.208805,-0.418281,0.19673,0.112755,-0.358783,0.858428,-0.348802,-1.27446,-0.619243,-1.08667,-0.000163747,-1.26999,1.76073,-1.65261
1535249856.663259488,-0.208867,-0.418216,0.196636,0.11263,-0.358874,0.858462,-0.348663,-1.27424,-0.619349,-1.08662,-0.000109159,-1.27014,1.7606,-1.65268
1535249856.669435972,-0.208848,-0.418219,0.196562,0.112599,-0.358882,0.858437,-0.348728,-1.2743,-0.61935,-1.08672,-0.000218335,-1.2703,1.76065,-1.65258
1535249856.681688703,-0.208998,-0.418132,0.196662,0.112552,-0.358899,0.858511,-0.348543,-1.27403,-0.619563,-1.0869,-0.000163747,-1.27,1.76091,-1.65261
1535249856.687251406,-0.209124,-0.418064,0.196692,0.112497,-0.358883,0.858591,-0.348381,-1.27376,-0.619644,-1.08706,-0.000245637,-1.2699,1.76104,-1.65258
1535249856.693963572,-0.208902,-0.418153,0.196677,0.112549,-0.358956,0.858459,-0.348614,-1.2743,-0.619749,-1.08697,-0.000191049,-1.2699,1.76104,-1.65269
1535249856.705919633,-0.209036,-0.418036,0.19658,0.112327,-0.358957,0.858541,-0.348483,-1.27392,-0.620121,-1.08721,-0.000136462,-1.2699,1.761,-1.6525
1535249856.711646226,-0.208944,-0.418033,0.196479,0.112204,-0.35899,0.858519,-0.348543,-1.27408,-0.620387,-1.08735,-0.000136462,-1.26997,1.76094,-1.65247
1535249856.717908849,-0.208982,-0.417985,0.196456,0.112064,-0.358996,0.858549,-0.348507,-1.27398,-0.620574,-1.08755,-0.000218335,-1.26993,1.76098,-1.65247
1535249856.729698297,-0.208955,-0.417954,0.196395,0.111836,-0.359032,0.858541,-0.348563,-1.27398,-0.620762,-1.08781,-0.000136462,-1.26995,1.76096,-1.65258
1535249856.735844441,-0.208863,-0.417972,0.19636,0.111783,-0.359104,0.858474,-0.348671,-1.27419,-0.620895,-1.08783,-0.000109159,-1.26997,1.76098,-1.65266
1535249856.742003615,-0.208929,-0.417937,0.196329,0.111727,-0.359115,0.858519,-0.348567,-1.27403,-0.620843,-1.08793,-0.000191049,-1.27006,1.76101,-1.65269
1535249856.754264312,-0.208817,-0.417991,0.196358,0.111743,-0.359008,0.85852,-0.348669,-1.27424,-0.620923,-1.088,-0.000136462,-1.26993,1.7609,-1.65263
1535249856.760516477,-0.20879,-0.418014,0.196419,0.111725,-0.358901,0.858571,-0.34866,-1.27424,-0.620897,-1.08806,-0.000136462,-1.26978,1.76077,-1.65268
1535249856.766095113,-0.208779,-0.418039,0.196398,0.111794,-0.358858,0.858531,-0.34878,-1.2743,-0.620843,-1.08802,-0.000163747,-1.26985,1.76078,-1.65248
1535249856.778329256,-0.208855,-0.418036,0.196403,0.11174,-0.358706,0.858583,-0.348824,-1.27408,-0.620634,-1.0882,-0.000109159,-1.2699,1.76074,-1.65232
1535249856.784514565,-0.208878,-0.417994,0.19638,0.111709,-0.358878,0.858581,-0.348664,-1.27403,-0.620711,-1.08804,-0.000191049,-1.26994,1.76074,-1.65258
1535249856.790696712,-0.208878,-0.417957,0.196351,0.111652,-0.35902,0.85854,-0.348637,-1.27403,-0.620895,-1.08793,-0.000136462,-1.26994,1.76074,-1.65271
1535249856.796976972,-0.20892,-0.417907,0.196303,0.111606,-0.359104,0.858547,-0.348547,-1.27392,-0.62108,-1.08786,-0.000109159,-1.26997,1.76071,-1.65271
1535249856.808872294,-0.208977,-0.417893,0.196301,0.111674,-0.359085,0.858569,-0.348491,-1.27382,-0.621053,-1.08779,-0.000136462,-1.26999,1.76073,-1.65258
1535249856.814575867,-0.208937,-0.417937,0.196326,0.111752,-0.358971,0.858565,-0.348592,-1.27392,-0.621,-1.08783,-0.000163747,-1.26994,1.76074,-1.65239
1535249856.826535443,-0.208843,-0.417955,0.196287,0.111688,-0.359085,0.85851,-0.348633,-1.27414,-0.621027,-1.08786,-0.000191049,-1.27003,1.76077,-1.65263
1535249856.832785959,-0.208869,-0.417934,0.19629,0.111653,-0.359117,0.858503,-0.348627,-1.27408,-0.62108,-1.08786,-0.000245637,-1.27001,1.76079,-1.65266
1535249856.839087015,-0.20886,-0.417955,0.196295,0.111605,-0.359057,0.858508,-0.348692,-1.27408,-0.620923,-1.088,-0.000136462,-1.27006,1.76079,-1.65269
1535249856.844788810,-0.208935,-0.417925,0.196343,0.111627,-0.359072,0.85853,-0.348616,-1.27392,-0.620922,-1.0879,-0.000109159,-1.26996,1.7608,-1.65271
1535249856.857076679,-0.20877,-0.418018,0.196306,0.111703,-0.358952,0.858519,-0.348742,-1.2743,-0.620844,-1.08806,-0.000109159,-1.27006,1.76079,-1.65258
1535249856.863329020,-0.208747,-0.418028,0.196306,0.111717,-0.358954,0.858521,-0.34873,-1.27435,-0.620844,-1.08806,-0.000191049,-1.27006,1.76079,-1.6526
1535249856.869032326,-0.208709,-0.418043,0.19627,0.111675,-0.35898,0.858481,-0.348815,-1.2744,-0.620791,-1.08802,-0.000163747,-1.27015,1.7607,-1.65266
1535249856.881318367,-0.208792,-0.417973,0.196171,0.111495,-0.359057,0.858524,-0.348689,-1.27414,-0.620818,-1.08809,-0.000218335,-1.27035,1.76061,-1.65276
1535249856.887373064,-0.208824,-0.417999,0.196262,0.111652,-0.35898,0.858525,-0.348714,-1.27414,-0.620685,-1.08802,-0.000109159,-1.27022,1.76072,-1.65263
1535249856.893513253,-0.208806,-0.418019,0.196385,0.111811,-0.359018,0.858505,-0.348675,-1.2743,-0.620737,-1.08792,-2.73022e-05,-1.26997,1.76094,-1.65271
1535249856.905763958,-0.208769,-0.418025,0.196372,0.111822,-0.359003,0.858482,-0.348743,-1.2744,-0.620896,-1.08797,-0.000163747,-1.26993,1.76098,-1.65258
1535249856.911908219,-0.208881,-0.417959,0.196372,0.111775,-0.359079,0.858526,-0.348571,-1.27414,-0.620922,-1.0879,-0.000218335,-1.26993,1.76098,-1.65268
1535249856.917547833,-0.208923,-0.417953,0.196373,0.111807,-0.359019,0.858578,-0.348496,-1.27403,-0.620843,-1.08793,-0.000136462,-1.26995,1.76096,-1.6526
1535249856.929730230,-0.208756,-0.418034,0.196375,0.111808,-0.359008,0.85849,-0.348721,-1.2744,-0.620816,-1.08795,-0.000136462,-1.26995,1.76092,-1.65268
1535249856.935907621,-0.20886,-0.417976,0.196364,0.111796,-0.359031,0.858534,-0.348594,-1.27419,-0.620896,-1.08797,-0.000136462,-1.26995,1.761,-1.6526
1535249856.942077441,-0.208804,-0.417989,0.196332,0.111745,-0.359059,0.858477,-0.348721,-1.2743,-0.620975,-1.08795,-0.000163747,-1.26997,1.76094,-1.65261
1535249856.954362050,-0.208826,-0.417998,0.196321,0.111724,-0.35905,0.858488,-0.348711,-1.27424,-0.620738,-1.08802,-0.000109159,-1.27011,1.76097,-1.65269
1535249856.959930683,-0.208827,-0.417999,0.196349,0.111792,-0.35898,0.858521,-0.34868,-1.27424,-0.62087,-1.08799,-0.000109159,-1.26997,1.76094,-1.65253
1535249856.966099214,-0.208702,-0.418043,0.196341,0.111777,-0.359012,0.858464,-0.348793,-1.27451,-0.620949,-1.08797,-0.000136462,-1.26996,1.76088,-1.65263
1535249856.977726580,-0.208681,-0.418094,0.196395,0.111774,-0.358773,0.858526,-0.348886,-1.27451,-0.620766,-1.08822,-0.000163747,-1.26987,1.7608,-1.65248
1535249856.983883056,-0.208716,-0.418117,0.196424,0.111796,-0.358605,0.858583,-0.348912,-1.2744,-0.620556,-1.08836,-0.000109159,-1.26987,1.76076,-1.65232
1535249856.990067856,-0.208673,-0.418119,0.196423,0.111866,-0.358799,0.858487,-0.348925,-1.27456,-0.620632,-1.08806,-0.000191049,-1.26989,1.76082,-1.6525
1535249857.002374071,-0.208831,-0.417989,0.196358,0.111789,-0.359039,0.858527,-0.348607,-1.27419,-0.620868,-1.08781,-0.000191049,-1.26996,1.7608,-1.65268
1535249857.007962408,-0.208791,-0.417979,0.196329,0.111741,-0.359125,0.858455,-0.348709,-1.2743,-0.621079,-1.08777,-0.000136462,-1.26994,1.76082,-1.65268
1535249857.014066954,-0.208774,-0.417967,0.196287,0.11167,-0.359137,0.858458,-0.348714,-1.2743,-0.621185,-1.08781,-8.18736e-05,-1.26997,1.76075,-1.65268
1535249857.026318695,-0.208745,-0.41802,0.196331,0.111802,-0.359016,0.858471,-0.348763,-1.2744,-0.621027,-1.08786,-0.000163747,-1.26994,1.76082,-1.65253
1535249857.031943909,-0.208783,-0.417974,0.196338,0.111712,-0.3591,0.858477,-0.34869,-1.2743,-0.621159,-1.08784,-0.000136462,-1.26987,1.7608,-1.65268
1535249857.038068340,-0.208755,-0.417999,0.196327,0.111709,-0.359033,0.858491,-0.348726,-1.27435,-0.621081,-1.08795,-0.000136462,-1.26992,1.7608,-1.65263
1535249857.049789655,-0.208873,-0.417956,0.196376,0.111683,-0.359063,0.858502,-0.348675,-1.27408,-0.620974,-1.08786,-0.000191049,-1.26987,1.7608,-1.65271
1535249857.055902767,-0.208703,-0.418023,0.196349,0.111649,-0.359072,0.85847,-0.348757,-1.27446,-0.620949,-1.08802,-0.000191049,-1.26994,1.76082,-1.6529
1535249857.062042323,-0.208778,-0.418006,0.196381,0.111677,-0.359032,0.858483,-0.348758,-1.2743,-0.620896,-1.08797,-0.000136462,-1.26989,1.76082,-1.65279
1535249857.073764682,-0.208534,-0.418133,0.196376,0.111849,-0.358991,0.858406,-0.348934,-1.27488,-0.620869,-1.0879,-0.000109159,-1.26992,1.7608,-1.65276
1535249857.079875491,-0.208629,-0.418066,0.196298,0.11171,-0.359037,0.858417,-0.348902,-1.27462,-0.620948,-1.08793,-0.000163747,-1.27004,1.76073,-1.65271
1535249857.086033557,-0.208548,-0.418073,0.196231,0.111653,-0.35912,0.858362,-0.348972,-1.27478,-0.621107,-1.08788,-0.000218335,-1.27011,1.76067,-1.65276
1535249857.098391984,-0.20867,-0.418049,0.196367,0.111716,-0.359072,0.858448,-0.348789,-1.27456,-0.620896,-1.08797,-0.000163747,-1.26993,1.76086,-1.6529
1535249857.103978823,-0.20872,-0.418061,0.196502,0.111919,-0.359046,0.858467,-0.348704,-1.27456,-0.620815,-1.08786,-0.000109159,-1.26971,1.76105,-1.65287
1535249857.110139905,-0.208757,-0.418027,0.196506,0.11189,-0.359061,0.858483,-0.348659,-1.27451,-0.620975,-1.08795,-0.000109159,-1.26963,1.76116,-1.65282
1535249857.122577254,-0.208666,-0.418064,0.196477,0.111949,-0.359044,0.85842,-0.348813,-1.27472,-0.621133,-1.08786,-0.000109159,-1.26962,1.7611,-1.65263
1535249857.128259148,-0.208644,-0.418076,0.196463,0.11197,-0.359052,0.858411,-0.348821,-1.27478,-0.621106,-1.08784,-0.000136462,-1.26966,1.76109,-1.65263
1535249857.134500381,-0.20864,-0.418077,0.196463,0.111942,-0.359043,0.858437,-0.348773,-1.27478,-0.621054,-1.08793,-0.000163747,-1.26968,1.76111,-1.65271
1535249857.173539977,-0.208682,-0.418034,0.196448,0.111879,-0.359122,0.858424,-0.348744,-1.27467,-0.621186,-1.08786,-0.000163747,-1.26966,1.76109,-1.65276
1535249857.179690738,-0.208367,-0.418222,0.196563,0.111958,-0.358895,0.858381,-0.34906,-1.27531,-0.621002,-1.08797,-0.000191049,-1.26945,1.76087,-1.6529
1535249857.185808411,-0.208276,-0.418292,0.196614,0.111991,-0.358727,0.85837,-0.349247,-1.27547,-0.620949,-1.08802,-0.000163747,-1.26932,1.76071,-1.65277
1535249857.192029868,-0.208317,-0.418312,0.196685,0.112046,-0.35858,0.858435,-0.34922,-1.27537,-0.620765,-1.08809,-8.18736e-05,-1.26923,1.76068,-1.65269
1535249857.198181107,-0.208359,-0.418266,0.196652,0.111989,-0.358635,0.858452,-0.34914,-1.27526,-0.620924,-1.08809,-0.000136462,-1.26923,1.76068,-1.65269
1535249857.203734973,-0.208306,-0.418271,0.196641,0.112035,-0.358807,0.85838,-0.349127,-1.27542,-0.620974,-1.08786,-0.000136462,-1.26928,1.76071,-1.6529
1535249857.209957857,-0.208374,-0.418188,0.196581,0.111902,-0.358969,0.858335,-0.349113,-1.27526,-0.621291,-1.08777,-8.18736e-05,-1.26928,1.76071,-1.65292
1535249857.216235837,-0.208325,-0.418214,0.1966,0.111944,-0.358955,0.858329,-0.34913,-1.27537,-0.62129,-1.08772,-0.000191049,-1.26923,1.76068,-1.65295
1535249857.221902911,-0.208265,-0.41823,0.196577,0.111986,-0.359007,0.858268,-0.349212,-1.27553,-0.621421,-1.08761,-0.000109159,-1.26923,1.76068,-1.6529
1535249857.228002451,-0.208336,-0.4182,0.196564,0.111963,-0.358982,0.858295,-0.349179,-1.27537,-0.621422,-1.08765,-0.000109159,-1.26926,1.7607,-1.65279
1535249857.234164509,-0.208318,-0.418225,0.196613,0.112033,-0.358928,0.858327,-0.349132,-1.27542,-0.621343,-1.08768,-0.000163747,-1.26918,1.76072,-1.65282
1535249857.240293460,-0.208279,-0.41822,0.196542,0.11192,-0.359007,0.85828,-0.349204,-1.27547,-0.621369,-1.0877,-0.000191049,-1.26933,1.76067,-1.65292
1535249857.246459264,-0.208289,-0.418228,0.196571,0.112025,-0.358936,0.858306,-0.349179,-1.27547,-0.621422,-1.08765,-8.18736e-05,-1.26923,1.76068,-1.65274
1535249857.252612705,-0.208284,-0.418229,0.196591,0.111958,-0.358976,0.858285,-0.349212,-1.27547,-0.621343,-1.08768,-0.000136462,-1.26923,1.76068,-1.65292
1535249857.258233911,-0.208216,-0.418269,0.196619,0.111982,-0.359002,0.858248,-0.349268,-1.27563,-0.621236,-1.08763,-0.000109159,-1.26923,1.76068,-1.65308
1535249857.264396090,-0.208158,-0.418313,0.196644,0.112037,-0.358927,0.858228,-0.349377,-1.27579,-0.621211,-1.0877,-0.000109159,-1.26918,1.76072,-1.65298
1535249857.270058494,-0.208212,-0.418284,0.19664,0.111959,-0.358919,0.858276,-0.349291,-1.27563,-0.621159,-1.08779,-0.000136462,-1.26921,1.7607,-1.65306
1535249857.281937940,-0.207861,-0.418447,0.196607,0.112151,-0.35893,0.85812,-0.349602,-1.27649,-0.621237,-1.08767,-0.000163747,-1.26926,1.7607,-1.65303
1535249857.288124376,-0.207653,-0.418555,0.196601,0.112223,-0.35882,0.858057,-0.349846,-1.27697,-0.621264,-1.08779,-0.000136462,-1.26923,1.76068,-1.6529
1535249857.294202443,-0.207645,-0.418522,0.196525,0.112129,-0.358957,0.85801,-0.349851,-1.27697,-0.621396,-1.08772,-0.000109159,-1.26935,1.76065,-1.653
1535249857.306514316,-0.207584,-0.418581,0.19661,0.112315,-0.358899,0.857988,-0.349904,-1.27718,-0.621342,-1.08763,-0.000163747,-1.26921,1.76074,-1.65292
1535249857.312616293,-0.207733,-0.418535,0.196758,0.112431,-0.35891,0.858047,-0.349713,-1.27697,-0.621289,-1.08763,-0.000191049,-1.26895,1.76103,-1.65298
1535249857.318835258,-0.207818,-0.418518,0.196958,0.112599,-0.358902,0.858083,-0.349579,-1.27691,-0.621342,-1.08758,-0.000191049,-1.26854,1.76132,-1.65303
1535249857.330881813,-0.207657,-0.418588,0.197119,0.112866,-0.358956,0.857991,-0.349662,-1.2775,-0.621659,-1.08754,-0.000136462,-1.26811,1.76173,-1.65303
1535249857.337136193,-0.20737,-0.418724,0.197104,0.112925,-0.358905,0.857902,-0.349914,-1.27814,-0.621633,-1.08761,-8.18736e-05,-1.26814,1.76167,-1.65311
1535249857.343308897,-0.207301,-0.418768,0.19712,0.113068,-0.358927,0.857825,-0.350034,-1.27835,-0.621657,-1.0874,-8.18736e-05,-1.26811,1.76169,-1.653
1535249857.348891076,-0.207133,-0.41883,0.197091,0.112996,-0.358931,0.857766,-0.350196,-1.27873,-0.621686,-1.08761,-0.000136462,-1.26816,1.76173,-1.65313
1535249857.361221718,-0.206786,-0.419015,0.19712,0.113143,-0.358841,0.857628,-0.350579,-1.27953,-0.621606,-1.08759,-0.000136462,-1.26812,1.76165,-1.65316
1535249857.367412980,-0.206709,-0.419046,0.197179,0.113148,-0.3589,0.857572,-0.350655,-1.27974,-0.621606,-1.08759,-0.000218335,-1.26801,1.76174,-1.65338
1535249857.373708635,-0.206572,-0.419103,0.197116,0.11312,-0.358968,0.857471,-0.350842,-1.28006,-0.621527,-1.08761,-0.000136462,-1.2682,1.76177,-1.65348
1535249857.385550110,-0.205929,-0.419411,0.197252,0.113283,-0.358792,0.857276,-0.351445,-1.28145,-0.621632,-1.08756,-0.000109159,-1.26781,1.76143,-1.65375
1535249857.391868366,-0.20556,-0.419654,0.197484,0.113491,-0.358254,0.857303,-0.35186,-1.28214,-0.621607,-1.08768,-0.000163747,-1.2672,1.76094,-1.65348
1535249857.397596582,-0.205109,-0.419939,0.197797,0.113629,-0.357615,0.857361,-0.352325,-1.28289,-0.621555,-1.08777,-0.000218335,-1.26638,1.76014,-1.65343
1535249857.409671762,-0.204469,-0.420314,0.198291,0.11381,-0.356837,0.857439,-0.352864,-1.28396,-0.621608,-1.08777,-0.000136462,-1.26508,1.75901,-1.65364
1535249857.415735000,-0.204369,-0.420324,0.198377,0.113814,-0.356902,0.857389,-0.352918,-1.28412,-0.621975,-1.08745,-0.000218335,-1.26472,1.75874,-1.65382
1535249857.421922100,-0.204128,-0.420439,0.198479,0.113762,-0.35678,0.857285,-0.353312,-1.28454,-0.622054,-1.08738,-0.000136462,-1.26442,1.75838,-1.65396
1535249857.459009222,-0.203945,-0.420531,0.198698,0.113758,-0.356686,0.857233,-0.353534,-1.28481,-0.62213,-1.08708,-0.000109159,-1.26387,1.7579,-1.65433
1535249857.464608856,-0.202098,-0.421422,0.199346,0.114285,-0.355808,0.856701,-0.355532,-1.2886,-0.622918,-1.08663,-0.000218335,-1.26187,1.75629,-1.65463
1535249857.470831745,-0.201542,-0.421669,0.199462,0.114424,-0.355787,0.856463,-0.356081,-1.28988,-0.623024,-1.08658,-0.000218335,-1.26157,1.75622,-1.65497
1535249857.476938641,-0.200863,-0.421992,0.199606,0.114756,-0.355721,0.856145,-0.356805,-1.29153,-0.623156,-1.08647,-0.000136462,-1.26122,1.75627,-1.65511
1535249857.483204033,-0.200607,-0.422121,0.199826,0.115043,-0.355703,0.856027,-0.357013,-1.29223,-0.62334,-1.08621,-0.000163747,-1.26069,1.75636,-1.65524
1535249857.488816966,-0.200142,-0.422365,0.200107,0.11548,-0.355555,0.85585,-0.357444,-1.29345,-0.623551,-1.08608,-0.000191049,-1.26001,1.75654,-1.65524
1535249857.495059995,-0.199559,-0.422627,0.200225,0.115902,-0.355488,0.855595,-0.357984,-1.29489,-0.623947,-1.08578,-8.18736e-05,-1.25959,1.75653,-1.6551
1535249857.501253162,-0.199027,-0.422849,0.200291,0.116158,-0.355493,0.855347,-0.358487,-1.29617,-0.624265,-1.08559,-0.000136462,-1.25932,1.75652,-1.65516
1535249857.507449436,-0.198772,-0.422978,0.200376,0.116479,-0.355532,0.855204,-0.358687,-1.29687,-0.624346,-1.08524,-0.000191049,-1.25914,1.75659,-1.65515
1535249857.513167445,-0.198523,-0.42308,0.200425,0.116675,-0.355581,0.855059,-0.358919,-1.29751,-0.624561,-1.08501,-0.000136462,-1.25896,1.75662,-1.65515
1535249857.519429815,-0.198289,-0.423192,0.200642,0.116929,-0.355597,0.854923,-0.359144,-1.2982,-0.624775,-1.08487,-0.000136462,-1.25844,1.75687,-1.65529
1535249857.525577217,-0.19785,-0.423401,0.20095,0.117304,-0.355559,0.854718,-0.359548,-1.29943,-0.625043,-1.08482,-0.000163747,-1.25771,1.75726,-1.65547
