berkeleyopenarms/experiments/icra_plots/freq/09-02/ee.csv
time,x,y,z,qx,qy,qz,qw,j0,j1,j2,j3,j4,j5,j6
1535941982.059871062,-0.156914,-0.520751,0.264547,0.110737,0.242661,0.911051,-0.314385,-1.29729,-1.33725,1.9306,-0.162087,-2.05456,-1.12817,-0.550399
1535941982.065748853,-0.156011,-0.52109,0.264626,0.110749,0.243223,0.910793,-0.314697,-1.29906,-1.33722,1.93057,-0.161981,-2.05452,-1.12719,-0.551357
1535941982.078378180,-0.154601,-0.521555,0.26471,0.110641,0.243669,0.910413,-0.315486,-1.30183,-1.33712,1.93065,-0.161954,-2.05435,-1.12649,-0.552325
1535941982.084192386,-0.153652,-0.521845,0.264902,0.110684,0.243836,0.910061,-0.316357,-1.3037,-1.33686,1.93089,-0.161767,-2.05419,-1.12649,-0.552373
1535941982.090664577,-0.152545,-0.522167,0.265194,0.110769,0.243993,0.909633,-0.317437,-1.30594,-1.33631,1.93141,-0.161767,-2.05419,-1.12657,-0.552255
1535941982.103183919,-0.151082,-0.522584,0.265988,0.111349,0.24429,0.908969,-0.318902,-1.30909,-1.33479,1.93285,-0.161873,-2.05419,-1.12667,-0.552162
1535941982.109172950,-0.150225,-0.522807,0.266021,0.111262,0.244157,0.908737,-0.319697,-1.31085,-1.33464,1.93326,-0.162033,-2.0541,-1.12693,-0.552195
1535941982.115025570,-0.149828,-0.522917,0.26605,0.111333,0.244109,0.908573,-0.320172,-1.3117,-1.33452,1.93353,-0.162165,-2.05403,-1.12689,-0.551976
1535941982.127463036,-0.148243,-0.52334,0.266402,0.111151,0.244311,0.908024,-0.321635,-1.3148,-1.33375,1.93365,-0.162349,-2.05387,-1.12721,-0.551842
1535941982.133371709,-0.14733,-0.523604,0.266716,0.111137,0.244659,0.907677,-0.322355,-1.31656,-1.33315,1.93362,-0.162374,-2.05375,-1.12711,-0.551984
1535941982.139985189,-0.146567,-0.523826,0.266988,0.111004,0.245052,0.907372,-0.322961,-1.31794,-1.33269,1.93347,-0.16227,-2.05389,-1.12708,-0.552007
1535941982.145905587,-0.145713,-0.524064,0.267128,0.110905,0.2452,0.907111,-0.323615,-1.3196,-1.33248,1.93365,-0.162164,-2.05389,-1.12716,-0.552264
1535941982.158463275,-0.144239,-0.524327,0.267119,0.109816,0.244577,0.907268,-0.324016,-1.32243,-1.33224,1.93381,-0.1624,-2.05364,-1.12928,-0.554529
1535941982.164274113,-0.143811,-0.524387,0.267157,0.109392,0.24433,0.907333,-0.324166,-1.32317,-1.3322,1.93384,-0.162188,-2.05364,-1.13036,-0.555194
1535941982.170712622,-0.143013,-0.524592,0.267141,0.109081,0.244366,0.90713,-0.32481,-1.32467,-1.3322,1.93378,-0.162215,-2.05371,-1.13056,-0.555275
1535941982.182627825,-0.141549,-0.525033,0.26719,0.109022,0.244761,0.906544,-0.326166,-1.32749,-1.3322,1.9339,-0.162136,-2.05373,-1.12991,-0.55503
1535941982.188509854,-0.140756,-0.525259,0.267206,0.108908,0.244913,0.906218,-0.326995,-1.32899,-1.33223,1.93392,-0.162031,-2.05382,-1.12979,-0.554695
1535941982.195061988,-0.139875,-0.525522,0.267287,0.108809,0.245235,0.905896,-0.327677,-1.33064,-1.33217,1.93387,-0.161899,-2.05384,-1.12945,-0.554817
1535941982.206835615,-0.138901,-0.525864,0.267547,0.108995,0.245949,0.905542,-0.32806,-1.33251,-1.33199,1.93408,-0.16142,-2.05384,-1.12849,-0.555835
1535941982.213289288,-0.138303,-0.52608,0.267683,0.109022,0.246483,0.90536,-0.328151,-1.33363,-1.33192,1.93414,-0.161154,-2.05398,-1.12776,-0.556688
1535941982.219462728,-0.137532,-0.526348,0.267791,0.109097,0.247035,0.905098,-0.328434,-1.33512,-1.33185,1.9342,-0.161021,-2.054,-1.1268,-0.557435
1535941982.231170236,-0.13603,-0.526855,0.26802,0.109155,0.248035,0.904581,-0.329085,-1.33795,-1.33181,1.93429,-0.160435,-2.0541,-1.12538,-0.558758
1535941982.237331300,-0.135162,-0.527147,0.268171,0.109262,0.248591,0.904284,-0.329446,-1.33961,-1.33177,1.93438,-0.160062,-2.054,-1.12455,-0.559614
1535941982.243450660,-0.134272,-0.527434,0.268349,0.109217,0.249197,0.903918,-0.330007,-1.34121,-1.33171,1.93432,-0.15961,-2.05421,-1.12394,-0.559969
1535941982.249613148,-0.133733,-0.527657,0.268473,0.109436,0.249799,0.903694,-0.330092,-1.34222,-1.33177,1.93438,-0.159157,-2.05414,-1.12291,-0.560786
1535941982.262140202,-0.133015,-0.527922,0.268939,0.109877,0.250436,0.903207,-0.330797,-1.34339,-1.3317,1.93438,-0.157558,-2.05372,-1.12274,-0.560971
1535941982.292938591,-0.133015,-0.527922,0.268939,0.109877,0.250436,0.903207,-0.330797,-1.34339,-1.3317,1.93438,-0.157558,-2.05372,-1.12274,-0.560971
1535941982.299073341,-0.128612,-0.529219,0.270477,0.110921,0.252234,0.90095,-0.335207,-1.35129,-1.3312,1.93493,-0.152784,-2.05225,-1.12287,-0.560944
1535941982.305583000,-0.127725,-0.52947,0.270842,0.111201,0.252593,0.900494,-0.336068,-1.35294,-1.33093,1.93533,-0.151955,-2.05209,-1.12287,-0.56099
1535941982.311358967,-0.12746,-0.529576,0.271162,0.111663,0.252887,0.900238,-0.336379,-1.35348,-1.33069,1.93587,-0.151287,-2.05202,-1.12266,-0.56104
1535941982.317499080,-0.127236,-0.529653,0.271446,0.112049,0.253019,0.900049,-0.336656,-1.35391,-1.33056,1.93638,-0.150485,-2.05184,-1.12284,-0.561193
1535941982.323677438,-0.126984,-0.529748,0.27174,0.112435,0.253281,0.899801,-0.336993,-1.35439,-1.33033,1.93674,-0.14987,-2.05172,-1.12271,-0.561129
1535941982.329854674,-0.126451,-0.529926,0.272074,0.112645,0.253804,0.899455,-0.337454,-1.35529,-1.33015,1.93696,-0.149035,-2.05189,-1.12248,-0.561203
1535941982.336075115,-0.125789,-0.530113,0.272404,0.112727,0.254256,0.899149,-0.337902,-1.35647,-1.32981,1.93697,-0.14849,-2.05186,-1.12236,-0.561522
1535941982.342165662,-0.125085,-0.530336,0.272797,0.112725,0.255081,0.898804,-0.338198,-1.35764,-1.32936,1.93664,-0.147995,-2.05201,-1.12175,-0.562011
1535941982.348327996,-0.124737,-0.530487,0.27313,0.112766,0.255909,0.89858,-0.338153,-1.35812,-1.32911,1.93642,-0.147358,-2.05238,-1.12106,-0.562571
1535941982.354490571,-0.124167,-0.530687,0.27347,0.11264,0.256773,0.898255,-0.338405,-1.35892,-1.32901,1.93634,-0.146356,-2.05316,-1.12069,-0.562897
1535941982.360751139,-0.123526,-0.530892,0.273843,0.112484,0.25756,0.897908,-0.338779,-1.35983,-1.32894,1.93634,-0.145136,-2.05394,-1.12065,-0.56319
1535941982.366875625,-0.122789,-0.531087,0.274068,0.112155,0.258051,0.897612,-0.339299,-1.36095,-1.32904,1.93643,-0.144091,-2.05472,-1.121,-0.563402
1535941982.373089612,-0.122007,-0.531309,0.274457,0.111832,0.258845,0.897244,-0.339773,-1.36207,-1.32894,1.93634,-0.142837,-2.05562,-1.12119,-0.563706
1535941982.379262652,-0.12172,-0.531419,0.27473,0.111596,0.259512,0.897057,-0.339835,-1.36228,-1.32904,1.93637,-0.141642,-2.05662,-1.1213,-0.563991
1535941982.391028905,-0.120912,-0.531757,0.275595,0.111109,0.26166,0.896571,-0.33963,-1.36298,-1.32904,1.93637,-0.138573,-2.05915,-1.12089,-0.565541
1535941982.397270288,-0.120449,-0.531949,0.276096,0.110833,0.262905,0.896219,-0.339688,-1.36335,-1.32904,1.93637,-0.1368,-2.06075,-1.12066,-0.565995
1535941982.403654968,-0.119905,-0.532176,0.276605,0.110668,0.264219,0.895785,-0.339867,-1.36388,-1.32911,1.93642,-0.134896,-2.06227,-1.12024,-0.566367
1535941982.409563576,-0.119206,-0.532445,0.277128,0.110377,0.265702,0.895329,-0.340007,-1.36468,-1.32914,1.93645,-0.133042,-2.06402,-1.11962,-0.566991
1535941982.421780954,-0.117988,-0.53288,0.278232,0.109742,0.268289,0.894366,-0.340716,-1.36586,-1.32914,1.93645,-0.129095,-2.06751,-1.11946,-0.56713
1535941982.428166340,-0.117493,-0.533069,0.278772,0.109457,0.269543,0.893918,-0.340994,-1.36623,-1.32917,1.93648,-0.127103,-2.06925,-1.11941,-0.567177
1535941982.434090853,-0.117018,-0.533243,0.279253,0.109284,0.270607,0.893487,-0.341336,-1.36666,-1.3292,1.93657,-0.125326,-2.07066,-1.11936,-0.567134
1535941982.446379958,-0.11598,-0.533577,0.280019,0.108804,0.272401,0.89274,-0.342016,-1.36783,-1.3292,1.93657,-0.122589,-2.07304,-1.11925,-0.567183
1535941982.452233224,-0.115605,-0.533685,0.280276,0.108582,0.272961,0.892483,-0.34231,-1.36826,-1.3292,1.93657,-0.121652,-2.07391,-1.11938,-0.567111
1535941982.458493869,-0.115302,-0.533779,0.280503,0.108506,0.27343,0.892272,-0.34251,-1.36863,-1.32917,1.93654,-0.120895,-2.07438,-1.11936,-0.567179
1535941982.487073996,-0.115302,-0.533779,0.280503,0.108506,0.27343,0.892272,-0.34251,-1.36863,-1.32917,1.93654,-0.120895,-2.07438,-1.11936,-0.567179
1535941982.493403044,-0.112713,-0.53436,0.280712,0.109311,0.273201,0.891207,-0.345198,-1.37381,-1.32903,1.93655,-0.120298,-2.07127,-1.11913,-0.567076
1535941982.499744716,-0.111731,-0.534548,0.280696,0.109482,0.272897,0.890914,-0.346141,-1.37589,-1.32882,1.93662,-0.120731,-2.0701,-1.11913,-0.567121
1535941982.505949442,-0.110771,-0.534723,0.28082,0.109841,0.272626,0.890593,-0.347066,-1.37802,-1.32828,1.93704,-0.121322,-2.06898,-1.11905,-0.567191
1535941982.511799950,-0.11033,-0.534768,0.281093,0.110487,0.272199,0.890418,-0.347642,-1.37925,-1.32747,1.93785,-0.121861,-2.06786,-1.1193,-0.567225
1535941982.518071100,-0.110273,-0.534743,0.281528,0.111449,0.271879,0.890253,-0.348008,-1.37978,-1.3264,1.93884,-0.122322,-2.06676,-1.11939,-0.567022
1535941982.523921313,-0.110352,-0.534687,0.281785,0.112316,0.271391,0.890269,-0.348072,-1.3801,-1.32556,1.93969,-0.123019,-2.06546,-1.11943,-0.567242
1535941982.530380639,-0.110208,-0.534684,0.281911,0.112969,0.27094,0.890214,-0.348352,-1.3808,-1.32493,1.94035,-0.123788,-2.06432,-1.11935,-0.567268
1535941982.536213744,-0.110016,-0.53469,0.282094,0.113617,0.270541,0.890128,-0.348671,-1.38154,-1.32425,1.94094,-0.124432,-2.06316,-1.11935,-0.567312
1535941982.542814709,-0.109749,-0.534717,0.282228,0.114136,0.270216,0.890027,-0.349011,-1.3824,-1.32362,1.94131,-0.125161,-2.06206,-1.11922,-0.56734
1535941982.548410153,-0.109535,-0.534737,0.282498,0.114388,0.270224,0.889912,-0.349215,-1.38293,-1.32295,1.9414,-0.12547,-2.06155,-1.11927,-0.567382
1535941982.554615685,-0.109401,-0.534749,0.282867,0.114598,0.270431,0.889749,-0.349401,-1.3832,-1.32228,1.94149,-0.125417,-2.06146,-1.11938,-0.567245
1535941982.566867220,-0.108733,-0.534907,0.283433,0.11478,0.271098,0.889308,-0.349946,-1.38432,-1.32166,1.94181,-0.124568,-2.06183,-1.11935,-0.567312
1535941982.573038200,-0.108566,-0.534951,0.283547,0.114819,0.271264,0.889191,-0.350102,-1.38458,-1.32159,1.94187,-0.124294,-2.06193,-1.11932,-0.567291
1535941982.579220353,-0.108112,-0.535054,0.283609,0.114707,0.271456,0.889039,-0.350376,-1.38538,-1.32159,1.94187,-0.124075,-2.06203,-1.11926,-0.567514
1535941982.591334130,-0.107226,-0.535224,0.283764,0.114333,0.271708,0.888737,-0.351069,-1.38688,-1.32155,1.9419,-0.123523,-2.06246,-1.11971,-0.567626
1535941982.597122219,-0.106862,-0.535307,0.28396,0.114238,0.272003,0.888592,-0.351238,-1.38741,-1.32152,1.94193,-0.122842,-2.06268,-1.11991,-0.56799
1535941982.603507950,-0.106716,-0.535333,0.284121,0.114033,0.27219,0.888559,-0.351244,-1.38747,-1.32162,1.9419,-0.121969,-2.06302,-1.1205,-0.568359
1535941982.609874113,-0.106595,-0.535365,0.284352,0.113905,0.272513,0.888488,-0.351215,-1.38747,-1.32165,1.94198,-0.121015,-2.06353,-1.12091,-0.56872
1535941982.621874798,-0.106326,-0.535415,0.284666,0.113596,0.272895,0.888426,-0.351173,-1.38763,-1.32171,1.94204,-0.119625,-2.06418,-1.12176,-0.569463
1535941982.628012732,-0.106248,-0.535432,0.284818,0.113423,0.273102,0.888424,-0.351075,-1.38757,-1.32181,1.94206,-0.118811,-2.06457,-1.12223,-0.569915
1535941982.634136098,-0.106108,-0.53548,0.285011,0.113401,0.27342,0.888308,-0.351128,-1.38763,-1.32194,1.94212,-0.117813,-2.06488,-1.12246,-0.570167
1535941982.646451593,-0.105842,-0.535604,0.285453,0.113517,0.274365,0.887914,-0.351348,-1.38779,-1.3219,1.94226,-0.11635,-2.06583,-1.12207,-0.570054
1535941982.652582473,-0.105771,-0.535648,0.28557,0.11352,0.274719,0.887802,-0.351355,-1.38779,-1.32197,1.94226,-0.115827,-2.06619,-1.12186,-0.570103
1535941982.658747429,-0.105768,-0.535665,0.285706,0.113545,0.274963,0.887745,-0.3513,-1.38768,-1.32197,1.94226,-0.115329,-2.06639,-1.12185,-0.57024
1535941982.671032763,-0.105447,-0.535775,0.285787,0.113619,0.275362,0.887638,-0.351235,-1.38827,-1.322,1.94235,-0.115066,-2.06644,-1.12121,-0.570936
1535941982.677275624,-0.105404,-0.535832,0.285861,0.113824,0.275738,0.887646,-0.350854,-1.38843,-1.32186,1.94241,-0.115196,-2.06632,-1.12028,-0.57175
1535941982.683488228,-0.105426,-0.535872,0.285931,0.114063,0.276047,0.8877,-0.350393,-1.38848,-1.32172,1.94248,-0.115324,-2.06607,-1.11942,-0.572678
1535941982.695334456,-0.10544,-0.535947,0.285865,0.114277,0.276496,0.887894,-0.349477,-1.38864,-1.32172,1.94253,-0.115795,-2.06575,-1.11784,-0.574512
1535941982.701679052,-0.105402,-0.535974,0.285892,0.114335,0.276651,0.887929,-0.349248,-1.38875,-1.32165,1.94248,-0.115872,-2.06559,-1.11746,-0.575059
1535941982.707615719,-0.105454,-0.535947,0.28581,0.114386,0.276405,0.888002,-0.349241,-1.38875,-1.32165,1.94254,-0.116158,-2.0653,-1.11757,-0.575065
1535941982.714188742,-0.105374,-0.535948,0.285925,0.114534,0.276331,0.887958,-0.349361,-1.38896,-1.32141,1.94269,-0.116181,-2.06505,-1.11774,-0.575074
1535941982.726446680,-0.105104,-0.535901,0.286111,0.114529,0.275762,0.888151,-0.349323,-1.38976,-1.32066,1.94357,-0.116836,-2.06475,-1.11883,-0.576023
1535941982.732564316,-0.105075,-0.53586,0.286167,0.114574,0.275431,0.888266,-0.349277,-1.38997,-1.32033,1.94396,-0.117202,-2.06453,-1.11933,-0.576364
1535941982.738738517,-0.104988,-0.535842,0.28624,0.114591,0.275222,0.888331,-0.349271,-1.39024,-1.3201,1.94444,-0.117334,-2.06455,-1.11976,-0.576699
1535941982.751036772,-0.105052,-0.535742,0.286363,0.114632,0.274651,0.888602,-0.349017,-1.39035,-1.31954,1.94493,-0.117855,-2.06405,-1.12078,-0.577488
1535941982.757258788,-0.105006,-0.535737,0.286452,0.114635,0.27466,0.888585,-0.349051,-1.39045,-1.31931,1.94497,-0.117961,-2.06405,-1.12088,-0.577489
1535941982.763537313,-0.104975,-0.535747,0.286674,0.114756,0.274936,0.888479,-0.349065,-1.39051,-1.31886,1.94481,-0.118065,-2.06401,-1.12061,-0.577391
1535941982.769374292,-0.105007,-0.535746,0.286701,0.11473,0.275021,0.888476,-0.349013,-1.3904,-1.31886,1.94469,-0.117961,-2.06405,-1.12058,-0.577415
1535941982.781869976,-0.105035,-0.535799,0.286848,0.115032,0.275489,0.888284,-0.349034,-1.39029,-1.31886,1.94481,-0.117542,-2.06428,-1.11983,-0.577218
1535941982.787818853,-0.105103,-0.5358,0.286815,0.115068,0.275565,0.888296,-0.348931,-1.39019,-1.31889,1.94483,-0.117648,-2.06437,-1.11953,-0.577238
1535941982.793735723,-0.105016,-0.535814,0.28676,0.114977,0.275492,0.888367,-0.34884,-1.39035,-1.31902,1.94483,-0.117568,-2.06426,-1.11967,-0.577687
1535941982.806240661,-0.104844,-0.535858,0.286786,0.114713,0.275718,0.888605,-0.348141,-1.39067,-1.31899,1.94486,-0.117569,-2.06435,-1.11949,-0.579527
1535941982.812841549,-0.104912,-0.535849,0.286812,0.114625,0.275808,0.888741,-0.34775,-1.39051,-1.31902,1.94489,-0.117412,-2.06444,-1.11951,-0.58029
1535941982.818734985,-0.104852,-0.535852,0.28677,0.114496,0.275745,0.888818,-0.347646,-1.39061,-1.31908,1.94489,-0.117412,-2.06444,-1.11967,-0.580667
1535941982.830572500,-0.104941,-0.535873,0.286898,0.114628,0.276128,0.888808,-0.347323,-1.3904,-1.31902,1.94489,-0.11715,-2.06457,-1.11914,-0.581132
1535941982.836992490,-0.104864,-0.535928,0.286938,0.114734,0.27643,0.888773,-0.347138,-1.39056,-1.31902,1.94494,-0.117098,-2.06462,-1.1185,-0.5816
1535941982.842704125,-0.104865,-0.535944,0.286991,0.114804,0.276594,0.888751,-0.34704,-1.39056,-1.31895,1.94495,-0.117072,-2.06464,-1.11821,-0.581766
1535941982.855140869,-0.104818,-0.535954,0.287066,0.114805,0.276665,0.888669,-0.347194,-1.39056,-1.31898,1.94492,-0.116704,-2.06473,-1.1184,-0.581559
1535941982.861550090,-0.104786,-0.535952,0.287067,0.114821,0.276571,0.888667,-0.347268,-1.39061,-1.31902,1.94489,-0.116596,-2.06454,-1.11861,-0.581552
1535941982.867489660,-0.104863,-0.535935,0.287041,0.114871,0.276505,0.888693,-0.347239,-1.39051,-1.31902,1.94494,-0.116701,-2.0645,-1.11859,-0.581486
1535941982.873403931,-0.104852,-0.535928,0.287049,0.11489,0.276427,0.888717,-0.347233,-1.39056,-1.31895,1.94495,-0.116778,-2.06434,-1.11868,-0.581573
1535941982.885934524,-0.104546,-0.536012,0.287112,0.115128,0.276549,0.888565,-0.347445,-1.3912,-1.31889,1.94495,-0.116718,-2.06383,-1.11827,-0.581765
1535941982.891686924,-0.104548,-0.536008,0.287041,0.115211,0.276368,0.888585,-0.34751,-1.39125,-1.31898,1.94497,-0.116767,-2.06351,-1.11834,-0.58174
1535941982.898180084,-0.10455,-0.536005,0.287084,0.115283,0.276351,0.88858,-0.347514,-1.39125,-1.31895,1.945,-0.11666,-2.06337,-1.11842,-0.581805
1535941982.910476338,-0.104568,-0.536022,0.287236,0.115589,0.276459,0.88847,-0.347608,-1.39115,-1.31901,1.945,-0.115942,-2.06298,-1.11847,-0.581804
1535941982.916227691,-0.104511,-0.536043,0.287433,0.115793,0.276631,0.888353,-0.347702,-1.3912,-1.31888,1.94506,-0.115466,-2.06283,-1.11849,-0.581825
1535941982.922691548,-0.104252,-0.536113,0.287623,0.115935,0.276908,0.888149,-0.347954,-1.39163,-1.31875,1.94512,-0.115044,-2.06283,-1.11834,-0.581785
1535941982.934693884,-0.103539,-0.536265,0.287838,0.116023,0.27718,0.887827,-0.348529,-1.39296,-1.31855,1.94546,-0.114675,-2.06287,-1.11823,-0.581923
1535941982.941132325,-0.103569,-0.536263,0.287747,0.116107,0.277039,0.887858,-0.348536,-1.39296,-1.31871,1.9456,-0.114699,-2.06271,-1.11821,-0.581946
1535941982.946880001,-0.103675,-0.536237,0.287621,0.11609,0.276852,0.887929,-0.348509,-1.3928,-1.3189,1.94577,-0.114779,-2.06278,-1.11831,-0.581853
1535941982.958952986,-0.103648,-0.536233,0.287594,0.116158,0.276692,0.887932,-0.348605,-1.39291,-1.31893,1.94596,-0.114804,-2.06266,-1.11847,-0.581804
1535941982.965352636,-0.103593,-0.536224,0.287679,0.115997,0.276764,0.887911,-0.348656,-1.39296,-1.31867,1.94569,-0.114964,-2.06276,-1.11863,-0.581664
1535941982.971167784,-0.10359,-0.536218,0.287825,0.115982,0.276914,0.88786,-0.34867,-1.39291,-1.31842,1.94547,-0.114911,-2.06276,-1.11868,-0.581573
1535941982.983378455,-0.103453,-0.536267,0.288026,0.115914,0.277376,0.887734,-0.348647,-1.39301,-1.31823,1.94513,-0.114571,-2.06296,-1.11842,-0.581715
1535941982.989819370,-0.103478,-0.536266,0.288035,0.115932,0.277409,0.887732,-0.34862,-1.39296,-1.31823,1.94513,-0.114545,-2.06298,-1.11837,-0.581717
1535941982.995638144,-0.103468,-0.536283,0.288038,0.116044,0.277492,0.887657,-0.348707,-1.39301,-1.3182,1.94516,-0.11465,-2.06298,-1.11804,-0.581479
1535941983.002022793,-0.103383,-0.536293,0.287957,0.115982,0.277384,0.887688,-0.348735,-1.39323,-1.31823,1.94519,-0.114887,-2.06292,-1.11804,-0.581569
1535941983.013798032,-0.103325,-0.536253,0.287904,0.115724,0.277014,0.887862,-0.348673,-1.39333,-1.31826,1.94521,-0.114885,-2.06278,-1.11893,-0.582015
1535941983.019972878,-0.103333,-0.53625,0.287889,0.115727,0.276982,0.887894,-0.348615,-1.39333,-1.31826,1.94516,-0.114936,-2.06264,-1.11892,-0.58215
1535941983.026096837,-0.103321,-0.536258,0.287842,0.115743,0.276972,0.887875,-0.348665,-1.39339,-1.3183,1.94518,-0.115068,-2.06267,-1.11877,-0.582019
1535941983.057982923,-0.103321,-0.536258,0.287842,0.115743,0.276972,0.887875,-0.348665,-1.39339,-1.3183,1.94518,-0.115068,-2.06267,-1.11877,-0.582019
1535941983.063880389,-0.103357,-0.536296,0.287906,0.116008,0.277229,0.887753,-0.348684,-1.39328,-1.31845,1.94538,-0.114595,-2.06275,-1.11831,-0.581943
1535941983.069834059,-0.103349,-0.536286,0.287894,0.115945,0.277148,0.887772,-0.348722,-1.39328,-1.31849,1.94541,-0.114542,-2.0628,-1.11854,-0.581914
1535941983.075866979,-0.103412,-0.53627,0.287868,0.115953,0.277086,0.887807,-0.34868,-1.39317,-1.31852,1.94543,-0.114569,-2.06278,-1.11859,-0.581912
1535941983.082462040,-0.103392,-0.536279,0.287847,0.115966,0.277088,0.88781,-0.348666,-1.39323,-1.31855,1.94546,-0.114595,-2.06275,-1.11851,-0.581982
1535941983.088311142,-0.103327,-0.536288,0.287847,0.115971,0.277062,0.887815,-0.348673,-1.39339,-1.31848,1.94546,-0.114725,-2.06264,-1.11848,-0.582095
1535941983.094164017,-0.103325,-0.536279,0.28778,0.11596,0.276929,0.887836,-0.348727,-1.39344,-1.31849,1.94541,-0.11496,-2.06248,-1.11851,-0.581982
1535941983.100388117,-0.103457,-0.536256,0.287759,0.116001,0.276918,0.887888,-0.348589,-1.39323,-1.31845,1.94538,-0.115118,-2.06244,-1.11838,-0.582008
1535941983.106966647,-0.103621,-0.536218,0.287658,0.115954,0.276779,0.888009,-0.348409,-1.39296,-1.31855,1.94546,-0.115303,-2.06251,-1.11843,-0.582097
1535941983.112977730,-0.103555,-0.53622,0.287643,0.115863,0.276731,0.888006,-0.348484,-1.39307,-1.31855,1.94541,-0.11533,-2.06253,-1.11859,-0.582047
1535941983.118905230,-0.103619,-0.536207,0.287663,0.115965,0.276683,0.888,-0.348505,-1.39296,-1.31855,1.94546,-0.115249,-2.06242,-1.11864,-0.581956
1535941983.124934318,-0.103631,-0.536219,0.287791,0.115972,0.276943,0.887954,-0.348411,-1.39285,-1.31845,1.94538,-0.114988,-2.0626,-1.11851,-0.582072
1535941983.131473848,-0.103416,-0.536263,0.287815,0.116014,0.276949,0.887865,-0.348619,-1.39328,-1.31845,1.94555,-0.114909,-2.06257,-1.11851,-0.582072
1535941983.137439832,-0.103374,-0.536279,0.287878,0.116113,0.277044,0.887816,-0.348636,-1.39339,-1.31835,1.94569,-0.114909,-2.06262,-1.11833,-0.5821
1535941983.150041923,-0.103259,-0.536302,0.28783,0.11614,0.276956,0.887808,-0.348717,-1.39366,-1.31844,1.94595,-0.114909,-2.06262,-1.11835,-0.582212
1535941983.155991405,-0.103368,-0.536275,0.287742,0.116193,0.276758,0.88785,-0.348751,-1.39349,-1.31859,1.9462,-0.11491,-2.06267,-1.11851,-0.582027
1535941983.162045123,-0.103377,-0.536283,0.287713,0.116199,0.276773,0.887841,-0.34876,-1.39344,-1.31876,1.94622,-0.114699,-2.06271,-1.11851,-0.582027
1535941983.174411617,-0.103488,-0.53626,0.28774,0.116192,0.27683,0.887862,-0.348663,-1.39323,-1.31863,1.94606,-0.114858,-2.06271,-1.11841,-0.58194
1535941983.180226470,-0.103391,-0.53626,0.287949,0.116123,0.276994,0.887783,-0.348757,-1.39333,-1.31825,1.94578,-0.114805,-2.06271,-1.11862,-0.581844
1535941983.186855639,-0.10337,-0.536268,0.288146,0.116087,0.277299,0.887741,-0.348633,-1.39328,-1.31796,1.94553,-0.114648,-2.0628,-1.11854,-0.582049
1535941983.198538708,-0.103409,-0.536272,0.288169,0.11609,0.277433,0.887699,-0.348633,-1.39317,-1.31793,1.94539,-0.114649,-2.06289,-1.11834,-0.581875
1535941983.205087203,-0.103487,-0.536273,0.288212,0.11623,0.277534,0.887645,-0.348643,-1.39301,-1.31793,1.94539,-0.114517,-2.06287,-1.11814,-0.581701
1535941983.211146115,-0.103593,-0.536239,0.288122,0.116268,0.277305,0.887734,-0.348585,-1.39291,-1.31796,1.94553,-0.114779,-2.06273,-1.11824,-0.581698
1535941983.242733868,-0.103593,-0.536239,0.288122,0.116268,0.277305,0.887734,-0.348585,-1.39291,-1.31796,1.94553,-0.114779,-2.06273,-1.11824,-0.581698
1535941983.248614107,-0.103394,-0.536285,0.288113,0.116202,0.277366,0.887741,-0.348542,-1.39328,-1.31803,1.94559,-0.114699,-2.06271,-1.11817,-0.582194
1535941983.254687720,-0.103377,-0.536297,0.288137,0.116194,0.277469,0.887712,-0.348536,-1.39328,-1.31803,1.94553,-0.114621,-2.06278,-1.11807,-0.582197
1535941983.261244357,-0.103336,-0.536298,0.288124,0.116148,0.277413,0.887709,-0.348604,-1.39333,-1.31809,1.94553,-0.114516,-2.06278,-1.11825,-0.58217
1535941983.267205802,-0.103348,-0.536289,0.288204,0.116177,0.277431,0.88768,-0.348652,-1.39328,-1.318,1.9455,-0.114384,-2.06275,-1.11841,-0.582075
1535941983.273181622,-0.103319,-0.536289,0.288196,0.116117,0.277413,0.88769,-0.348662,-1.39333,-1.31799,1.94556,-0.114412,-2.06287,-1.11848,-0.582095
1535941983.279582355,-0.103412,-0.536269,0.288152,0.116175,0.277318,0.887686,-0.348728,-1.39317,-1.31806,1.94556,-0.114437,-2.0628,-1.11852,-0.581802
1535941983.285429098,-0.103322,-0.536278,0.288195,0.116147,0.277306,0.887672,-0.348783,-1.39333,-1.31799,1.94556,-0.114384,-2.06275,-1.11867,-0.581887
1535941983.291288350,-0.103314,-0.536285,0.288142,0.116139,0.277298,0.887696,-0.348731,-1.39339,-1.31803,1.94559,-0.114542,-2.06275,-1.11851,-0.581982
1535941983.297847645,-0.103356,-0.53628,0.288103,0.116137,0.277289,0.887725,-0.348664,-1.39333,-1.31803,1.94553,-0.114699,-2.06271,-1.11838,-0.582008
1535941983.303609355,-0.103308,-0.53629,0.288088,0.116263,0.277213,0.887698,-0.348751,-1.39349,-1.31799,1.94556,-0.114827,-2.06241,-1.11828,-0.581966
1535941983.310067048,-0.103366,-0.536268,0.287968,0.116182,0.27703,0.887813,-0.348633,-1.39344,-1.31809,1.94558,-0.115064,-2.06235,-1.11838,-0.582143
1535941983.315940795,-0.103388,-0.53627,0.287928,0.116254,0.277,0.887805,-0.348653,-1.39344,-1.31812,1.94561,-0.115168,-2.06225,-1.11823,-0.582058
1535941983.321877540,-0.103379,-0.536257,0.287903,0.116135,0.276913,0.887861,-0.348618,-1.39344,-1.31813,1.9455,-0.11522,-2.06221,-1.11846,-0.582163
1535941983.334499938,-0.103426,-0.536251,0.287899,0.116125,0.27693,0.887869,-0.348588,-1.39333,-1.31819,1.94561,-0.115117,-2.06239,-1.11848,-0.58214
1535941983.340783606,-0.103407,-0.536251,0.287971,0.116193,0.276963,0.887826,-0.348648,-1.39339,-1.31805,1.94573,-0.115118,-2.06244,-1.11849,-0.58205
1535941983.346692188,-0.103193,-0.536301,0.28811,0.116354,0.277101,0.887687,-0.34884,-1.39382,-1.31789,1.94598,-0.114959,-2.06244,-1.11836,-0.582077
1535941983.358708967,-0.102781,-0.536391,0.288042,0.116338,0.277083,0.88759,-0.349104,-1.39467,-1.31801,1.94638,-0.115013,-2.06253,-1.11819,-0.582306
1535941983.364804429,-0.102967,-0.536356,0.287929,0.116386,0.276911,0.887659,-0.349051,-1.39435,-1.31823,1.94657,-0.114988,-2.0626,-1.11828,-0.582146
1535941983.371285342,-0.103043,-0.536331,0.287837,0.116391,0.276695,0.887719,-0.349068,-1.39424,-1.31838,1.94677,-0.114988,-2.0626,-1.11851,-0.582072
1535941983.383560843,-0.103032,-0.536336,0.287925,0.116371,0.276837,0.887675,-0.349073,-1.39419,-1.31832,1.94666,-0.114778,-2.06269,-1.11854,-0.582049
1535941983.389482032,-0.103136,-0.536303,0.288026,0.116396,0.276869,0.887675,-0.34904,-1.39398,-1.31807,1.94638,-0.114881,-2.0625,-1.11862,-0.581889
1535941983.395912018,-0.103028,-0.536319,0.288266,0.116287,0.277225,0.88759,-0.349009,-1.39408,-1.31762,1.94605,-0.114884,-2.06269,-1.11854,-0.581959
1535941983.401830458,-0.103041,-0.536328,0.288438,0.116372,0.277469,0.887514,-0.34898,-1.39398,-1.31747,1.94591,-0.114567,-2.06269,-1.11846,-0.581984
1535941983.414118251,-0.10316,-0.536325,0.288382,0.116461,0.277523,0.887504,-0.348934,-1.39376,-1.31759,1.94596,-0.114569,-2.06278,-1.11816,-0.581813
1535941983.420526521,-0.103338,-0.536288,0.288324,0.116564,0.277383,0.887573,-0.348836,-1.39349,-1.31762,1.94605,-0.114725,-2.06264,-1.11814,-0.581746
1535941983.426459077,-0.103244,-0.536291,0.288317,0.116401,0.277337,0.887627,-0.348788,-1.39366,-1.31759,1.94596,-0.114778,-2.06264,-1.11836,-0.582032
1535941983.438915913,-0.103156,-0.536281,0.288264,0.116234,0.277126,0.887695,-0.34884,-1.39382,-1.31766,1.94602,-0.114778,-2.06264,-1.11884,-0.582174
1535941983.444592907,-0.103169,-0.536295,0.288305,0.116338,0.277259,0.887662,-0.348783,-1.39382,-1.31759,1.94608,-0.114804,-2.06266,-1.11853,-0.582229
1535941983.451148104,-0.1033,-0.536278,0.288319,0.116413,0.277298,0.887663,-0.348723,-1.39355,-1.31762,1.94605,-0.114699,-2.06266,-1.11846,-0.582119
1535941983.463714342,-0.103276,-0.536313,0.288325,0.11653,0.277489,0.887615,-0.348654,-1.3936,-1.31769,1.9461,-0.11462,-2.06269,-1.11799,-0.582267
1535941983.469563509,-0.103291,-0.536315,0.288361,0.116535,0.277554,0.887628,-0.348567,-1.39355,-1.31769,1.9461,-0.114488,-2.06271,-1.11798,-0.582447
1535941983.475921674,-0.103259,-0.536324,0.288405,0.116549,0.277623,0.887606,-0.348566,-1.3936,-1.31762,1.9461,-0.114462,-2.06273,-1.11793,-0.582494
1535941983.481859442,-0.103184,-0.53634,0.288329,0.116527,0.277547,0.887595,-0.348661,-1.39376,-1.31775,1.94616,-0.114488,-2.06271,-1.11793,-0.582449
1535941983.493787242,-0.103233,-0.536304,0.288335,0.116497,0.277356,0.887598,-0.348814,-1.39366,-1.31772,1.94613,-0.114461,-2.06264,-1.11838,-0.582098
1535941983.500383188,-0.103231,-0.5363,0.288339,0.116506,0.277321,0.887583,-0.348878,-1.39366,-1.31772,1.94613,-0.114435,-2.06261,-1.11846,-0.581984
1535941983.506351310,-0.103179,-0.53631,0.288326,0.116483,0.277319,0.887576,-0.348905,-1.39376,-1.31772,1.94613,-0.114487,-2.06262,-1.11844,-0.582007
1535941983.518212165,-0.103156,-0.536329,0.288272,0.116589,0.2773,0.887587,-0.348857,-1.39387,-1.31778,1.94613,-0.114589,-2.06234,-1.11817,-0.582194
1535941983.524686348,-0.103275,-0.536293,0.288231,0.11657,0.277194,0.887677,-0.348719,-1.39371,-1.31769,1.9461,-0.114931,-2.06228,-1.11817,-0.582239
1535941983.530898851,-0.103277,-0.536292,0.288234,0.116501,0.277212,0.887683,-0.348711,-1.39366,-1.31775,1.9461,-0.114775,-2.06241,-1.1183,-0.582258
1535941983.542545742,-0.103299,-0.536284,0.288211,0.116474,0.277166,0.887689,-0.348741,-1.3936,-1.31782,1.94616,-0.114723,-2.0625,-1.1184,-0.582165
1535941983.548736037,-0.103288,-0.536286,0.288292,0.116549,0.277246,0.887662,-0.348722,-1.39366,-1.31762,1.94622,-0.114829,-2.0625,-1.11827,-0.582191
1535941983.554887322,-0.103099,-0.536326,0.288424,0.116698,0.277332,0.887521,-0.348963,-1.39403,-1.31746,1.94641,-0.11467,-2.06246,-1.11825,-0.58208
1535941983.567146617,-0.102614,-0.536429,0.288589,0.116876,0.27752,0.887375,-0.349126,-1.3951,-1.3171,1.94701,-0.114855,-2.06248,-1.11784,-0.582653
1535941983.573756301,-0.102771,-0.536426,0.288571,0.117148,0.277567,0.887432,-0.348851,-1.39494,-1.31712,1.94754,-0.114961,-2.06257,-1.11734,-0.583005
1535941983.579631223,-0.102811,-0.536456,0.288536,0.117344,0.277703,0.887478,-0.348559,-1.39494,-1.31725,1.94776,-0.114933,-2.06246,-1.11675,-0.583607
1535941983.585868194,-0.103003,-0.536452,0.288513,0.11751,0.277843,0.887543,-0.348228,-1.39462,-1.31734,1.9479,-0.114907,-2.06248,-1.11625,-0.583959
1535941983.597857770,-0.102885,-0.536528,0.288821,0.117663,0.278583,0.887439,-0.34785,-1.39478,-1.31693,1.94765,-0.114723,-2.0625,-1.11529,-0.584796
1535941983.604413300,-0.102927,-0.53652,0.288993,0.117577,0.278872,0.887449,-0.34762,-1.39462,-1.31661,1.94732,-0.114724,-2.06259,-1.11517,-0.585069
1535941983.610345554,-0.10284,-0.536541,0.289158,0.117603,0.279103,0.887352,-0.347674,-1.39472,-1.31639,1.94724,-0.114567,-2.06269,-1.1151,-0.585049
1535941983.622929541,-0.103153,-0.536495,0.289224,0.117844,0.279154,0.887323,-0.347625,-1.39408,-1.31645,1.94724,-0.114197,-2.06264,-1.11506,-0.584646
1535941983.628857818,-0.103064,-0.536521,0.289191,0.117875,0.27918,0.887279,-0.347706,-1.3943,-1.31645,1.94729,-0.114356,-2.06264,-1.11483,-0.584585
1535941983.634821367,-0.103056,-0.536501,0.289167,0.117685,0.279086,0.887378,-0.347593,-1.3943,-1.31642,1.94721,-0.114462,-2.06268,-1.11513,-0.584846
1535941983.647379976,-0.102873,-0.536525,0.289148,0.117505,0.279052,0.887414,-0.347589,-1.39462,-1.31645,1.94718,-0.114436,-2.06271,-1.11535,-0.585221
1535941983.678993778,-0.102873,-0.536525,0.289148,0.117505,0.279052,0.887414,-0.347589,-1.39462,-1.31645,1.94718,-0.114436,-2.06271,-1.11535,-0.585221
1535941983.684549035,-0.103019,-0.536527,0.289298,0.117772,0.279327,0.887298,-0.347575,-1.3943,-1.31638,1.94729,-0.114068,-2.06284,-1.115,-0.584962
1535941983.690785666,-0.102969,-0.536547,0.289316,0.117757,0.279421,0.887278,-0.347556,-1.39435,-1.31645,1.94729,-0.113885,-2.06291,-1.11494,-0.585099
1535941983.697059025,-0.102973,-0.536544,0.289364,0.117809,0.279424,0.887272,-0.347552,-1.39435,-1.31638,1.94735,-0.113831,-2.06286,-1.11499,-0.585142
1535941983.703396208,-0.102945,-0.536546,0.289319,0.117781,0.27936,0.887268,-0.347623,-1.3944,-1.31645,1.94729,-0.113857,-2.06279,-1.11504,-0.58505
1535941983.709625038,-0.102972,-0.53654,0.289362,0.117863,0.279354,0.887249,-0.347647,-1.39435,-1.31642,1.94732,-0.11375,-2.0627,-1.1151,-0.585004
1535941983.715151418,-0.102909,-0.536554,0.289305,0.117875,0.279299,0.887237,-0.347718,-1.39451,-1.31645,1.94729,-0.113906,-2.06256,-1.115,-0.584962
1535941983.721295122,-0.102957,-0.536536,0.289286,0.117903,0.279183,0.887292,-0.347662,-1.39446,-1.31645,1.94735,-0.113957,-2.06243,-1.11512,-0.585071
1535941983.727481144,-0.103055,-0.536522,0.289265,0.1181,0.279099,0.887288,-0.347674,-1.39435,-1.31642,1.94732,-0.114111,-2.06206,-1.11495,-0.584919
1535941983.733603673,-0.103039,-0.536518,0.289246,0.118093,0.279015,0.887324,-0.347651,-1.3944,-1.31642,1.94732,-0.114162,-2.06192,-1.11504,-0.58505
1535941983.739847371,-0.103062,-0.536503,0.289169,0.118084,0.278841,0.887385,-0.347636,-1.3944,-1.31648,1.94726,-0.11429,-2.06167,-1.11517,-0.585114
1535941983.746057401,-0.103122,-0.536499,0.289207,0.118209,0.278862,0.887379,-0.347594,-1.3943,-1.31648,1.94732,-0.114157,-2.06155,-1.11512,-0.585161
1535941983.752219032,-0.103263,-0.536467,0.289263,0.11829,0.278857,0.887396,-0.347526,-1.39403,-1.31638,1.94729,-0.114129,-2.06149,-1.11517,-0.585069
1535941983.758089955,-0.10317,-0.536497,0.289391,0.118526,0.278963,0.887286,-0.347642,-1.39424,-1.31625,1.94758,-0.113944,-2.06141,-1.11502,-0.585074
1535941983.764563513,-0.102853,-0.536547,0.289622,0.118708,0.279043,0.887119,-0.34794,-1.39488,-1.31589,1.94789,-0.113784,-2.06128,-1.11514,-0.585137
1535941983.770379671,-0.102691,-0.536585,0.289748,0.118848,0.279163,0.887004,-0.34809,-1.3952,-1.31576,1.94817,-0.1136,-2.06134,-1.11507,-0.585162
1535941983.782534009,-0.102276,-0.536685,0.289588,0.118925,0.279035,0.886862,-0.348527,-1.39606,-1.31614,1.94856,-0.113467,-2.06123,-1.11491,-0.585122
1535941983.788471814,-0.102456,-0.536658,0.289449,0.118987,0.278849,0.886955,-0.348419,-1.39574,-1.31649,1.94881,-0.113282,-2.06125,-1.11501,-0.585164
1535941983.794948644,-0.102513,-0.536658,0.28948,0.119168,0.278852,0.886921,-0.348442,-1.39563,-1.31655,1.94886,-0.113042,-2.06104,-1.11496,-0.58512
1535941983.807367725,-0.102414,-0.536666,0.289659,0.119117,0.279017,0.886864,-0.348473,-1.39574,-1.31627,1.94856,-0.112909,-2.06092,-1.11512,-0.585206
1535941983.813267125,-0.102416,-0.536671,0.289898,0.119139,0.279366,0.886771,-0.348422,-1.39563,-1.31592,1.94825,-0.112725,-2.06099,-1.11499,-0.585187
1535941983.819124820,-0.102419,-0.536676,0.290073,0.119104,0.279671,0.886696,-0.348381,-1.39552,-1.31567,1.94797,-0.112596,-2.06115,-1.11486,-0.585123
1535941983.831854050,-0.10237,-0.536697,0.290186,0.119172,0.279845,0.886587,-0.348495,-1.39552,-1.31567,1.94792,-0.112174,-2.06119,-1.11487,-0.584988
1535941983.837652195,-0.102486,-0.536685,0.29022,0.119336,0.279877,0.886545,-0.348519,-1.39531,-1.31567,1.94797,-0.112068,-2.06114,-1.11475,-0.584745
1535941983.843760327,-0.102539,-0.536661,0.290158,0.119273,0.279735,0.886647,-0.348395,-1.39526,-1.31567,1.94797,-0.112278,-2.06105,-1.11487,-0.584943
1535941983.849913545,-0.102392,-0.536674,0.290131,0.119169,0.279608,0.886668,-0.348479,-1.39552,-1.31573,1.94797,-0.112197,-2.06094,-1.1152,-0.585136
1535941983.862195610,-0.102179,-0.53671,0.290193,0.119092,0.279683,0.886599,-0.348621,-1.3959,-1.31564,1.94795,-0.112145,-2.06098,-1.11527,-0.585201
1535941983.868308379,-0.10229,-0.536708,0.290147,0.119201,0.279734,0.886615,-0.348502,-1.39574,-1.3157,1.94806,-0.112251,-2.06103,-1.11491,-0.585212
1535941983.874432365,-0.102161,-0.536748,0.29017,0.119186,0.279894,0.886535,-0.348582,-1.39595,-1.3157,1.948,-0.1122,-2.06112,-1.11468,-0.585196
1535941983.887280918,-0.102202,-0.536745,0.290184,0.119225,0.279916,0.886533,-0.348558,-1.39584,-1.31576,1.948,-0.112015,-2.0611,-1.1147,-0.585218
1535941983.893458585,-0.102066,-0.536762,0.290312,0.119235,0.279987,0.886444,-0.348722,-1.39606,-1.3156,1.94797,-0.11183,-2.06107,-1.11489,-0.585145
1535941983.899233116,-0.102125,-0.536757,0.290295,0.119278,0.279984,0.886463,-0.348661,-1.39595,-1.31567,1.94803,-0.111777,-2.06107,-1.11483,-0.585192
1535941983.911836200,-0.101966,-0.536789,0.290321,0.119224,0.280048,0.88641,-0.348765,-1.39622,-1.31567,1.94797,-0.111672,-2.06107,-1.11486,-0.585258
1535941983.917774499,-0.102075,-0.536773,0.290309,0.119269,0.280045,0.886441,-0.348673,-1.396,-1.31573,1.94797,-0.111592,-2.06105,-1.11483,-0.585282
1535941983.924088251,-0.101816,-0.536816,0.290339,0.11922,0.280053,0.886345,-0.348927,-1.39648,-1.31567,1.94792,-0.111591,-2.06095,-1.11491,-0.585212
1535941983.930257367,-0.102001,-0.53678,0.290258,0.119329,0.279892,0.886432,-0.348797,-1.39622,-1.31573,1.94803,-0.111773,-2.06079,-1.11486,-0.585213
1535941983.942079726,-0.102024,-0.536759,0.290123,0.119391,0.279582,0.886489,-0.34888,-1.39632,-1.3157,1.948,-0.112321,-2.06036,-1.11486,-0.585033
1535941983.948432148,-0.102138,-0.536715,0.290075,0.119274,0.279419,0.88659,-0.348793,-1.39611,-1.3157,1.94795,-0.112454,-2.06039,-1.11517,-0.585024
1535941983.954325340,-0.102061,-0.53673,0.290061,0.11924,0.279422,0.886604,-0.348767,-1.39627,-1.3157,1.94795,-0.112506,-2.06034,-1.11514,-0.585227
1535941983.966788192,-0.102007,-0.536754,0.290184,0.119414,0.279584,0.886495,-0.348854,-1.39638,-1.31557,1.94812,-0.112348,-2.06039,-1.11494,-0.585144
1535941983.972967111,-0.10186,-0.536774,0.290282,0.119471,0.279611,0.886426,-0.34899,-1.3967,-1.31537,1.9484,-0.112376,-2.0605,-1.11499,-0.585142
1535941983.978954161,-0.101352,-0.536872,0.290427,0.119566,0.279742,0.886218,-0.34938,-1.39771,-1.31514,1.94876,-0.112323,-2.0605,-1.11488,-0.58528
1535941983.991325225,-0.10116,-0.536896,0.290479,0.119808,0.279573,0.886123,-0.349673,-1.39824,-1.31497,1.94952,-0.112482,-2.06055,-1.11494,-0.585144
1535941983.997466884,-0.101263,-0.536877,0.290332,0.119918,0.279292,0.886209,-0.349642,-1.39814,-1.31525,1.94988,-0.112454,-2.06043,-1.11506,-0.585207
1535941984.003983351,-0.101347,-0.53687,0.290254,0.12001,0.279211,0.886241,-0.349595,-1.39803,-1.31541,1.95013,-0.112455,-2.06048,-1.11496,-0.58521
1535941984.009933077,-0.10138,-0.536869,0.290313,0.120035,0.279309,0.886222,-0.349554,-1.39792,-1.31538,1.95005,-0.112297,-2.06048,-1.11493,-0.585233
1535941984.022430605,-0.101299,-0.536869,0.290594,0.119941,0.279642,0.886124,-0.349569,-1.39798,-1.31481,1.94955,-0.112376,-2.0605,-1.11494,-0.585144
1535941984.028392895,-0.10117,-0.536888,0.290832,0.119866,0.279932,0.886026,-0.349612,-1.39808,-1.31452,1.9493,-0.112035,-2.06061,-1.11509,-0.585229
1535941984.034576779,-0.101223,-0.536882,0.290936,0.119829,0.280135,0.885992,-0.349548,-1.39792,-1.31436,1.94922,-0.111986,-2.06089,-1.11499,-0.585142
1535941984.046504659,-0.101379,-0.53687,0.290947,0.120013,0.280186,0.885916,-0.349636,-1.3976,-1.31446,1.94919,-0.111774,-2.06084,-1.11483,-0.584675
1535941984.078164721,-0.101379,-0.53687,0.290947,0.120013,0.280186,0.885916,-0.349636,-1.3976,-1.31446,1.94919,-0.111774,-2.06084,-1.11483,-0.584675
1535941984.084079437,-0.101127,-0.536904,0.290823,0.119771,0.280048,0.886023,-0.349559,-1.39814,-1.31453,1.94919,-0.112089,-2.06075,-1.11493,-0.585323
1535941984.090387312,-0.101202,-0.53691,0.290858,0.119971,0.280141,0.886004,-0.349465,-1.39803,-1.31452,1.9493,-0.112009,-2.06064,-1.11462,-0.585423
1535941984.095955711,-0.101129,-0.536925,0.290936,0.119998,0.280227,0.885933,-0.349566,-1.39814,-1.31443,1.94922,-0.111903,-2.06059,-1.11462,-0.585333
1535941984.102269969,-0.101096,-0.536916,0.290926,0.119921,0.280129,0.885955,-0.349614,-1.39819,-1.31443,1.94922,-0.111903,-2.06059,-1.11488,-0.585325
1535941984.108197512,-0.101192,-0.536909,0.29091,0.119962,0.280163,0.885953,-0.349578,-1.39798,-1.31456,1.94928,-0.111719,-2.0607,-1.11483,-0.585237
1535941984.114199680,-0.101008,-0.536941,0.290993,0.119913,0.28027,0.885875,-0.349707,-1.3983,-1.31443,1.94928,-0.111668,-2.06079,-1.11486,-0.585258
1535941984.120699430,-0.101115,-0.536922,0.290965,0.119927,0.280246,0.885886,-0.349693,-1.39808,-1.31449,1.94928,-0.111643,-2.06086,-1.11486,-0.585078
1535941984.126976852,-0.101046,-0.536937,0.291004,0.119893,0.280321,0.885877,-0.349668,-1.39819,-1.31446,1.94925,-0.111564,-2.06088,-1.11486,-0.585258
1535941984.132529678,-0.101064,-0.536937,0.291001,0.120027,0.280259,0.885871,-0.349688,-1.39819,-1.31449,1.94928,-0.111507,-2.06061,-1.11483,-0.585282
1535941984.138970447,-0.101251,-0.536902,0.290986,0.120072,0.280235,0.885943,-0.349507,-1.39787,-1.31446,1.9493,-0.111639,-2.06063,-1.11475,-0.585306
1535941984.144923354,-0.101192,-0.536906,0.290867,0.120005,0.280067,0.885968,-0.349602,-1.39803,-1.31456,1.94928,-0.111875,-2.06052,-1.11481,-0.585215
1535941984.151314451,-0.101091,-0.53691,0.290883,0.119997,0.279979,0.885933,-0.349764,-1.39824,-1.31446,1.94925,-0.111979,-2.06038,-1.11497,-0.585075
1535941984.157714781,-0.10126,-0.536874,0.290815,0.120034,0.279849,0.886029,-0.349613,-1.39798,-1.31449,1.94922,-0.112161,-2.06022,-1.11496,-0.58512
1535941984.163572386,-0.101188,-0.536882,0.290782,0.119999,0.279779,0.886038,-0.349657,-1.39814,-1.31452,1.9493,-0.112214,-2.06022,-1.11504,-0.585185
1535941984.169990876,-0.101321,-0.536856,0.290817,0.11999,0.279829,0.886084,-0.349505,-1.39787,-1.31446,1.9493,-0.112216,-2.06036,-1.11504,-0.58523
1535941984.181869681,-0.101083,-0.536901,0.291128,0.120334,0.280041,0.885861,-0.349781,-1.3984,-1.31394,1.94981,-0.112137,-2.06038,-1.11486,-0.585123
1535941984.187909665,-0.10084,-0.536945,0.291302,0.120513,0.280144,0.88574,-0.349944,-1.39894,-1.31364,1.95024,-0.112111,-2.06041,-1.11478,-0.585283
1535941984.194496896,-0.100611,-0.536989,0.291421,0.120633,0.280226,0.885635,-0.350102,-1.39942,-1.31347,1.95061,-0.112033,-2.06048,-1.11472,-0.58542
1535941984.206732724,-0.100745,-0.536958,0.291229,0.120743,0.279844,0.885697,-0.350213,-1.39926,-1.31381,1.95103,-0.112032,-2.06043,-1.11496,-0.58512
1535941984.212541741,-0.100879,-0.53694,0.291094,0.12079,0.279694,0.885767,-0.350141,-1.39904,-1.31407,1.95119,-0.112032,-2.06043,-1.11494,-0.585099
1535941984.218298091,-0.100873,-0.536951,0.291062,0.120767,0.279739,0.885774,-0.350095,-1.39904,-1.31416,1.95122,-0.111981,-2.06052,-1.11483,-0.585192
1535941984.230798106,-0.100874,-0.536926,0.291344,0.120678,0.279977,0.885742,-0.350016,-1.39894,-1.31363,1.95075,-0.111953,-2.06045,-1.11506,-0.585252
1535941984.236596514,-0.100755,-0.53696,0.291522,0.120596,0.280361,0.885617,-0.350053,-1.39904,-1.31337,1.95042,-0.111824,-2.06066,-1.11483,-0.585192
1535941984.242511789,-0.1009,-0.536927,0.291608,0.120579,0.280448,0.885665,-0.349866,-1.39872,-1.31325,1.95031,-0.111746,-2.06073,-1.11491,-0.585302
1535941984.254818434,-0.100834,-0.536958,0.291625,0.12063,0.280584,0.885512,-0.350128,-1.39878,-1.31335,1.95022,-0.11151,-2.06084,-1.11475,-0.58479
1535941984.286416475,-0.100834,-0.536958,0.291625,0.12063,0.280584,0.885512,-0.350128,-1.39878,-1.31335,1.95022,-0.11151,-2.06084,-1.11475,-0.58479
1535941984.292443825,-0.10094,-0.536922,0.291567,0.120532,0.280436,0.885672,-0.349876,-1.39862,-1.31335,1.95022,-0.111694,-2.06077,-1.11494,-0.585189
1535941984.298063786,-0.10095,-0.536939,0.291588,0.120626,0.280565,0.885667,-0.349753,-1.39862,-1.31335,1.95028,-0.111667,-2.06075,-1.11462,-0.585423
1535941984.304246716,-0.100925,-0.536961,0.291589,0.120671,0.280675,0.885648,-0.349695,-1.39867,-1.31338,1.9503,-0.111641,-2.06077,-1.11435,-0.585565
1535941984.310454125,-0.100913,-0.536955,0.291637,0.120667,0.280666,0.885641,-0.349723,-1.39867,-1.31331,1.95025,-0.111561,-2.0607,-1.11451,-0.585561
1535941984.316640006,-0.100833,-0.536971,0.29168,0.120672,0.280706,0.885591,-0.349815,-1.39878,-1.31335,1.95028,-0.111324,-2.06072,-1.11461,-0.585558
1535941984.322813510,-0.1008,-0.536975,0.291685,0.12067,0.280691,0.885553,-0.349925,-1.39883,-1.31335,1.95028,-0.111298,-2.06074,-1.11467,-0.585376
1535941984.329046283,-0.100875,-0.536961,0.291656,0.120719,0.280634,0.885595,-0.349845,-1.39872,-1.31338,1.95036,-0.11135,-2.0607,-1.11464,-0.585444
1535941984.335510596,-0.100747,-0.536988,0.291723,0.120667,0.280754,0.885504,-0.349998,-1.39888,-1.31338,1.9503,-0.111088,-2.06083,-1.11472,-0.58533
1535941984.341274493,-0.100817,-0.536978,0.29173,0.120705,0.280767,0.885554,-0.349849,-1.39878,-1.31334,1.95033,-0.111141,-2.06079,-1.11464,-0.585534
1535941984.347191646,-0.100934,-0.536955,0.291752,0.12081,0.280736,0.885564,-0.349812,-1.39856,-1.31331,1.95025,-0.111111,-2.06058,-1.11464,-0.585444
1535941984.353677302,-0.100887,-0.53697,0.291707,0.1209,0.280679,0.885549,-0.349864,-1.39872,-1.31334,1.95039,-0.111242,-2.06047,-1.11449,-0.585449
1535941984.359502965,-0.100808,-0.536976,0.291686,0.120879,0.280587,0.885528,-0.35,-1.39888,-1.31334,1.95033,-0.111293,-2.06033,-1.11462,-0.585333
1535941984.365837773,-0.100857,-0.536947,0.291632,0.120857,0.280377,0.885577,-0.35005,-1.39883,-1.31334,1.95033,-0.111449,-2.06019,-1.11488,-0.58519
1535941984.371471709,-0.100957,-0.536919,0.291624,0.120883,0.280285,0.885629,-0.349983,-1.39867,-1.31331,1.95036,-0.111527,-2.06013,-1.11499,-0.585187
1535941984.378200982,-0.100969,-0.536916,0.29157,0.120781,0.280282,0.885705,-0.34983,-1.39867,-1.31331,1.9503,-0.111739,-2.06017,-1.1149,-0.585437
1535941984.389873595,-0.100907,-0.53692,0.291637,0.120933,0.280215,0.88562,-0.350047,-1.39883,-1.31321,1.95056,-0.111685,-2.06013,-1.11501,-0.585164
1535941984.396128206,-0.100791,-0.536949,0.291858,0.121167,0.28044,0.885495,-0.350102,-1.3991,-1.31284,1.95082,-0.111633,-2.06013,-1.11475,-0.585261
1535941984.402379313,-0.100401,-0.537029,0.291921,0.12121,0.280546,0.885366,-0.350327,-1.3999,-1.31271,1.95111,-0.111712,-2.06015,-1.11454,-0.585492
1535941984.414322298,-0.100215,-0.537066,0.291737,0.121189,0.280303,0.885353,-0.350562,-1.40032,-1.31305,1.95158,-0.111714,-2.06029,-1.11464,-0.585444
1535941984.420708543,-0.100359,-0.537037,0.291603,0.121275,0.280042,0.885428,-0.350551,-1.40011,-1.31331,1.9518,-0.111686,-2.06017,-1.1148,-0.58535
1535941984.426972987,-0.100394,-0.537032,0.291656,0.121269,0.280122,0.885415,-0.350522,-1.4,-1.31327,1.95183,-0.111556,-2.06033,-1.11483,-0.585327
1535941984.438822713,-0.100431,-0.537008,0.291809,0.121189,0.280279,0.885409,-0.350439,-1.3999,-1.31286,1.95142,-0.111793,-2.06027,-1.11483,-0.585282
1535941984.445016041,-0.100319,-0.537026,0.292043,0.121156,0.280583,0.885306,-0.350469,-1.4,-1.31251,1.95111,-0.111609,-2.06029,-1.11483,-0.585327
1535941984.451161298,-0.100252,-0.537039,0.292159,0.121116,0.280757,0.885246,-0.350494,-1.40006,-1.31239,1.951,-0.111425,-2.0604,-1.11485,-0.585348
1535941984.463437391,-0.10042,-0.537017,0.2922,0.121154,0.280873,0.885204,-0.350493,-1.39968,-1.31239,1.951,-0.111298,-2.0607,-1.11476,-0.584947
1535941984.493912468,-0.10042,-0.537017,0.2922,0.121154,0.280873,0.885204,-0.350493,-1.39968,-1.31239,1.951,-0.111298,-2.0607,-1.11476,-0.584947
1535941984.500101645,-0.100341,-0.537028,0.29215,0.121082,0.280797,0.885274,-0.350403,-1.39984,-1.31248,1.95103,-0.11127,-2.06058,-1.11488,-0.58537
1535941984.506504276,-0.100325,-0.537047,0.292154,0.121165,0.280889,0.885246,-0.350371,-1.3999,-1.31248,1.95103,-0.111295,-2.06051,-1.11459,-0.585446
1535941984.512798069,-0.100327,-0.537047,0.292161,0.121205,0.280877,0.885233,-0.350401,-1.3999,-1.31248,1.95103,-0.111268,-2.06045,-1.11459,-0.585401
1535941984.518374389,-0.100275,-0.537058,0.292263,0.121292,0.28095,0.885142,-0.350541,-1.39995,-1.31242,1.95103,-0.111003,-2.0604,-1.11468,-0.585241
1535941984.524491950,-0.100205,-0.537072,0.292305,0.121342,0.280961,0.885107,-0.350603,-1.40006,-1.31245,1.95106,-0.110765,-2.06028,-1.11478,-0.585328
1535941984.530626271,-0.100297,-0.537059,0.292354,0.12138,0.281023,0.885106,-0.350542,-1.39984,-1.31245,1.95106,-0.110581,-2.06035,-1.1148,-0.585305
1535941984.536768263,-0.100307,-0.537064,0.292425,0.121484,0.281093,0.885061,-0.350563,-1.39979,-1.31245,1.95106,-0.110316,-2.06025,-1.1148,-0.585305
1535941984.542542644,-0.100191,-0.537095,0.292511,0.121598,0.281186,0.884948,-0.350736,-1.39995,-1.31248,1.95103,-0.109918,-2.06009,-1.11483,-0.585237
1535941984.549003598,-0.100172,-0.537112,0.292601,0.121718,0.281317,0.884893,-0.350729,-1.39995,-1.31248,1.95108,-0.109601,-2.06004,-1.11475,-0.585351
1535941984.554832720,-0.100101,-0.537135,0.292709,0.121909,0.2814,0.88479,-0.350854,-1.40006,-1.31245,1.95106,-0.109254,-2.05973,-1.11472,-0.58533
1535941984.560684249,-0.100189,-0.537123,0.292727,0.122082,0.281337,0.884789,-0.350847,-1.3999,-1.31251,1.95106,-0.109039,-2.05941,-1.11478,-0.585328
1535941984.589784496,-0.100189,-0.537123,0.292727,0.122082,0.281337,0.884789,-0.350847,-1.3999,-1.31251,1.95106,-0.109039,-2.05941,-1.11478,-0.585328
1535941984.595490814,-0.100495,-0.537029,0.292558,0.122554,0.280582,0.884992,-0.350775,-1.39968,-1.31238,1.95117,-0.109864,-2.05799,-1.11496,-0.5853
1535941984.602009812,-0.100384,-0.537043,0.29277,0.122746,0.280714,0.884867,-0.350919,-1.39995,-1.31198,1.95152,-0.109892,-2.05811,-1.11488,-0.58519
1535941984.607884146,-0.100183,-0.537072,0.293041,0.123028,0.280836,0.884746,-0.351026,-1.40043,-1.31151,1.95209,-0.109839,-2.05811,-1.11485,-0.585438
1535941984.613767791,-0.0997323,-0.537155,0.293166,0.123106,0.280943,0.884548,-0.351413,-1.40134,-1.31128,1.95241,-0.109866,-2.05813,-1.11475,-0.585441
1535941984.620231283,-0.0994468,-0.537215,0.293182,0.123221,0.280924,0.884439,-0.351662,-1.40193,-1.31133,1.95275,-0.109706,-2.05804,-1.11472,-0.585554
1535941984.626026095,-0.0994104,-0.53722,0.293096,0.123267,0.280764,0.884405,-0.351859,-1.40203,-1.31149,1.95294,-0.109706,-2.05804,-1.1148,-0.58526
1535941984.632446191,-0.0994879,-0.537219,0.293006,0.123298,0.280695,0.884451,-0.351787,-1.40187,-1.31178,1.95308,-0.109469,-2.05806,-1.11483,-0.585372
1535941984.638291376,-0.0995749,-0.537203,0.293039,0.123359,0.280709,0.884464,-0.351721,-1.40171,-1.31175,1.95316,-0.109417,-2.0581,-1.11483,-0.585372
1535941984.644465774,-0.0996109,-0.537191,0.293093,0.123277,0.280808,0.884465,-0.35167,-1.40161,-1.31159,1.95291,-0.109523,-2.05815,-1.1148,-0.585305
1535941984.650664407,-0.0995678,-0.537187,0.293336,0.123233,0.281081,0.884397,-0.351637,-1.40161,-1.31114,1.95258,-0.109497,-2.05817,-1.11483,-0.585327
1535941984.657026793,-0.0995199,-0.537191,0.293509,0.123153,0.281329,0.884329,-0.351637,-1.40161,-1.31086,1.95233,-0.10942,-2.05833,-1.11483,-0.585282
1535941984.662592846,-0.0994073,-0.537208,0.293617,0.123025,0.281508,0.884275,-0.351676,-1.40171,-1.31076,1.95219,-0.109186,-2.05854,-1.11496,-0.585345
1535941984.693774151,-0.0994073,-0.537208,0.293617,0.123025,0.281508,0.884275,-0.351676,-1.40171,-1.31076,1.95219,-0.109186,-2.05854,-1.11496,-0.585345
1535941984.700020734,-0.0991668,-0.537245,0.293591,0.122876,0.281481,0.884226,-0.351872,-1.40214,-1.31083,1.95225,-0.109135,-2.05868,-1.11514,-0.585362
1535941984.706401766,-0.0991808,-0.537251,0.293639,0.122931,0.281576,0.884188,-0.351874,-1.40209,-1.3108,1.95216,-0.109029,-2.05863,-1.11503,-0.58532
1535941984.712049046,-0.099102,-0.537285,0.293661,0.123016,0.281721,0.884117,-0.351906,-1.40225,-1.3108,1.95222,-0.109003,-2.05865,-1.1147,-0.585353
1535941984.718149628,-0.0991434,-0.537287,0.293665,0.123056,0.281788,0.88415,-0.351754,-1.40219,-1.31076,1.95219,-0.109081,-2.05858,-1.11448,-0.585584
1535941984.724458850,-0.0991106,-0.537321,0.293696,0.12318,0.28197,0.884098,-0.351695,-1.40225,-1.31083,1.95225,-0.108896,-2.05856,-1.11411,-0.585775
1535941984.730016754,-0.098877,-0.537392,0.293765,0.123237,0.282237,0.884001,-0.351706,-1.40267,-1.3108,1.95222,-0.108763,-2.05849,-1.11369,-0.586147
1535941984.736309573,-0.098899,-0.537413,0.293786,0.123232,0.282464,0.884063,-0.351371,-1.40262,-1.31083,1.95225,-0.108686,-2.0586,-1.1133,-0.586787
1535941984.742079199,-0.0988518,-0.537448,0.293803,0.123327,0.282646,0.884024,-0.351289,-1.40273,-1.31083,1.95225,-0.108685,-2.05856,-1.11285,-0.587003
1535941984.748590407,-0.0988736,-0.537471,0.293849,0.123413,0.282877,0.884006,-0.351117,-1.40267,-1.31083,1.95225,-0.10858,-2.0586,-1.11243,-0.587285
1535941984.754442101,-0.09881,-0.53753,0.293917,0.123483,0.283301,0.883994,-0.350781,-1.40278,-1.31083,1.95231,-0.10845,-2.05876,-1.11168,-0.588026
1535941984.760601827,-0.0988343,-0.537542,0.293923,0.123505,0.283425,0.884018,-0.350612,-1.40273,-1.31086,1.95228,-0.108398,-2.05876,-1.11144,-0.588325
1535941984.766459279,-0.0987912,-0.537548,0.293946,0.123521,0.283423,0.883961,-0.35075,-1.40278,-1.31086,1.95222,-0.108292,-2.05871,-1.11152,-0.588121
1535941984.772924068,-0.098783,-0.537544,0.293926,0.123441,0.283399,0.88398,-0.350751,-1.40278,-1.31089,1.95225,-0.108293,-2.05885,-1.11163,-0.588117
1535941984.778788954,-0.0987932,-0.537536,0.293872,0.123429,0.283285,0.884005,-0.350784,-1.40278,-1.31096,1.95225,-0.108345,-2.05876,-1.11173,-0.588069
1535941984.791276172,-0.0989502,-0.53749,0.293828,0.123435,0.283109,0.884119,-0.350638,-1.40257,-1.31086,1.95228,-0.108686,-2.05865,-1.11183,-0.588111
1535941984.797209333,-0.0989295,-0.537499,0.293813,0.123426,0.283145,0.884121,-0.350606,-1.40262,-1.31086,1.95228,-0.108766,-2.05867,-1.1117,-0.588183
1535941984.803544730,-0.0988667,-0.537513,0.293795,0.123488,0.283106,0.884088,-0.350699,-1.40278,-1.31086,1.95233,-0.108843,-2.05856,-1.11163,-0.588117
1535941984.809687520,-0.0988541,-0.537512,0.293958,0.123593,0.283234,0.884016,-0.35074,-1.40278,-1.31066,1.95251,-0.108634,-2.05869,-1.11168,-0.588071
1535941984.840423928,-0.0988541,-0.537512,0.293958,0.123593,0.283234,0.884016,-0.35074,-1.40278,-1.31066,1.95251,-0.108634,-2.05869,-1.11168,-0.588071
1535941984.846020354,-0.0987823,-0.537547,0.293688,0.123952,0.282789,0.884032,-0.350932,-1.40315,-1.31119,1.95349,-0.108631,-2.05846,-1.11155,-0.588142
1535941984.852739762,-0.0986747,-0.537557,0.293754,0.123824,0.28288,0.884011,-0.350957,-1.40331,-1.31103,1.95329,-0.108684,-2.05851,-1.11162,-0.588207
1535941984.858303138,-0.0987044,-0.537538,0.293849,0.123793,0.282951,0.884019,-0.350891,-1.40326,-1.31074,1.9531,-0.108895,-2.05847,-1.11162,-0.588207
1535941984.865151185,-0.0987796,-0.537514,0.293944,0.123752,0.283057,0.884023,-0.350809,-1.4031,-1.31046,1.95279,-0.109105,-2.05842,-1.11157,-0.588119
1535941984.870720758,-0.0987421,-0.537516,0.293984,0.123721,0.283098,0.884011,-0.350819,-1.40315,-1.31036,1.95265,-0.109131,-2.05835,-1.1116,-0.588141
1535941984.876810040,-0.0988099,-0.537513,0.294017,0.123749,0.283197,0.88399,-0.350782,-1.40299,-1.31036,1.95265,-0.109027,-2.05849,-1.1115,-0.588054
1535941984.883547595,-0.0988748,-0.537497,0.293982,0.123786,0.283103,0.883992,-0.35084,-1.40289,-1.3104,1.95263,-0.109078,-2.0584,-1.11156,-0.587827
1535941984.889702452,-0.0989586,-0.537479,0.293974,0.123859,0.28304,0.884035,-0.350754,-1.40278,-1.31036,1.95271,-0.109183,-2.05831,-1.11153,-0.587896
1535941984.895855445,-0.0989287,-0.53748,0.293914,0.123724,0.283,0.884111,-0.350643,-1.40283,-1.31043,1.95265,-0.109262,-2.05833,-1.1116,-0.588186
1535941984.901714771,-0.0988189,-0.537492,0.293884,0.123655,0.28292,0.884111,-0.350732,-1.40305,-1.31046,1.95268,-0.109288,-2.05831,-1.11175,-0.588226
1535941984.908243343,-0.0987769,-0.537499,0.293925,0.123664,0.282952,0.884083,-0.350774,-1.4031,-1.31046,1.95274,-0.109131,-2.05835,-1.11183,-0.588246
1535941984.913963411,-0.0989187,-0.537475,0.293901,0.123664,0.282941,0.884149,-0.350618,-1.40283,-1.31049,1.95271,-0.109157,-2.05838,-1.1118,-0.588314
1535941984.953528355,-0.0987459,-0.537521,0.293936,0.12372,0.283076,0.884005,-0.350853,-1.40315,-1.31046,1.95274,-0.109132,-2.05845,-1.11155,-0.588052
1535941984.959488026,-0.0987725,-0.537547,0.294169,0.123935,0.28344,0.883883,-0.350787,-1.40294,-1.31052,1.95285,-0.108158,-2.05855,-1.11149,-0.588279
1535941984.965657419,-0.0988561,-0.53754,0.294202,0.123952,0.283539,0.883873,-0.350727,-1.40273,-1.31055,1.95276,-0.107974,-2.05862,-1.11144,-0.588235
1535941984.971851302,-0.0986936,-0.53756,0.294159,0.12386,0.283446,0.883843,-0.350911,-1.40305,-1.31058,1.95285,-0.108054,-2.05869,-1.1116,-0.588141
1535941984.977984840,-0.0987197,-0.537556,0.294177,0.123855,0.283481,0.883864,-0.350832,-1.40299,-1.31055,1.95282,-0.108054,-2.05869,-1.11157,-0.588254
1535941984.983499377,-0.0986705,-0.537565,0.294128,0.123861,0.283412,0.883827,-0.350978,-1.4031,-1.31062,1.95282,-0.108106,-2.05864,-1.11158,-0.588029
1535941984.989601377,-0.0987102,-0.537548,0.294119,0.123867,0.283329,0.88386,-0.350961,-1.40305,-1.31059,1.95279,-0.108184,-2.05853,-1.11168,-0.588026
1535941984.995854251,-0.0987893,-0.537532,0.294156,0.123916,0.283333,0.883858,-0.350944,-1.40289,-1.31055,1.95282,-0.108105,-2.05855,-1.11174,-0.587934
1535941985.002313074,-0.0987604,-0.537526,0.294037,0.123748,0.283198,0.88395,-0.350881,-1.40299,-1.31059,1.95279,-0.108475,-2.0586,-1.11178,-0.588068
1535941985.008099945,-0.0987561,-0.537535,0.294062,0.123785,0.283273,0.883944,-0.350824,-1.40299,-1.31059,1.95279,-0.108395,-2.05858,-1.11167,-0.588206
1535941985.014016928,-0.0987249,-0.537545,0.294068,0.123819,0.283288,0.883916,-0.35087,-1.40305,-1.31062,1.95282,-0.108316,-2.05855,-1.11165,-0.588184
1535941985.020501547,-0.0987839,-0.537523,0.29415,0.123929,0.283272,0.883902,-0.35088,-1.40299,-1.31039,1.95296,-0.108474,-2.05855,-1.11165,-0.588049
1535941985.026843858,-0.0985101,-0.537578,0.294273,0.12402,0.283409,0.883765,-0.351081,-1.40353,-1.31022,1.95317,-0.108368,-2.05855,-1.11155,-0.588142
1535941985.032996808,-0.0983526,-0.537608,0.294378,0.124026,0.283536,0.883682,-0.351185,-1.40379,-1.31012,1.95331,-0.108186,-2.05871,-1.11157,-0.588209
1535941985.039142876,-0.0984676,-0.537584,0.294373,0.124167,0.283429,0.883708,-0.351157,-1.40363,-1.31011,1.95348,-0.108211,-2.0586,-1.1116,-0.588141
1535941985.045237856,-0.0985697,-0.537567,0.294264,0.12421,0.283252,0.88378,-0.351104,-1.40347,-1.31034,1.95362,-0.108157,-2.05851,-1.1117,-0.588183
1535941985.051117957,-0.098559,-0.537567,0.29423,0.124264,0.283157,0.883764,-0.3512,-1.40353,-1.3104,1.95379,-0.108157,-2.05851,-1.11176,-0.588046
1535941985.063744832,-0.098546,-0.53758,0.294385,0.124245,0.283474,0.883715,-0.351075,-1.40347,-1.31018,1.95353,-0.108053,-2.0586,-1.11152,-0.58821
1535941985.069640580,-0.0985096,-0.537572,0.294526,0.124073,0.283676,0.8837,-0.35101,-1.40347,-1.30983,1.95317,-0.108213,-2.05874,-1.11154,-0.588232
1535941985.076199584,-0.0984738,-0.537571,0.294661,0.12398,0.283876,0.883666,-0.350968,-1.40347,-1.30955,1.95281,-0.108265,-2.05874,-1.11152,-0.588255
1535941985.082056859,-0.0984635,-0.53756,0.294806,0.12404,0.283935,0.883619,-0.351016,-1.40347,-1.30929,1.9527,-0.108211,-2.0586,-1.11165,-0.588184
1535941985.094516584,-0.0986484,-0.537532,0.294724,0.1241,0.283859,0.883636,-0.351013,-1.40315,-1.30939,1.95273,-0.108344,-2.05867,-1.11154,-0.587806
1535941985.125926544,-0.0986484,-0.537532,0.294724,0.1241,0.283859,0.883636,-0.351013,-1.40315,-1.30939,1.95273,-0.108344,-2.05867,-1.11154,-0.587806
1535941985.131882893,-0.0987345,-0.537513,0.294567,0.124114,0.283613,0.883785,-0.350833,-1.4031,-1.30955,1.95287,-0.108604,-2.05844,-1.11155,-0.588142
1535941985.138344158,-0.0986678,-0.53753,0.294636,0.124199,0.283685,0.883716,-0.350919,-1.40321,-1.30951,1.9529,-0.108419,-2.05837,-1.11152,-0.588121
1535941985.144122991,-0.0986411,-0.537527,0.294587,0.124131,0.283589,0.883748,-0.350938,-1.40326,-1.30958,1.9529,-0.108445,-2.05835,-1.11168,-0.588161
1535941985.150732158,-0.0987283,-0.537528,0.294657,0.12429,0.283707,0.883691,-0.35093,-1.40305,-1.30964,1.95295,-0.108076,-2.05834,-1.11158,-0.588074
1535941985.156360580,-0.0986927,-0.537539,0.294669,0.124298,0.283736,0.88368,-0.350931,-1.4031,-1.30967,1.95298,-0.10797,-2.05834,-1.11157,-0.588164
1535941985.162837778,-0.0986566,-0.537556,0.2947,0.124357,0.283821,0.883639,-0.350947,-1.40315,-1.3097,1.95306,-0.107813,-2.05839,-1.11147,-0.588212
1535941985.168783090,-0.0986158,-0.537576,0.294667,0.124371,0.283846,0.88361,-0.350994,-1.40321,-1.30986,1.95315,-0.107629,-2.05845,-1.11142,-0.588214
1535941985.175353168,-0.0986577,-0.537562,0.294686,0.124288,0.283858,0.883657,-0.350896,-1.4031,-1.30986,1.95326,-0.107553,-2.05871,-1.11157,-0.588344
1535941985.181289508,-0.0985739,-0.53758,0.294679,0.124256,0.283869,0.883604,-0.35103,-1.40321,-1.30996,1.95317,-0.107368,-2.05868,-1.11165,-0.588229
1535941985.187235942,-0.0985935,-0.537587,0.294663,0.124358,0.283877,0.883588,-0.351028,-1.40321,-1.30999,1.95326,-0.107394,-2.05861,-1.11147,-0.588212
1535941985.193461306,-0.0987071,-0.537544,0.294622,0.124342,0.283674,0.883687,-0.350949,-1.40305,-1.30993,1.9532,-0.107628,-2.05841,-1.1117,-0.588228
1535941985.200202386,-0.098691,-0.537541,0.294553,0.124289,0.283579,0.883682,-0.351058,-1.4031,-1.30996,1.95317,-0.107813,-2.05843,-1.11173,-0.587979
1535941985.206374533,-0.0987187,-0.537527,0.294501,0.124272,0.283453,0.883741,-0.351016,-1.4031,-1.30996,1.95323,-0.107997,-2.05837,-1.11181,-0.588045
1535941985.212545633,-0.0986711,-0.537539,0.29449,0.124259,0.283474,0.883758,-0.350962,-1.40321,-1.30996,1.95323,-0.108049,-2.05832,-1.11172,-0.588249
1535941985.218718394,-0.0987942,-0.537516,0.294438,0.124245,0.283417,0.883813,-0.350875,-1.40299,-1.30999,1.9532,-0.108181,-2.05834,-1.1117,-0.588183
1535941985.230667230,-0.098612,-0.53756,0.294561,0.124355,0.28359,0.883681,-0.351028,-1.40331,-1.30989,1.95329,-0.107944,-2.05832,-1.11157,-0.588209
1535941985.236929883,-0.0985395,-0.537561,0.294719,0.12442,0.283671,0.883639,-0.351044,-1.40347,-1.30959,1.95349,-0.107945,-2.05841,-1.11164,-0.588319
1535941985.243088479,-0.0984031,-0.537587,0.294775,0.124454,0.283728,0.883552,-0.351207,-1.40374,-1.30952,1.95372,-0.107894,-2.05859,-1.11162,-0.588207
1535941985.255092517,-0.098531,-0.537571,0.29475,0.12471,0.283568,0.883552,-0.351243,-1.40353,-1.30975,1.95402,-0.107522,-2.05836,-1.11175,-0.588136
1535941985.261383146,-0.0984736,-0.537595,0.294667,0.124718,0.283529,0.883544,-0.351291,-1.40363,-1.31,1.95424,-0.107339,-2.05847,-1.11173,-0.588204
1535941985.267252665,-0.0986166,-0.53758,0.294694,0.124843,0.283585,0.883555,-0.351175,-1.40337,-1.31,1.95424,-0.107259,-2.0584,-1.11157,-0.588209
1535941985.273965518,-0.0985769,-0.537588,0.294854,0.124796,0.283852,0.883502,-0.351111,-1.40337,-1.30975,1.95402,-0.107181,-2.05852,-1.11146,-0.588302
1535941985.286063887,-0.0984062,-0.537605,0.295187,0.124655,0.284283,0.883365,-0.351157,-1.40353,-1.30921,1.95355,-0.106999,-2.05868,-1.11154,-0.588322
1535941985.292208101,-0.0984504,-0.537594,0.295226,0.124678,0.284306,0.88335,-0.351168,-1.40342,-1.30914,1.95339,-0.106971,-2.05856,-1.11157,-0.588209
1535941985.298511808,-0.0985611,-0.537577,0.295252,0.124735,0.284336,0.883348,-0.351126,-1.40321,-1.30911,1.95341,-0.106946,-2.05863,-1.11152,-0.588076
1535941985.311037074,-0.098573,-0.537574,0.29509,0.124728,0.284132,0.883378,-0.35122,-1.40326,-1.30927,1.95344,-0.107234,-2.05852,-1.11148,-0.587852
1535941985.316992774,-0.0984278,-0.53759,0.295132,0.124654,0.284132,0.883384,-0.351232,-1.40353,-1.30921,1.9535,-0.107181,-2.05852,-1.11165,-0.588139
1535941985.322838878,-0.0985361,-0.537562,0.295116,0.124607,0.284061,0.883477,-0.351071,-1.40331,-1.30924,1.95347,-0.107155,-2.0585,-1.11182,-0.588336
1535941985.335236678,-0.0986324,-0.537557,0.295064,0.124671,0.284059,0.883499,-0.350996,-1.40315,-1.30933,1.95349,-0.107181,-2.05847,-1.11164,-0.588319
1535941985.366524847,-0.0986324,-0.537557,0.295064,0.124671,0.284059,0.883499,-0.350996,-1.40315,-1.30933,1.95349,-0.107181,-2.05847,-1.11164,-0.588319
1535941985.372553341,-0.0984317,-0.537643,0.295526,0.125267,0.284621,0.883093,-0.351349,-1.40331,-1.30931,1.95369,-0.105542,-2.05818,-1.11149,-0.588234
1535941985.379052080,-0.0984681,-0.537648,0.295531,0.125339,0.284658,0.883068,-0.351355,-1.40321,-1.30943,1.95369,-0.105278,-2.05813,-1.11147,-0.588212
1535941985.384852673,-0.0984192,-0.537663,0.295591,0.125413,0.284726,0.883018,-0.3514,-1.40326,-1.30946,1.95372,-0.104987,-2.05806,-1.11149,-0.588279
1535941985.390825258,-0.0984377,-0.537663,0.295585,0.125425,0.284724,0.883014,-0.351406,-1.40321,-1.30952,1.95372,-0.104881,-2.05806,-1.11152,-0.588255
1535941985.397349252,-0.098337,-0.537687,0.295588,0.125501,0.284729,0.882941,-0.351559,-1.40342,-1.30953,1.95377,-0.10488,-2.05797,-1.11142,-0.588124
1535941985.403328024,-0.0984768,-0.537644,0.295533,0.125478,0.284544,0.883041,-0.351466,-1.40321,-1.30949,1.95374,-0.105116,-2.05785,-1.1116,-0.588096
1535941985.409121706,-0.0984095,-0.53765,0.295519,0.125487,0.284469,0.883021,-0.351574,-1.40337,-1.30946,1.95377,-0.10522,-2.05776,-1.11166,-0.588004
1535941985.415720413,-0.0985188,-0.537614,0.295461,0.125466,0.284291,0.883113,-0.351494,-1.40321,-1.30946,1.95377,-0.105403,-2.05765,-1.11184,-0.588021
1535941985.421514148,-0.0985398,-0.537616,0.295425,0.125462,0.284298,0.883165,-0.35136,-1.40321,-1.30946,1.95377,-0.105561,-2.05761,-1.11167,-0.588251
1535941985.427962745,-0.0985289,-0.537624,0.29543,0.125422,0.284381,0.883159,-0.351321,-1.40321,-1.30946,1.95372,-0.105562,-2.0577,-1.11157,-0.588299
1535941985.433889635,-0.0984111,-0.537656,0.295523,0.125491,0.284524,0.883039,-0.351484,-1.40337,-1.30946,1.95377,-0.10522,-2.05776,-1.11155,-0.588187
1535941985.440342834,-0.0983604,-0.537654,0.295613,0.125499,0.284565,0.883006,-0.35153,-1.40347,-1.30928,1.95393,-0.105249,-2.05792,-1.11162,-0.588162
1535941985.446252843,-0.0982421,-0.537683,0.295714,0.125549,0.284724,0.882932,-0.351568,-1.40369,-1.30916,1.95404,-0.105144,-2.05802,-1.11149,-0.588279
1535941985.452412356,-0.098162,-0.537698,0.295799,0.125649,0.284777,0.882865,-0.351658,-1.40385,-1.30907,1.95423,-0.105013,-2.05804,-1.11149,-0.588279
1535941985.458722697,-0.0981102,-0.537704,0.295757,0.125657,0.284672,0.882847,-0.351785,-1.40395,-1.30916,1.95431,-0.10496,-2.05799,-1.11162,-0.588162
1535941985.470844326,-0.0984289,-0.537654,0.295658,0.125805,0.284518,0.882981,-0.35152,-1.40342,-1.30936,1.95458,-0.10496,-2.05799,-1.11157,-0.588254
1535941985.477157367,-0.0983943,-0.537663,0.295679,0.125825,0.284544,0.882955,-0.351557,-1.40347,-1.30936,1.95458,-0.10488,-2.05797,-1.11157,-0.588254
1535941985.483481293,-0.0983963,-0.537666,0.295682,0.125775,0.284635,0.882957,-0.351497,-1.40347,-1.30926,1.95439,-0.105091,-2.05797,-1.11136,-0.58826
1535941985.495226861,-0.098387,-0.537628,0.296096,0.125649,0.285003,0.882903,-0.351381,-1.40337,-1.3084,1.9537,-0.105195,-2.05788,-1.11159,-0.588321
1535941985.501219461,-0.0984383,-0.537617,0.296185,0.125626,0.285133,0.882864,-0.351382,-1.40321,-1.30827,1.95353,-0.105118,-2.05799,-1.1116,-0.588141
1535941985.507584660,-0.0983808,-0.537631,0.296194,0.125645,0.28516,0.882825,-0.35145,-1.40331,-1.30827,1.95353,-0.105091,-2.05797,-1.11155,-0.588097
1535941985.513584998,-0.0985655,-0.537598,0.296104,0.12572,0.285027,0.882901,-0.35134,-1.40305,-1.30831,1.95356,-0.10538,-2.05786,-1.11142,-0.587989
1535941985.526129915,-0.0986024,-0.537583,0.296076,0.125715,0.284907,0.882981,-0.351239,-1.40299,-1.30837,1.95362,-0.105325,-2.05772,-1.11162,-0.588252
1535941985.532450218,-0.0985039,-0.537586,0.296077,0.125564,0.284871,0.882995,-0.351287,-1.40315,-1.30834,1.95359,-0.105353,-2.05783,-1.11185,-0.588313
1535941985.538081049,-0.0985315,-0.537586,0.296042,0.125576,0.284854,0.883008,-0.351263,-1.4031,-1.30843,1.95362,-0.1053,-2.05783,-1.11182,-0.588336
1535941985.550646681,-0.0986646,-0.537575,0.296074,0.125697,0.284936,0.882986,-0.351209,-1.40283,-1.30846,1.9537,-0.105143,-2.05792,-1.11167,-0.588206
1535941985.556552665,-0.098638,-0.537594,0.296091,0.12576,0.28504,0.882931,-0.35124,-1.40289,-1.30847,1.95376,-0.105118,-2.05799,-1.11144,-0.588145
1535941985.562817912,-0.0986416,-0.537589,0.296079,0.125807,0.284942,0.882938,-0.351285,-1.40289,-1.30853,1.95381,-0.10501,-2.05785,-1.1116,-0.588141
1535941985.575260730,-0.0986191,-0.537598,0.296109,0.125856,0.284962,0.882908,-0.351326,-1.40289,-1.30862,1.95389,-0.104694,-2.05785,-1.1117,-0.588183
1535941985.581350951,-0.0986006,-0.537614,0.296061,0.125923,0.284948,0.882894,-0.351348,-1.40294,-1.30875,1.95395,-0.10464,-2.05776,-1.11157,-0.588209
1535941985.587505781,-0.0986072,-0.537615,0.296044,0.125886,0.284974,0.882922,-0.351272,-1.40294,-1.30875,1.954,-0.104721,-2.05787,-1.11149,-0.588324
1535941985.593716921,-0.0986277,-0.537615,0.296006,0.125919,0.284945,0.882919,-0.351291,-1.40294,-1.30875,1.954,-0.104878,-2.05783,-1.11136,-0.588215
1535941985.606100962,-0.0986817,-0.537596,0.295931,0.125917,0.284773,0.882985,-0.351265,-1.40289,-1.30881,1.95406,-0.105009,-2.05772,-1.11149,-0.588234
1535941985.611921360,-0.0986939,-0.53759,0.295908,0.125924,0.284714,0.883,-0.351272,-1.40289,-1.30881,1.95406,-0.105087,-2.05765,-1.11152,-0.58821
1535941985.618608017,-0.0987079,-0.537579,0.295863,0.125877,0.284619,0.883031,-0.351287,-1.40289,-1.30881,1.95406,-0.105245,-2.05765,-1.1116,-0.588141
1535941985.630331530,-0.0987712,-0.537551,0.295742,0.125697,0.284425,0.883179,-0.351138,-1.40278,-1.30894,1.95401,-0.105403,-2.05765,-1.11187,-0.58838
1535941985.636789064,-0.0987108,-0.537569,0.295808,0.125776,0.284519,0.883109,-0.351209,-1.40289,-1.30888,1.95406,-0.105298,-2.05765,-1.11177,-0.588338
1535941985.642459795,-0.0987398,-0.537566,0.295827,0.125803,0.28455,0.8831,-0.351197,-1.40283,-1.30885,1.95409,-0.105298,-2.05769,-1.11172,-0.588294
1535941985.673412598,-0.0987398,-0.537566,0.295827,0.125803,0.28455,0.8831,-0.351197,-1.40283,-1.30885,1.95409,-0.105298,-2.05769,-1.11172,-0.588294
1535941985.679171983,-0.0987526,-0.537584,0.295694,0.126058,0.284339,0.883085,-0.351314,-1.40289,-1.30926,1.95466,-0.104981,-2.0576,-1.1117,-0.588273
1535941985.685632744,-0.0986941,-0.537605,0.295667,0.126058,0.284389,0.883027,-0.351419,-1.40299,-1.30933,1.95472,-0.104983,-2.05774,-1.11155,-0.588097
1535941985.691160048,-0.0988437,-0.537576,0.295703,0.126034,0.284441,0.883091,-0.351225,-1.40267,-1.30929,1.95464,-0.104904,-2.05781,-1.1116,-0.588231
1535941985.697588960,-0.0988058,-0.537575,0.295889,0.125975,0.284684,0.883037,-0.351185,-1.40267,-1.30894,1.95433,-0.104905,-2.05785,-1.11157,-0.588254
1535941985.703392386,-0.0988791,-0.537544,0.296018,0.125961,0.284761,0.883026,-0.351156,-1.40251,-1.30863,1.95411,-0.105037,-2.05783,-1.11165,-0.588094
1535941985.709939398,-0.0988359,-0.537544,0.296088,0.125917,0.284812,0.883033,-0.351113,-1.40257,-1.3085,1.95395,-0.105009,-2.05772,-1.11175,-0.588271
1535941985.715576657,-0.0989353,-0.537529,0.296016,0.1259,0.284769,0.883069,-0.351063,-1.40241,-1.30856,1.954,-0.105169,-2.05785,-1.11165,-0.588139
1535941985.721925033,-0.099143,-0.537489,0.295991,0.125975,0.284688,0.883121,-0.350971,-1.40203,-1.3086,1.95403,-0.105195,-2.05783,-1.11168,-0.587981
1535941985.728206660,-0.0991421,-0.537496,0.29596,0.126053,0.284677,0.883093,-0.351023,-1.40209,-1.30856,1.95395,-0.105403,-2.05765,-1.11146,-0.58783
1535941985.733880490,-0.099471,-0.537429,0.295917,0.126097,0.284549,0.883246,-0.350725,-1.4015,-1.3086,1.95403,-0.105483,-2.05767,-1.11156,-0.587917
1535941985.740493991,-0.0994441,-0.537425,0.295963,0.125954,0.284606,0.883325,-0.350532,-1.4015,-1.30856,1.954,-0.105352,-2.05779,-1.11174,-0.588406
1535941985.746276743,-0.0994146,-0.537422,0.295952,0.125946,0.284518,0.883335,-0.350582,-1.40155,-1.30859,1.95397,-0.105298,-2.05765,-1.11192,-0.588423
1535941985.758488922,-0.0995595,-0.537411,0.295972,0.126103,0.284579,0.883302,-0.350557,-1.40128,-1.30863,1.95411,-0.105194,-2.05774,-1.11173,-0.588204
1535941985.764916908,-0.0997204,-0.537391,0.295917,0.126118,0.28458,0.883335,-0.350467,-1.40096,-1.30875,1.95406,-0.105168,-2.05781,-1.11163,-0.588072
1535941985.770853523,-0.0999802,-0.537347,0.295968,0.126242,0.28462,0.883409,-0.350204,-1.40048,-1.30869,1.95411,-0.105115,-2.05781,-1.11155,-0.588187
1535941985.783130370,-0.1004,-0.53728,0.296108,0.126532,0.284715,0.883456,-0.349903,-1.39963,-1.30869,1.95417,-0.104587,-2.05771,-1.11157,-0.588209
1535941985.789645272,-0.100542,-0.537246,0.296066,0.126483,0.284637,0.88353,-0.349799,-1.39936,-1.30872,1.95414,-0.104667,-2.05778,-1.11168,-0.588161
1535941985.795860801,-0.100709,-0.537227,0.296064,0.126536,0.28471,0.883567,-0.349627,-1.39904,-1.30875,1.95417,-0.104642,-2.0579,-1.11149,-0.588189
1535941985.801571548,-0.101022,-0.537164,0.295978,0.126545,0.28458,0.883735,-0.349305,-1.39851,-1.30879,1.95414,-0.104905,-2.05785,-1.11146,-0.588302
1535941985.814442717,-0.101541,-0.537052,0.29589,0.12665,0.284312,0.883943,-0.348957,-1.3976,-1.30882,1.95417,-0.105141,-2.05774,-1.11162,-0.588162
1535941985.820628436,-0.101813,-0.536999,0.295879,0.126739,0.284246,0.884036,-0.348743,-1.39712,-1.30879,1.95414,-0.105245,-2.05765,-1.1116,-0.588141
1535941985.826775988,-0.101908,-0.536977,0.295829,0.126817,0.28412,0.884086,-0.34869,-1.39702,-1.30879,1.95425,-0.105428,-2.05754,-1.11157,-0.588119
1535941985.838992689,-0.102154,-0.536917,0.295814,0.126866,0.283982,0.884188,-0.348528,-1.39659,-1.30872,1.95419,-0.105584,-2.0574,-1.11171,-0.588048
1535941985.844703596,-0.102523,-0.536846,0.295759,0.126853,0.283918,0.884364,-0.348137,-1.3959,-1.30879,1.95414,-0.105665,-2.05747,-1.11173,-0.588204
1535941985.851097857,-0.102889,-0.536778,0.29577,0.126984,0.283874,0.884474,-0.347846,-1.3952,-1.30882,1.95411,-0.105558,-2.05738,-1.11175,-0.588226
1535941985.863441196,-0.103356,-0.536691,0.295864,0.127129,0.283956,0.884573,-0.347473,-1.3943,-1.30872,1.95425,-0.105403,-2.05765,-1.11173,-0.588159
1535941985.869276935,-0.103514,-0.536669,0.295798,0.127179,0.283911,0.884638,-0.347328,-1.39403,-1.30882,1.95428,-0.105482,-2.05763,-1.1116,-0.588186
1535941985.875729076,-0.103844,-0.536601,0.295732,0.127291,0.283727,0.88476,-0.347126,-1.39344,-1.30895,1.95444,-0.105455,-2.0576,-1.11173,-0.588114
1535941985.881503248,-0.104311,-0.53652,0.295726,0.127559,0.283636,0.884889,-0.346773,-1.39259,-1.30904,1.95447,-0.105293,-2.05733,-1.11168,-0.588161
1535941985.893786640,-0.105006,-0.536393,0.295514,0.12772,0.283334,0.885171,-0.346239,-1.39136,-1.30939,1.95472,-0.1054,-2.05737,-1.11165,-0.588139
1535941985.899938220,-0.105448,-0.536304,0.295563,0.127749,0.283397,0.885317,-0.345804,-1.39051,-1.30926,1.95461,-0.105481,-2.05754,-1.1116,-0.588186
1535941985.906216341,-0.105958,-0.53619,0.29567,0.127841,0.283425,0.885485,-0.345316,-1.38955,-1.30898,1.95442,-0.105638,-2.05749,-1.11162,-0.588252
1535941985.918712263,-0.107113,-0.53594,0.295948,0.128082,0.283576,0.88579,-0.34432,-1.38731,-1.30841,1.95397,-0.105718,-2.05752,-1.11168,-0.588161
1535941985.924698160,-0.107476,-0.535873,0.295962,0.128218,0.283573,0.885885,-0.344027,-1.38661,-1.30844,1.95394,-0.105612,-2.05747,-1.11162,-0.588162
1535941985.931279816,-0.107851,-0.535789,0.295942,0.128302,0.283439,0.88599,-0.343835,-1.38592,-1.30844,1.95394,-0.105665,-2.05747,-1.11176,-0.587911
1535941985.943117599,-0.108702,-0.535618,0.295815,0.128534,0.283192,0.886312,-0.343123,-1.38442,-1.3085,1.95395,-0.106031,-2.05729,-1.11161,-0.587916
1535941985.949182788,-0.109434,-0.535459,0.295711,0.12862,0.28293,0.886652,-0.342426,-1.38309,-1.30863,1.954,-0.106136,-2.05724,-1.1118,-0.58818
1535941985.955345409,-0.110197,-0.535285,0.295659,0.128733,0.282681,0.886985,-0.341725,-1.3817,-1.30863,1.95406,-0.106294,-2.0572,-1.11203,-0.588375
1535941985.961491451,-0.110629,-0.535201,0.295598,0.128935,0.282546,0.887097,-0.34147,-1.38096,-1.30866,1.95403,-0.106476,-2.05699,-1.11188,-0.588155
1535941985.973820051,-0.111592,-0.535014,0.295615,0.129293,0.282518,0.887356,-0.340684,-1.3792,-1.3086,1.95408,-0.106581,-2.057,-1.11158,-0.588074
1535941985.980277939,-0.112156,-0.534898,0.295587,0.12957,0.282343,0.887531,-0.340268,-1.37818,-1.30866,1.95408,-0.10655,-2.05665,-1.11158,-0.588074
1535941985.986695025,-0.11287,-0.534744,0.295626,0.129784,0.28226,0.887743,-0.339702,-1.37685,-1.3086,1.95414,-0.106524,-2.05667,-1.11163,-0.588027
1535941985.998633241,-0.113967,-0.53451,0.295585,0.130012,0.282072,0.888139,-0.338734,-1.37477,-1.30876,1.95422,-0.10634,-2.05674,-1.1118,-0.588224
1535941986.005050520,-0.114843,-0.534336,0.295514,0.13023,0.282003,0.888426,-0.337955,-1.37317,-1.30882,1.95428,-0.106526,-2.05686,-1.11152,-0.588255
1535941986.011356862,-0.115612,-0.534163,0.29545,0.130378,0.281792,0.888686,-0.33739,-1.37173,-1.30891,1.95425,-0.106553,-2.05683,-1.11168,-0.588116
1535941986.023305332,-0.116671,-0.533929,0.295448,0.130746,0.281584,0.889027,-0.336521,-1.36981,-1.30885,1.9543,-0.106682,-2.05663,-1.11165,-0.588139
1535941986.029181300,-0.117173,-0.533811,0.295327,0.130875,0.281308,0.889236,-0.336149,-1.36895,-1.30891,1.95431,-0.106995,-2.0564,-1.11168,-0.588071
1535941986.035476525,-0.11803,-0.533605,0.295185,0.131071,0.280911,0.88958,-0.335494,-1.36746,-1.30894,1.95428,-0.107439,-2.05611,-1.11179,-0.587978
1535941986.041751759,-0.118691,-0.533449,0.295121,0.131228,0.280692,0.88983,-0.334954,-1.36628,-1.30891,1.95425,-0.107727,-2.05595,-1.11181,-0.587955
1535941986.054167171,-0.120346,-0.533055,0.294928,0.131607,0.280099,0.890502,-0.333512,-1.36335,-1.30894,1.95428,-0.108355,-2.05554,-1.11193,-0.588153
1535941986.059817325,-0.121043,-0.532899,0.294924,0.131794,0.280036,0.890724,-0.332897,-1.36207,-1.30888,1.95422,-0.108512,-2.0555,-1.1118,-0.58818
1535941986.066086730,-0.121491,-0.532789,0.294919,0.131935,0.279903,0.890875,-0.332551,-1.36127,-1.30882,1.95428,-0.108643,-2.05543,-1.11186,-0.588133
1535941986.078464347,-0.12244,-0.532574,0.294839,0.132237,0.279675,0.891193,-0.331769,-1.35956,-1.30888,1.95439,-0.108827,-2.05532,-1.11175,-0.588136
1535941986.084753735,-0.123342,-0.532371,0.294843,0.132545,0.279544,0.891447,-0.331073,-1.35785,-1.30898,1.95447,-0.108615,-2.05527,-1.11181,-0.58809
1535941986.090598190,-0.124378,-0.532136,0.294688,0.132883,0.2792,0.891811,-0.330247,-1.35599,-1.30923,1.95464,-0.108692,-2.05506,-1.11178,-0.588113
1535941986.102838097,-0.126642,-0.531609,0.294482,0.133537,0.278638,0.89256,-0.32843,-1.35182,-1.30958,1.95494,-0.108769,-2.05495,-1.11178,-0.588068
1535941986.108763111,-0.127376,-0.531426,0.294462,0.133691,0.2785,0.892825,-0.327763,-1.35049,-1.30949,1.95491,-0.109033,-2.0549,-1.11175,-0.588136
1535941986.115187246,-0.127974,-0.531274,0.294561,0.133791,0.27854,0.893,-0.32721,-1.34932,-1.3093,1.95469,-0.109033,-2.0549,-1.1118,-0.58818
1535941986.127277435,-0.129334,-0.53092,0.294903,0.134061,0.278755,0.893339,-0.32599,-1.34665,-1.30857,1.95411,-0.109192,-2.05495,-1.11181,-0.58809
1535941986.133332792,-0.130192,-0.530716,0.294944,0.134195,0.278789,0.893571,-0.325267,-1.34494,-1.3086,1.95403,-0.108984,-2.05523,-1.11184,-0.588021
1535941986.139757678,-0.130838,-0.530565,0.294922,0.134369,0.278743,0.893748,-0.32475,-1.34371,-1.30866,1.95403,-0.108958,-2.05529,-1.11174,-0.587934
1535941986.145709288,-0.132058,-0.530265,0.294873,0.134792,0.27849,0.89408,-0.323874,-1.34147,-1.30869,1.95411,-0.109089,-2.05518,-1.11165,-0.587623
1535941986.182944382,-0.133255,-0.529956,0.294816,0.135007,0.278243,0.894515,-0.322796,-1.33923,-1.30872,1.95409,-0.109221,-2.05516,-1.11177,-0.587776
1535941986.189316612,-0.139134,-0.528416,0.294476,0.136626,0.276802,0.8965,-0.317809,-1.32845,-1.30882,1.95417,-0.110265,-2.0542,-1.11179,-0.587978
1535941986.195688494,-0.140345,-0.528092,0.29444,0.137031,0.276505,0.896871,-0.316845,-1.32621,-1.30885,1.9542,-0.11032,-2.05392,-1.11184,-0.587931
1535941986.201443114,-0.141581,-0.527763,0.29436,0.137366,0.276236,0.897277,-0.315782,-1.32392,-1.30894,1.95422,-0.110431,-2.05378,-1.11181,-0.588
1535941986.207573453,-0.142558,-0.527497,0.294383,0.137608,0.276121,0.897561,-0.314969,-1.32205,-1.30891,1.9542,-0.110403,-2.0538,-1.11186,-0.587953
1535941986.213692126,-0.143456,-0.527262,0.294444,0.137893,0.276125,0.897812,-0.314124,-1.32034,-1.30885,1.9543,-0.11032,-2.05392,-1.11173,-0.588114
1535941986.219914339,-0.144326,-0.527029,0.294348,0.138107,0.27594,0.898095,-0.313382,-1.31874,-1.30894,1.95433,-0.11051,-2.0539,-1.1116,-0.588096
1535941986.225589179,-0.145301,-0.526755,0.294333,0.138323,0.275759,0.898399,-0.312573,-1.31688,-1.30897,1.95425,-0.110484,-2.05383,-1.11173,-0.588069
1535941986.232183907,-0.146281,-0.526488,0.294308,0.13856,0.275638,0.898702,-0.311705,-1.31501,-1.30904,1.95425,-0.110456,-2.05385,-1.1117,-0.588138
1535941986.237908602,-0.147463,-0.526139,0.294279,0.138836,0.275326,0.899076,-0.310777,-1.31282,-1.30894,1.95433,-0.110727,-2.05385,-1.11186,-0.587953
1535941986.244217115,-0.148888,-0.525723,0.29419,0.139123,0.274974,0.899556,-0.309568,-1.31015,-1.30898,1.95431,-0.110972,-2.05377,-1.11199,-0.587927
1535941986.250327897,-0.150015,-0.525396,0.29417,0.139477,0.274714,0.899893,-0.308659,-1.30807,-1.30891,1.95431,-0.111166,-2.05356,-1.112,-0.587837
1535941986.256574143,-0.150819,-0.525161,0.2941,0.139586,0.274565,0.900184,-0.307894,-1.30658,-1.30891,1.95431,-0.111435,-2.05365,-1.11194,-0.587928
1535941986.262738653,-0.151985,-0.524823,0.294065,0.139789,0.274401,0.900577,-0.306797,-1.30434,-1.30897,1.95425,-0.111434,-2.05369,-1.11201,-0.588128
1535941986.268821982,-0.15305,-0.52451,0.29405,0.140025,0.274245,0.900905,-0.305864,-1.30231,-1.30897,1.95425,-0.111487,-2.05374,-1.11204,-0.58815
1535941986.275066038,-0.154043,-0.524226,0.294004,0.140286,0.274113,0.901182,-0.305047,-1.30044,-1.30901,1.95428,-0.111622,-2.05381,-1.11189,-0.58802
1535941986.287407934,-0.156038,-0.523626,0.293881,0.140617,0.273741,0.901832,-0.303301,-1.29665,-1.3091,1.95431,-0.111888,-2.05404,-1.11197,-0.587995
1535941986.293344321,-0.157601,-0.523154,0.293797,0.140973,0.273433,0.902331,-0.301927,-1.29372,-1.30917,1.95447,-0.112076,-2.05416,-1.11196,-0.58804
1535941986.299560968,-0.159254,-0.522662,0.293711,0.141499,0.273097,0.902808,-0.300557,-1.29062,-1.30929,1.95458,-0.11216,-2.05399,-1.11184,-0.587976
1535941986.305720894,-0.160546,-0.52227,0.293529,0.141728,0.272759,0.903241,-0.299453,-1.28817,-1.30961,1.95464,-0.112213,-2.05404,-1.11189,-0.587975
1535941986.318083186,-0.162653,-0.521615,0.293477,0.142243,0.27241,0.903871,-0.29762,-1.28417,-1.30964,1.95478,-0.112347,-2.05416,-1.11189,-0.587975
1535941986.324250287,-0.163565,-0.521325,0.293497,0.142355,0.27238,0.904168,-0.29669,-1.28241,-1.30951,1.95467,-0.112534,-2.05432,-1.11183,-0.588156
1535941986.330797234,-0.164756,-0.520938,0.293704,0.142509,0.272547,0.90446,-0.295568,-1.28001,-1.3091,1.95431,-0.112582,-2.05465,-1.11183,-0.588111
1535941986.342490350,-0.167402,-0.520064,0.293784,0.142714,0.272429,0.905242,-0.293176,-1.27478,-1.30882,1.95411,-0.112836,-2.05564,-1.1121,-0.587924
1535941986.349037483,-0.168908,-0.519578,0.29368,0.14294,0.272229,0.90571,-0.291803,-1.2719,-1.30888,1.95411,-0.113128,-2.05594,-1.11197,-0.587905
1535941986.354954837,-0.170382,-0.519095,0.29356,0.143253,0.271935,0.906139,-0.290589,-1.26912,-1.30891,1.95409,-0.113533,-2.056,-1.11183,-0.58764
1535941986.366799546,-0.172757,-0.51827,0.293355,0.14357,0.271248,0.906986,-0.288426,-1.26464,-1.30894,1.95412,-0.114183,-2.05604,-1.11218,-0.587764
1535941986.373054741,-0.17395,-0.517859,0.2933,0.143788,0.270994,0.907406,-0.28723,-1.2624,-1.30888,1.95411,-0.114508,-2.05599,-1.1122,-0.588056
1535941986.379468171,-0.175201,-0.517434,0.293206,0.144081,0.270711,0.907787,-0.286144,-1.26005,-1.30891,1.9542,-0.114806,-2.05601,-1.11212,-0.58799
1535941986.410822286,-0.175201,-0.517434,0.293206,0.144081,0.270711,0.907787,-0.286144,-1.26005,-1.30891,1.9542,-0.114806,-2.05601,-1.11212,-0.58799
1535941986.416392538,-0.18455,-0.514106,0.292363,0.145961,0.268301,0.910799,-0.277768,-1.2425,-1.30904,1.9542,-0.117717,-2.05557,-1.11187,-0.587908
1535941986.422588426,-0.18611,-0.513531,0.292272,0.146227,0.267984,0.911274,-0.276374,-1.23951,-1.309,1.95417,-0.118122,-2.05568,-1.11187,-0.587818
1535941986.428753069,-0.187687,-0.512935,0.292182,0.146428,0.26764,0.911792,-0.274887,-1.23647,-1.30897,1.95414,-0.1185,-2.05581,-1.11202,-0.587904
1535941986.434953856,-0.188943,-0.512464,0.292133,0.146705,0.26737,0.912159,-0.273783,-1.23407,-1.30894,1.95422,-0.118743,-2.05588,-1.11205,-0.587835
1535941986.441188223,-0.190364,-0.511939,0.291997,0.146994,0.267066,0.912594,-0.272473,-1.23135,-1.30907,1.95423,-0.119014,-2.05588,-1.11194,-0.587883
1535941986.447330639,-0.191706,-0.51144,0.292011,0.147396,0.266862,0.91294,-0.271294,-1.22873,-1.30907,1.95428,-0.118961,-2.05583,-1.11194,-0.587883
1535941986.453801686,-0.193243,-0.510847,0.292051,0.147745,0.266612,0.913341,-0.269997,-1.22569,-1.30901,1.95428,-0.118905,-2.05593,-1.11218,-0.587719
1535941986.459601991,-0.194472,-0.51038,0.291979,0.148005,0.26638,0.913688,-0.268908,-1.22329,-1.3091,1.95425,-0.118986,-2.05595,-1.11218,-0.587674
1535941986.466009021,-0.196005,-0.509785,0.291967,0.148378,0.266086,0.914126,-0.267498,-1.2203,-1.3091,1.95436,-0.119013,-2.05597,-1.11231,-0.587783
1535941986.472023967,-0.197615,-0.509161,0.291859,0.148716,0.265745,0.914592,-0.266055,-1.21715,-1.30926,1.95434,-0.119094,-2.05595,-1.11236,-0.587781
1535941986.477944262,-0.199207,-0.508539,0.291755,0.148947,0.265489,0.91507,-0.264531,-1.21401,-1.30941,1.95431,-0.119172,-2.05616,-1.11241,-0.587914
1535941986.484266131,-0.200882,-0.507892,0.291683,0.149375,0.265266,0.915505,-0.263005,-1.21075,-1.30948,1.95437,-0.119359,-2.05627,-1.11215,-0.587877
1535941986.490245392,-0.202217,-0.507367,0.291635,0.149753,0.265023,0.915828,-0.261908,-1.20814,-1.30957,1.95445,-0.119358,-2.05632,-1.11211,-0.587654
1535941986.502119711,-0.204392,-0.506489,0.291388,0.15015,0.264471,0.916512,-0.259837,-1.20398,-1.30976,1.95467,-0.119925,-2.05648,-1.112,-0.587792
1535941986.508627193,-0.205738,-0.505925,0.291125,0.15027,0.263941,0.916997,-0.258593,-1.20141,-1.31002,1.95489,-0.120384,-2.05664,-1.11218,-0.587809
1535941986.514243905,-0.207124,-0.505354,0.290886,0.150422,0.263543,0.917455,-0.257281,-1.19875,-1.31027,1.95506,-0.120786,-2.05689,-1.11215,-0.587832
1535941986.526550323,-0.210549,-0.503909,0.29027,0.15088,0.262352,0.918602,-0.254121,-1.19224,-1.31081,1.95559,-0.122029,-2.05725,-1.11218,-0.587764
1535941986.532716172,-0.212338,-0.503138,0.290084,0.15109,0.261924,0.919169,-0.252379,-1.18877,-1.31081,1.95548,-0.122733,-2.05733,-1.11213,-0.58781
1535941986.538887898,-0.213954,-0.502439,0.290069,0.151353,0.261711,0.919605,-0.25085,-1.18557,-1.31065,1.95539,-0.123109,-2.05756,-1.1121,-0.587744
1535941986.551127415,-0.216818,-0.501188,0.290112,0.15168,0.261522,0.920374,-0.248014,-1.17975,-1.31043,1.9552,-0.123391,-2.05834,-1.11223,-0.587852
1535941986.557461226,-0.21833,-0.50051,0.289895,0.151814,0.26107,0.920857,-0.246611,-1.17682,-1.31052,1.95528,-0.124011,-2.05859,-1.11229,-0.587716
1535941986.563709551,-0.219833,-0.499835,0.28973,0.152111,0.260641,0.921258,-0.245383,-1.17394,-1.31046,1.95523,-0.124772,-2.05858,-1.11213,-0.587204
1535941986.569892258,-0.221025,-0.499258,0.289423,0.152127,0.259915,0.921708,-0.244449,-1.17169,-1.31055,1.95526,-0.125671,-2.05849,-1.1125,-0.586744
1535941986.581636689,-0.224048,-0.497743,0.288936,0.151972,0.258272,0.922882,-0.241843,-1.16577,-1.31055,1.95526,-0.127228,-2.05858,-1.11428,-0.586151
1535941986.588096125,-0.225714,-0.496944,0.288819,0.152149,0.257704,0.923406,-0.240333,-1.16246,-1.31052,1.95528,-0.127656,-2.05862,-1.11477,-0.586024
1535941986.593872904,-0.227077,-0.49626,0.288615,0.152195,0.257006,0.923872,-0.239258,-1.1598,-1.31052,1.95528,-0.128326,-2.0586,-1.11539,-0.585534
1535941986.606738469,-0.229994,-0.494871,0.288236,0.152474,0.256188,0.924712,-0.236702,-1.15403,-1.31061,1.9552,-0.129556,-2.05901,-1.11544,-0.584792
1535941986.612378587,-0.23129,-0.494249,0.288119,0.152586,0.255909,0.925111,-0.235368,-1.15147,-1.31059,1.95528,-0.130063,-2.05932,-1.11544,-0.584882
1535941986.618839777,-0.23259,-0.493629,0.288027,0.152781,0.255677,0.925472,-0.234069,-1.14891,-1.31049,1.95525,-0.130625,-2.05948,-1.11526,-0.584864
1535941986.630641371,-0.23614,-0.491907,0.28774,0.15341,0.254746,0.926454,-0.230768,-1.14182,-1.31068,1.95537,-0.131293,-2.05959,-1.11547,-0.584678
1535941986.636924356,-0.237873,-0.49106,0.287633,0.153769,0.254325,0.926933,-0.229063,-1.13835,-1.31074,1.95542,-0.131561,-2.05955,-1.11552,-0.584812
1535941986.643401046,-0.239313,-0.490343,0.287489,0.153998,0.253894,0.927355,-0.227674,-1.13547,-1.31087,1.95553,-0.131828,-2.05959,-1.11567,-0.584852
1535941986.655701021,-0.241935,-0.48905,0.287258,0.154453,0.253346,0.928044,-0.225157,-1.13018,-1.31109,1.95573,-0.132282,-2.05999,-1.11557,-0.584765
1535941986.661828670,-0.243205,-0.488428,0.287152,0.154605,0.253204,0.92837,-0.223861,-1.12757,-1.31128,1.95589,-0.132334,-2.0605,-1.11549,-0.584835
1535941986.667919537,-0.244598,-0.487711,0.286981,0.15472,0.25281,0.928766,-0.222581,-1.12474,-1.31141,1.95595,-0.132708,-2.06078,-1.11565,-0.584606
1535941986.674077926,-0.246373,-0.486803,0.286743,0.154948,0.252316,0.929268,-0.220883,-1.12117,-1.31163,1.95609,-0.133161,-2.06103,-1.11568,-0.584492
1535941986.686355555,-0.249517,-0.485157,0.286401,0.155331,0.251433,0.93018,-0.217759,-1.11482,-1.31182,1.9562,-0.134044,-2.06129,-1.11589,-0.584531
1535941986.719549858,-0.249517,-0.485157,0.286401,0.155331,0.251433,0.93018,-0.217759,-1.11482,-1.31182,1.9562,-0.134044,-2.06129,-1.11589,-0.584531
1535941986.725527239,-0.258873,-0.48016,0.285496,0.156454,0.249473,0.932704,-0.208205,-1.09572,-1.31223,1.9565,-0.136713,-2.06301,-1.11558,-0.58463
1535941986.731426619,-0.260774,-0.479097,0.285294,0.156589,0.248962,0.933233,-0.206336,-1.09177,-1.31236,1.95651,-0.137194,-2.06333,-1.11584,-0.584488
1535941986.737853313,-0.262608,-0.478066,0.2852,0.156824,0.248543,0.933699,-0.204543,-1.08793,-1.31235,1.9564,-0.137514,-2.06347,-1.11608,-0.584368
1535941986.743555959,-0.264055,-0.477245,0.285264,0.157049,0.248356,0.934003,-0.203205,-1.08483,-1.31216,1.95629,-0.137621,-2.06375,-1.11632,-0.584069
1535941986.749988843,-0.265555,-0.476354,0.285223,0.156968,0.247985,0.934395,-0.201915,-1.08152,-1.31216,1.95612,-0.137672,-2.06431,-1.11717,-0.583505
1535941986.755771009,-0.26677,-0.475636,0.285182,0.156873,0.247805,0.934689,-0.200846,-1.07886,-1.3121,1.95601,-0.137911,-2.06503,-1.1176,-0.582953
1535941986.762336570,-0.268219,-0.474794,0.285098,0.156839,0.247597,0.935071,-0.199348,-1.07571,-1.31216,1.95596,-0.138069,-2.06569,-1.11794,-0.582875
1535941986.768208567,-0.269891,-0.473822,0.284879,0.156898,0.247222,0.935507,-0.197713,-1.07219,-1.31229,1.9559,-0.138629,-2.06618,-1.118,-0.582559
1535941986.774748713,-0.271857,-0.472655,0.284706,0.157125,0.246617,0.935974,-0.196073,-1.06802,-1.31239,1.95587,-0.13903,-2.06643,-1.11842,-0.58176
1535941986.780511718,-0.273609,-0.471569,0.284417,0.157058,0.24583,0.936508,-0.194558,-1.06429,-1.31259,1.95569,-0.139591,-2.06655,-1.11924,-0.581129
1535941986.812214965,-0.273609,-0.471569,0.284417,0.157058,0.24583,0.936508,-0.194558,-1.06429,-1.31259,1.95569,-0.139591,-2.06655,-1.11924,-0.581129
1535941986.818117002,-0.283465,-0.465399,0.283106,0.157337,0.242112,0.939254,-0.185548,-1.04316,-1.31352,1.95488,-0.142158,-2.06705,-1.12251,-0.578538
1535941986.852616037,-0.283465,-0.465399,0.283106,0.157337,0.242112,0.939254,-0.185548,-1.04316,-1.31352,1.95488,-0.142158,-2.06705,-1.12251,-0.578538
1535941986.858944078,-0.295515,-0.457652,0.282372,0.15939,0.238634,0.942018,-0.173927,-1.01707,-1.31405,1.95453,-0.143549,-2.06677,-1.12448,-0.576907
1535941986.865244912,-0.297593,-0.456287,0.282319,0.159838,0.238184,0.942441,-0.171827,-1.01253,-1.31402,1.95445,-0.14379,-2.06675,-1.12457,-0.576748
1535941986.871063179,-0.299588,-0.454963,0.282206,0.16013,0.237786,0.942884,-0.169664,-1.00816,-1.31408,1.95445,-0.144083,-2.067,-1.12464,-0.576813
1535941986.877614922,-0.300995,-0.454039,0.282131,0.160427,0.23758,0.94318,-0.168018,-1.00512,-1.31408,1.95445,-0.144404,-2.0671,-1.12437,-0.57709
1535941986.883881007,-0.302492,-0.453036,0.281912,0.160611,0.23723,0.943545,-0.166281,-1.00192,-1.31418,1.95442,-0.145072,-2.06721,-1.12408,-0.577256
1535941986.889559995,-0.304104,-0.451917,0.281672,0.160678,0.236757,0.943967,-0.164486,-0.998448,-1.31418,1.95442,-0.14598,-2.06749,-1.12406,-0.577189
1535941986.895873831,-0.305448,-0.450945,0.281369,0.160602,0.236098,0.944396,-0.163035,-0.995567,-1.31425,1.95436,-0.146937,-2.06749,-1.12438,-0.577045
1535941986.902046308,-0.306774,-0.449988,0.281149,0.160606,0.235565,0.944778,-0.161586,-0.992739,-1.31415,1.95439,-0.147941,-2.06764,-1.12451,-0.576884
1535941986.908184581,-0.308253,-0.448908,0.28078,0.160501,0.23488,0.945244,-0.159949,-0.989591,-1.31421,1.95445,-0.149183,-2.06786,-1.12467,-0.576699
1535941986.914310737,-0.310403,-0.447333,0.280453,0.160509,0.234033,0.945859,-0.157533,-0.984949,-1.31408,1.95451,-0.150636,-2.06808,-1.12499,-0.5766
1535941986.920463461,-0.312514,-0.445759,0.279979,0.160498,0.232933,0.946483,-0.155412,-0.980414,-1.31417,1.95459,-0.152163,-2.0681,-1.12542,-0.576003
1535941986.926656382,-0.314543,-0.444205,0.279563,0.160328,0.231859,0.947095,-0.153448,-0.975932,-1.31424,1.95459,-0.153482,-2.0683,-1.12628,-0.575214
1535941986.932895634,-0.316322,-0.442834,0.279219,0.160179,0.230967,0.94762,-0.151703,-0.971984,-1.31427,1.95461,-0.154617,-2.06856,-1.127,-0.574541
1535941986.938598767,-0.318123,-0.441388,0.278769,0.159815,0.229816,0.948237,-0.149969,-0.967982,-1.3143,1.95464,-0.156095,-2.06881,-1.12811,-0.573699
1535941986.944908688,-0.319687,-0.440145,0.278415,0.159645,0.228886,0.948732,-0.148434,-0.964514,-1.31434,1.95461,-0.157253,-2.06882,-1.12886,-0.573093
1535941986.951019255,-0.321249,-0.438861,0.278021,0.159377,0.22782,0.949272,-0.1469,-0.961099,-1.31418,1.95453,-0.158934,-2.06875,-1.12966,-0.57235
1535941986.956605957,-0.322957,-0.437492,0.277655,0.159231,0.226957,0.949801,-0.144965,-0.957364,-1.31396,1.95428,-0.160693,-2.06862,-1.12996,-0.572049
1535941986.988019908,-0.322957,-0.437492,0.277655,0.159231,0.226957,0.949801,-0.144965,-0.957364,-1.31396,1.95428,-0.160693,-2.06862,-1.12996,-0.572049
1535941986.994442143,-0.333982,-0.428356,0.27378,0.158889,0.219239,0.953613,-0.131568,-0.934315,-1.3138,1.95403,-0.175467,-2.06444,-1.12942,-0.572043
1535941987.000370138,-0.335733,-0.426812,0.273005,0.158783,0.217594,0.954322,-0.129266,-0.93074,-1.3138,1.95409,-0.178336,-2.06319,-1.12945,-0.572401
1535941987.007014501,-0.337703,-0.425041,0.272261,0.158694,0.215656,0.955075,-0.127043,-0.926578,-1.31377,1.95412,-0.181071,-2.06174,-1.13008,-0.572158
1535941987.012835700,-0.339616,-0.423314,0.271501,0.158711,0.213747,0.955779,-0.124939,-0.922576,-1.31373,1.95409,-0.183893,-2.06011,-1.13041,-0.571789
1535941987.019383612,-0.341587,-0.421481,0.270719,0.158617,0.211584,0.956526,-0.123005,-0.918361,-1.31373,1.95409,-0.186666,-2.05844,-1.13129,-0.570932
1535941987.025668771,-0.34339,-0.419752,0.269875,0.158382,0.20939,0.957263,-0.121319,-0.91452,-1.3138,1.95414,-0.189541,-2.05691,-1.13226,-0.569869
1535941987.031284196,-0.345005,-0.418166,0.269209,0.158139,0.207374,0.957923,-0.11988,-0.910998,-1.3137,1.95406,-0.192032,-2.05539,-1.13346,-0.568778
1535941987.037772396,-0.346679,-0.416577,0.268603,0.157968,0.205708,0.958527,-0.118134,-0.907263,-1.31377,1.95406,-0.194039,-2.05429,-1.13433,-0.56819
1535941987.043963388,-0.348312,-0.414989,0.267965,0.157696,0.203973,0.959137,-0.116546,-0.903582,-1.31386,1.95408,-0.196083,-2.0533,-1.1354,-0.567305
1535941987.050150647,-0.350046,-0.413355,0.267523,0.157666,0.202533,0.959649,-0.11487,-0.89958,-1.31389,1.95417,-0.197556,-2.05253,-1.13628,-0.566447
1535941987.056393383,-0.351948,-0.411549,0.266938,0.157406,0.201068,0.96023,-0.112932,-0.895098,-1.31415,1.95428,-0.199122,-2.05219,-1.13727,-0.565542
1535941987.062592531,-0.354165,-0.40947,0.266415,0.157192,0.199727,0.960824,-0.110533,-0.889762,-1.31441,1.95439,-0.200465,-2.05213,-1.13826,-0.564771
1535941987.068665043,-0.356164,-0.40757,0.265926,0.156935,0.198562,0.96136,-0.108309,-0.884907,-1.3146,1.95433,-0.201809,-2.05208,-1.13908,-0.564095
1535941987.074422316,-0.35792,-0.40587,0.265386,0.15655,0.197473,0.961862,-0.106387,-0.880585,-1.31493,1.95421,-0.203082,-2.05213,-1.13991,-0.563329
1535941987.080681679,-0.359662,-0.404194,0.26492,0.156169,0.196613,0.962313,-0.104446,-0.87621,-1.31526,1.95403,-0.204091,-2.05246,-1.14066,-0.562588
1535941987.086872443,-0.361235,-0.402693,0.264351,0.155697,0.195976,0.962731,-0.102471,-0.872208,-1.31588,1.95376,-0.204943,-2.05297,-1.14106,-0.562284
1535941987.092962964,-0.362801,-0.401173,0.263658,0.155131,0.195198,0.963187,-0.100511,-0.868207,-1.3167,1.95343,-0.205857,-2.05334,-1.14154,-0.561956
1535941987.099092068,-0.364734,-0.399294,0.262884,0.154504,0.194391,0.963704,-0.0980533,-0.863245,-1.31756,1.95297,-0.207015,-2.05386,-1.14194,-0.561562
1535941987.105223980,-0.366939,-0.397138,0.262078,0.153905,0.193503,0.964273,-0.0951146,-0.857589,-1.31843,1.95254,-0.208255,-2.05436,-1.14233,-0.561438
1535941987.111393559,-0.369036,-0.395084,0.261499,0.153782,0.192588,0.964735,-0.0924525,-0.85236,-1.31888,1.95242,-0.209532,-2.05441,-1.14239,-0.561211
1535941987.117208430,-0.370591,-0.393552,0.261012,0.153755,0.191841,0.965082,-0.0904043,-0.848572,-1.3193,1.95273,-0.210589,-2.05461,-1.14226,-0.561193
1535941987.123503395,-0.372171,-0.391958,0.260469,0.153589,0.191025,0.96547,-0.0882436,-0.844677,-1.31971,1.95292,-0.211836,-2.05478,-1.14226,-0.561238
1535941987.130102499,-0.373921,-0.390191,0.259851,0.153412,0.19016,0.965885,-0.0858494,-0.840355,-1.32031,1.95344,-0.213021,-2.05533,-1.14226,-0.561283
1535941987.135667635,-0.375752,-0.388311,0.259111,0.15328,0.189013,0.966345,-0.0834045,-0.835873,-1.32106,1.95398,-0.214378,-2.05544,-1.14226,-0.561283
1535941987.141857070,-0.377822,-0.386144,0.258175,0.153008,0.187617,0.966894,-0.0806486,-0.830751,-1.32203,1.95449,-0.216,-2.05552,-1.14236,-0.56119
1535941987.148023560,-0.379858,-0.383968,0.257184,0.15266,0.186174,0.967452,-0.0779153,-0.825682,-1.323,1.95488,-0.217831,-2.0555,-1.14245,-0.56103
1535941987.154172450,-0.382065,-0.381594,0.256403,0.152454,0.184832,0.967975,-0.0749599,-0.82008,-1.32354,1.95489,-0.219708,-2.05517,-1.14256,-0.560847
1535941987.166623603,-0.385799,-0.377237,0.254964,0.151158,0.181768,0.969099,-0.0704184,-0.810209,-1.32395,1.95429,-0.22401,-2.0543,-1.14477,-0.558962
1535941987.173240585,-0.38738,-0.375253,0.254132,0.150313,0.179994,0.969698,-0.0685087,-0.806047,-1.32408,1.95406,-0.226733,-2.05365,-1.14602,-0.557868
1535941987.179482032,-0.389187,-0.373046,0.253297,0.149751,0.178146,0.970293,-0.0661124,-0.801405,-1.32421,1.95406,-0.229527,-2.05275,-1.14685,-0.557282
1535941987.191284256,-0.392297,-0.369018,0.251539,0.148297,0.174359,0.971465,-0.0621433,-0.793348,-1.32431,1.95386,-0.235759,-2.05085,-1.14865,-0.555409
1535941987.197807863,-0.394139,-0.36666,0.250552,0.147676,0.172353,0.972073,-0.059667,-0.7886,-1.32438,1.95386,-0.239312,-2.04985,-1.14912,-0.554564
1535941987.204065953,-0.396111,-0.364131,0.24963,0.147078,0.170369,0.972696,-0.0566192,-0.783478,-1.32431,1.95392,-0.242882,-2.04878,-1.14961,-0.554527
1535941987.209704720,-0.39794,-0.361735,0.248788,0.146467,0.168403,0.973284,-0.0539158,-0.778622,-1.32428,1.95389,-0.246041,-2.04761,-1.15042,-0.554256
1535941987.221969144,-0.401228,-0.357416,0.247368,0.145499,0.165167,0.974231,-0.0492358,-0.769765,-1.32421,1.95389,-0.251439,-2.04597,-1.15156,-0.553256
1535941987.228222421,-0.402809,-0.355297,0.246718,0.145008,0.163511,0.974681,-0.0472699,-0.76539,-1.32424,1.95392,-0.253736,-2.04518,-1.15251,-0.552217
1535941987.234192302,-0.404278,-0.353302,0.246098,0.144385,0.16213,0.975098,-0.0452888,-0.761228,-1.32428,1.95389,-0.255943,-2.04484,-1.15339,-0.551359
1535941987.246510688,-0.407439,-0.349086,0.245021,0.143468,0.159465,0.975858,-0.0410926,-0.752158,-1.32451,1.95387,-0.259382,-2.04398,-1.15523,-0.5498
1535941987.252655524,-0.409317,-0.346569,0.244483,0.143019,0.158001,0.976265,-0.0385624,-0.746715,-1.32454,1.95389,-0.261258,-2.04355,-1.15627,-0.548937
1535941987.258833310,-0.411054,-0.344238,0.243932,0.142547,0.156781,0.976622,-0.0361795,-0.741593,-1.32477,1.95387,-0.262812,-2.04341,-1.15712,-0.548148
1535941987.271375692,-0.414319,-0.339818,0.242808,0.141841,0.15452,0.977253,-0.0313317,-0.731989,-1.32523,1.95365,-0.266078,-2.04265,-1.15798,-0.547359
1535941987.277828309,-0.415856,-0.337735,0.242153,0.141444,0.153648,0.977528,-0.028722,-0.7274,-1.32569,1.95336,-0.267652,-2.04244,-1.15795,-0.547517
1535941987.283686801,-0.417234,-0.335788,0.241385,0.14097,0.152598,0.977828,-0.0263516,-0.723292,-1.32619,1.95305,-0.269573,-2.04193,-1.15787,-0.547587
1535941987.289581358,-0.418636,-0.333825,0.24058,0.140483,0.151712,0.978098,-0.0239324,-0.719024,-1.32685,1.95253,-0.271307,-2.04154,-1.15761,-0.54764
1535941987.301937164,-0.42202,-0.328907,0.239009,0.139437,0.149046,0.978779,-0.0182784,-0.708673,-1.32765,1.95178,-0.275593,-2.03999,-1.15813,-0.547489
1535941987.308418288,-0.423824,-0.326254,0.238182,0.138964,0.147694,0.979103,-0.0152198,-0.703124,-1.32802,1.9514,-0.277989,-2.0392,-1.15813,-0.547399
1535941987.314393785,-0.425262,-0.324088,0.237266,0.138394,0.146531,0.979395,-0.0126779,-0.698588,-1.32872,1.95078,-0.280046,-2.03838,-1.15798,-0.547404
1535941987.327249235,-0.427886,-0.319939,0.235382,0.13705,0.144033,0.980005,-0.00782748,-0.690211,-1.32995,1.94971,-0.284711,-2.03669,-1.15785,-0.54743
1535941987.360770324,-0.427886,-0.319939,0.235382,0.13705,0.144033,0.980005,-0.00782748,-0.690211,-1.32995,1.94971,-0.284711,-2.03669,-1.15785,-0.54743
1535941987.366946790,-0.43781,-0.304369,0.232022,0.135129,0.137455,0.981195,0.0101163,-0.658251,-1.33009,1.94977,-0.297397,-2.03479,-1.15811,-0.547378
1535941987.373101747,-0.43921,-0.302107,0.231731,0.134747,0.136974,0.981284,0.0127633,-0.653449,-1.32982,1.94959,-0.299062,-2.03525,-1.15824,-0.547216
1535941987.379398290,-0.440356,-0.300198,0.231433,0.134252,0.136425,0.9814,0.0147967,-0.649394,-1.32978,1.9495,-0.300226,-2.03568,-1.15885,-0.546771
1535941987.385590039,-0.441288,-0.298532,0.23109,0.133371,0.135895,0.981571,0.0162418,-0.645819,-1.32992,1.94938,-0.30116,-2.03654,-1.16016,-0.545632
1535941987.391739603,-0.442534,-0.296389,0.2308,0.132529,0.135234,0.981746,0.0179849,-0.641124,-1.33013,1.94938,-0.301728,-2.03748,-1.16189,-0.54412
1535941987.397870159,-0.444002,-0.293904,0.230517,0.131724,0.134551,0.981911,0.0198837,-0.635575,-1.33044,1.94928,-0.302033,-2.03847,-1.16377,-0.542177
